public/luts/black-white.cube
TITLE "Black & White"
LUT_3D_SIZE 17
0.000000 0.000000 0.000000
0.000000 0.000000 0.000000
0.000000 0.000000 0.000000
0.000000 0.000000 0.000000
0.000000 0.000000 0.000000
0.014410 0.014410 0.014410
0.029292 0.029292 0.029292
0.044174 0.044174 0.044174
0.059056 0.059056 0.059056
0.073938 0.073938 0.073938
0.088820 0.088820 0.088820
0.103702 0.103702 0.103702
0.118584 0.118584 0.118584
0.133466 0.133466 0.133466
0.148348 0.148348 0.148348
0.163230 0.163230 0.163230
0.178112 0.178112 0.178112
0.000000 0.000000 0.000000
0.004946 0.004946 0.004946
0.019828 0.019828 0.019828
0.034710 0.034710 0.034710
0.049592 0.049592 0.049592
0.064474 0.064474 0.064474
0.079356 0.079356 0.079356
0.094238 0.094238 0.094238
0.109120 0.109120 0.109120
0.124002 0.124002 0.124002
0.138884 0.138884 0.138884
0.153766 0.153766 0.153766
0.168648 0.168648 0.168648
0.183530 0.183530 0.183530
0.198412 0.198412 0.198412
0.213294 0.213294 0.213294
0.228176 0.228176 0.228176
0.040128 0.040128 0.040128
0.055010 0.055010 0.055010
0.069892 0.069892 0.069892
0.084774 0.084774 0.084774
0.099656 0.099656 0.099656
0.114538 0.114538 0.114538
0.129420 0.129420 0.129420
0.144302 0.144302 0.144302
0.159184 0.159184 0.159184
0.174066 0.174066 0.174066
0.188948 0.188948 0.188948
0.203830 0.203830 0.203830
0.218712 0.218712 0.218712
0.233594 0.233594 0.233594
0.248476 0.248476 0.248476
0.263358 0.263358 0.263358
0.278240 0.278240 0.278240
0.090192 0.090192 0.090192
0.105074 0.105074 0.105074
0.119956 0.119956 0.119956
0.134838 0.134838 0.134838
0.149720 0.149720 0.149720
0.164602 0.164602 0.164602
0.179484 0.179484 0.179484
0.194366 0.194366 0.194366
0.209248 0.209248 0.209248
0.224130 0.224130 0.224130
0.239012 0.239012 0.239012
0.253894 0.253894 0.253894
0.268776 0.268776 0.268776
0.283658 0.283658 0.283658
0.298540 0.298540 0.298540
0.313422 0.313422 0.313422
0.328304 0.328304 0.328304
0.140256 0.140256 0.140256
0.155138 0.155138 0.155138
0.170020 0.170020 0.170020
0.184902 0.184902 0.184902
0.199784 0.199784 0.199784
0.214666 0.214666 0.214666
0.229548 0.229548 0.229548
0.244430 0.244430 0.244430
0.259312 0.259312 0.259312
0.274194 0.274194 0.274194
0.289076 0.289076 0.289076
0.303958 0.303958 0.303958
0.318840 0.318840 0.318840
0.333722 0.333722 0.333722
0.348604 0.348604 0.348604
0.363486 0.363486 0.363486
0.378368 0.378368 0.378368
0.190320 0.190320 0.190320
0.205202 0.205202 0.205202
0.220084 0.220084 0.220084
0.234966 0.234966 0.234966
0.249848 0.249848 0.249848
0.264730 0.264730 0.264730
0.279612 0.279612 0.279612
0.294494 0.294494 0.294494
0.309376 0.309376 0.309376
0.324258 0.324258 0.324258
0.339140 0.339140 0.339140
0.354022 0.354022 0.354022
0.368904 0.368904 0.368904
0.383786 0.383786 0.383786
0.398668 0.398668 0.398668
0.413550 0.413550 0.413550
0.428432 0.428432 0.428432
0.240384 0.240384 0.240384
0.255266 0.255266 0.255266
0.270148 0.270148 0.270148
0.285030 0.285030 0.285030
0.299912 0.299912 0.299912
0.314794 0.314794 0.314794
0.329676 0.329676 0.329676
0.344558 0.344558 0.344558
0.359440 0.359440 0.359440
0.374322 0.374322 0.374322
0.389204 0.389204 0.389204
0.404086 0.404086 0.404086
0.418968 0.418968 0.418968
0.433850 0.433850 0.433850
0.448732 0.448732 0.448732
0.463614 0.463614 0.463614
0.478496 0.478496 0.478496
0.290448 0.290448 0.290448
0.305330 0.305330 0.305330
0.320212 0.320212 0.320212
0.335094 0.335094 0.335094
0.349976 0.349976 0.349976
0.364858 0.364858 0.364858
0.379740 0.379740 0.379740
0.394622 0.394622 0.394622
0.409504 0.409504 0.409504
0.424386 0.424386 0.424386
0.439268 0.439268 0.439268
0.454150 0.454150 0.454150
0.469032 0.469032 0.469032
0.483914 0.483914 0.483914
0.498796 0.498796 0.498796
0.513678 0.513678 0.513678
0.528560 0.528560 0.528560
0.340512 0.340512 0.340512
0.355394 0.355394 0.355394
0.370276 0.370276 0.370276
0.385158 0.385158 0.385158
0.400040 0.400040 0.400040
0.414922 0.414922 0.414922
0.429804 0.429804 0.429804
0.444686 0.444686 0.444686
0.459568 0.459568 0.459568
0.474450 0.474450 0.474450
0.489332 0.489332 0.489332
0.504214 0.504214 0.504214
0.519096 0.519096 0.519096
0.533978 0.533978 0.533978
0.548860 0.548860 0.548860
0.563742 0.563742 0.563742
0.578624 0.578624 0.578624
0.390576 0.390576 0.390576
0.405458 0.405458 0.405458
0.420340 0.420340 0.420340
0.435222 0.435222 0.435222
0.450104 0.450104 0.450104
0.464986 0.464986 0.464986
0.479868 0.479868 0.479868
0.494750 0.494750 0.494750
0.509632 0.509632 0.509632
0.524514 0.524514 0.524514
0.539396 0.539396 0.539396
0.554278 0.554278 0.554278
0.569160 0.569160 0.569160
0.584042 0.584042 0.584042
0.598924 0.598924 0.598924
0.613806 0.613806 0.613806
0.628688 0.628688 0.628688
0.440640 0.440640 0.440640
0.455522 0.455522 0.455522
0.470404 0.470404 0.470404
0.485286 0.485286 0.485286
0.500168 0.500168 0.500168
0.515050 0.515050 0.515050
0.529932 0.529932 0.529932
0.544814 0.544814 0.544814
0.559696 0.559696 0.559696
0.574578 0.574578 0.574578
0.589460 0.589460 0.589460
0.604342 0.604342 0.604342
0.619224 0.619224 0.619224
0.634106 0.634106 0.634106
0.648988 0.648988 0.648988
0.663870 0.663870 0.663870
0.678752 0.678752 0.678752
0.490704 0.490704 0.490704
0.505586 0.505586 0.505586
0.520468 0.520468 0.520468
0.535350 0.535350 0.535350
0.550232 0.550232 0.550232
0.565114 0.565114 0.565114
0.579996 0.579996 0.579996
0.594878 0.594878 0.594878
0.609760 0.609760 0.609760
0.624642 0.624642 0.624642
0.639524 0.639524 0.639524
0.654406 0.654406 0.654406
0.669288 0.669288 0.669288
0.684170 0.684170 0.684170
0.699052 0.699052 0.699052
0.713934 0.713934 0.713934
0.728816 0.728816 0.728816
0.540768 0.540768 0.540768
0.555650 0.555650 0.555650
0.570532 0.570532 0.570532
0.585414 0.585414 0.585414
0.600296 0.600296 0.600296
0.615178 0.615178 0.615178
0.630060 0.630060 0.630060
0.644942 0.644942 0.644942
0.659824 0.659824 0.659824
0.674706 0.674706 0.674706
0.689588 0.689588 0.689588
0.704470 0.704470 0.704470
0.719352 0.719352 0.719352
0.734234 0.734234 0.734234
0.749116 0.749116 0.749116
0.763998 0.763998 0.763998
0.778880 0.778880 0.778880
0.590832 0.590832 0.590832
0.605714 0.605714 0.605714
0.620596 0.620596 0.620596
0.635478 0.635478 0.635478
0.650360 0.650360 0.650360
0.665242 0.665242 0.665242
0.680124 0.680124 0.680124
0.695006 0.695006 0.695006
0.709888 0.709888 0.709888
0.724770 0.724770 0.724770
0.739652 0.739652 0.739652
0.754534 0.754534 0.754534
0.769416 0.769416 0.769416
0.784298 0.784298 0.784298
0.799180 0.799180 0.799180
0.814062 0.814062 0.814062
0.828944 0.828944 0.828944
0.640896 0.640896 0.640896
0.655778 0.655778 0.655778
0.670660 0.670660 0.670660
0.685542 0.685542 0.685542
0.700424 0.700424 0.700424
0.715306 0.715306 0.715306
0.730188 0.730188 0.730188
0.745070 0.745070 0.745070
0.759952 0.759952 0.759952
0.774834 0.774834 0.774834
0.789716 0.789716 0.789716
0.804598 0.804598 0.804598
0.819480 0.819480 0.819480
0.834362 0.834362 0.834362
0.849244 0.849244 0.849244
0.864126 0.864126 0.864126
0.879008 0.879008 0.879008
0.690960 0.690960 0.690960
0.705842 0.705842 0.705842
0.720724 0.720724 0.720724
0.735606 0.735606 0.735606
0.750488 0.750488 0.750488
0.765370 0.765370 0.765370
0.780252 0.780252 0.780252
0.795134 0.795134 0.795134
0.810016 0.810016 0.810016
0.824898 0.824898 0.824898
0.839780 0.839780 0.839780
0.854662 0.854662 0.854662
0.869544 0.869544 0.869544
0.884426 0.884426 0.884426
0.899308 0.899308 0.899308
0.914190 0.914190 0.914190
0.929072 0.929072 0.929072
0.741024 0.741024 0.741024
0.755906 0.755906 0.755906
0.770788 0.770788 0.770788
0.785670 0.785670 0.785670
0.800552 0.800552 0.800552
0.815434 0.815434 0.815434
0.830316 0.830316 0.830316
0.845198 0.845198 0.845198
0.860080 0.860080 0.860080
0.874962 0.874962 0.874962
0.889844 0.889844 0.889844
0.904726 0.904726 0.904726
0.919608 0.919608 0.919608
0.934490 0.934490 0.934490
0.949372 0.949372 0.949372
0.964254 0.964254 0.964254
0.979136 0.979136 0.979136
0.000000 0.000000 0.000000
0.000000 0.000000 0.000000
0.000000 0.000000 0.000000
0.000000 0.000000 0.000000
0.004582 0.004582 0.004582
0.019464 0.019464 0.019464
0.034346 0.034346 0.034346
0.049228 0.049228 0.049228
0.064110 0.064110 0.064110
0.078992 0.078992 0.078992
0.093874 0.093874 0.093874
0.108756 0.108756 0.108756
0.123638 0.123638 0.123638
0.138520 0.138520 0.138520
0.153402 0.153402 0.153402
0.168284 0.168284 0.168284
0.183166 0.183166 0.183166
0.000000 0.000000 0.000000
0.010000 0.010000 0.010000
0.024882 0.024882 0.024882
0.039764 0.039764 0.039764
0.054646 0.054646 0.054646
0.069528 0.069528 0.069528
0.084410 0.084410 0.084410
0.099292 0.099292 0.099292
0.114174 0.114174 0.114174
0.129056 0.129056 0.129056
0.143938 0.143938 0.143938
0.158820 0.158820 0.158820
0.173702 0.173702 0.173702
0.188584 0.188584 0.188584
0.203466 0.203466 0.203466
0.218348 0.218348 0.218348
0.233230 0.233230 0.233230
0.045182 0.045182 0.045182
0.060064 0.060064 0.060064
0.074946 0.074946 0.074946
0.089828 0.089828 0.089828
0.104710 0.104710 0.104710
0.119592 0.119592 0.119592
0.134474 0.134474 0.134474
0.149356 0.149356 0.149356
0.164238 0.164238 0.164238
0.179120 0.179120 0.179120
0.194002 0.194002 0.194002
0.208884 0.208884 0.208884
0.223766 0.223766 0.223766
0.238648 0.238648 0.238648
0.253530 0.253530 0.253530
0.268412 0.268412 0.268412
0.283294 0.283294 0.283294
0.095246 0.095246 0.095246
0.110128 0.110128 0.110128
0.125010 0.125010 0.125010
0.139892 0.139892 0.139892
0.154774 0.154774 0.154774
0.169656 0.169656 0.169656
0.184538 0.184538 0.184538
0.199420 0.199420 0.199420
0.214302 0.214302 0.214302
0.229184 0.229184 0.229184
0.244066 0.244066 0.244066
0.258948 0.258948 0.258948
0.273830 0.273830 0.273830
0.288712 0.288712 0.288712
0.303594 0.303594 0.303594
0.318476 0.318476 0.318476
0.333358 0.333358 0.333358
0.145310 0.145310 0.145310
0.160192 0.160192 0.160192
0.175074 0.175074 0.175074
0.189956 0.189956 0.189956
0.204838 0.204838 0.204838
0.219720 0.219720 0.219720
0.234602 0.234602 0.234602
0.249484 0.249484 0.249484
0.264366 0.264366 0.264366
0.279248 0.279248 0.279248
0.294130 0.294130 0.294130
0.309012 0.309012 0.309012
0.323894 0.323894 0.323894
0.338776 0.338776 0.338776
0.353658 0.353658 0.353658
0.368540 0.368540 0.368540
0.383422 0.383422 0.383422
0.195374 0.195374 0.195374
0.210256 0.210256 0.210256
0.225138 0.225138 0.225138
0.240020 0.240020 0.240020
0.254902 0.254902 0.254902
0.269784 0.269784 0.269784
0.284666 0.284666 0.284666
0.299548 0.299548 0.299548
0.314430 0.314430 0.314430
0.329312 0.329312 0.329312
0.344194 0.344194 0.344194
0.359076 0.359076 0.359076
0.373958 0.373958 0.373958
0.388840 0.388840 0.388840
0.403722 0.403722 0.403722
0.418604 0.418604 0.418604
0.433486 0.433486 0.433486
0.245438 0.245438 0.245438
0.260320 0.260320 0.260320
0.275202 0.275202 0.275202
0.290084 0.290084 0.290084
0.304966 0.304966 0.304966
0.319848 0.319848 0.319848
0.334730 0.334730 0.334730
0.349612 0.349612 0.349612
0.364494 0.364494 0.364494
0.379376 0.379376 0.379376
0.394258 0.394258 0.394258
0.409140 0.409140 0.409140
0.424022 0.424022 0.424022
0.438904 0.438904 0.438904
0.453786 0.453786 0.453786
0.468668 0.468668 0.468668
0.483550 0.483550 0.483550
0.295502 0.295502 0.295502
0.310384 0.310384 0.310384
0.325266 0.325266 0.325266
0.340148 0.340148 0.340148
0.355030 0.355030 0.355030
0.369912 0.369912 0.369912
0.384794 0.384794 0.384794
0.399676 0.399676 0.399676
0.414558 0.414558 0.414558
0.429440 0.429440 0.429440
0.444322 0.444322 0.444322
0.459204 0.459204 0.459204
0.474086 0.474086 0.474086
0.488968 0.488968 0.488968
0.503850 0.503850 0.503850
0.518732 0.518732 0.518732
0.533614 0.533614 0.533614
0.345566 0.345566 0.345566
0.360448 0.360448 0.360448
0.375330 0.375330 0.375330
0.390212 0.390212 0.390212
0.405094 0.405094 0.405094
0.419976 0.419976 0.419976
0.434858 0.434858 0.434858
0.449740 0.449740 0.449740
0.464622 0.464622 0.464622
0.479504 0.479504 0.479504
0.494386 0.494386 0.494386
0.509268 0.509268 0.509268
0.524150 0.524150 0.524150
0.539032 0.539032 0.539032
0.553914 0.553914 0.553914
0.568796 0.568796 0.568796
0.583678 0.583678 0.583678
0.395630 0.395630 0.395630
0.410512 0.410512 0.410512
0.425394 0.425394 0.425394
0.440276 0.440276 0.440276
0.455158 0.455158 0.455158
0.470040 0.470040 0.470040
0.484922 0.484922 0.484922
0.499804 0.499804 0.499804
0.514686 0.514686 0.514686
0.529568 0.529568 0.529568
0.544450 0.544450 0.544450
0.559332 0.559332 0.559332
0.574214 0.574214 0.574214
0.589096 0.589096 0.589096
0.603978 0.603978 0.603978
0.618860 0.618860 0.618860
0.633742 0.633742 0.633742
0.445694 0.445694 0.445694
0.460576 0.460576 0.460576
0.475458 0.475458 0.475458
0.490340 0.490340 0.490340
0.505222 0.505222 0.505222
0.520104 0.520104 0.520104
0.534986 0.534986 0.534986
0.549868 0.549868 0.549868
0.564750 0.564750 0.564750
0.579632 0.579632 0.579632
0.594514 0.594514 0.594514
0.609396 0.609396 0.609396
0.624278 0.624278 0.624278
0.639160 0.639160 0.639160
0.654042 0.654042 0.654042
0.668924 0.668924 0.668924
0.683806 0.683806 0.683806
0.495758 0.495758 0.495758
0.510640 0.510640 0.510640
0.525522 0.525522 0.525522
0.540404 0.540404 0.540404
0.555286 0.555286 0.555286
0.570168 0.570168 0.570168
0.585050 0.585050 0.585050
0.599932 0.599932 0.599932
0.614814 0.614814 0.614814
0.629696 0.629696 0.629696
0.644578 0.644578 0.644578
0.659460 0.659460 0.659460
0.674342 0.674342 0.674342
0.689224 0.689224 0.689224
0.704106 0.704106 0.704106
0.718988 0.718988 0.718988
0.733870 0.733870 0.733870
0.545822 0.545822 0.545822
0.560704 0.560704 0.560704
0.575586 0.575586 0.575586
0.590468 0.590468 0.590468
0.605350 0.605350 0.605350
0.620232 0.620232 0.620232
0.635114 0.635114 0.635114
0.649996 0.649996 0.649996
0.664878 0.664878 0.664878
0.679760 0.679760 0.679760
0.694642 0.694642 0.694642
0.709524 0.709524 0.709524
0.724406 0.724406 0.724406
0.739288 0.739288 0.739288
0.754170 0.754170 0.754170
0.769052 0.769052 0.769052
0.783934 0.783934 0.783934
0.595886 0.595886 0.595886
0.610768 0.610768 0.610768
0.625650 0.625650 0.625650
0.640532 0.640532 0.640532
0.655414 0.655414 0.655414
0.670296 0.670296 0.670296
0.685178 0.685178 0.685178
0.700060 0.700060 0.700060
0.714942 0.714942 0.714942
0.729824 0.729824 0.729824
0.744706 0.744706 0.744706
0.759588 0.759588 0.759588
0.774470 0.774470 0.774470
0.789352 0.789352 0.789352
0.804234 0.804234 0.804234
0.819116 0.819116 0.819116
0.833998 0.833998 0.833998
0.645950 0.645950 0.645950
0.660832 0.660832 0.660832
0.675714 0.675714 0.675714
0.690596 0.690596 0.690596
0.705478 0.705478 0.705478
0.720360 0.720360 0.720360
0.735242 0.735242 0.735242
0.750124 0.750124 0.750124
0.765006 0.765006 0.765006
0.779888 0.779888 0.779888
0.794770 0.794770 0.794770
0.809652 0.809652 0.809652
0.824534 0.824534 0.824534
0.839416 0.839416 0.839416
0.854298 0.854298 0.854298
0.869180 0.869180 0.869180
0.884062 0.884062 0.884062
0.696014 0.696014 0.696014
0.710896 0.710896 0.710896
0.725778 0.725778 0.725778
0.740660 0.740660 0.740660
0.755542 0.755542 0.755542
0.770424 0.770424 0.770424
0.785306 0.785306 0.785306
0.800188 0.800188 0.800188
0.815070 0.815070 0.815070
0.829952 0.829952 0.829952
0.844834 0.844834 0.844834
0.859716 0.859716 0.859716
0.874598 0.874598 0.874598
0.889480 0.889480 0.889480
0.904362 0.904362 0.904362
0.919244 0.919244 0.919244
0.934126 0.934126 0.934126
0.746078 0.746078 0.746078
0.760960 0.760960 0.760960
0.775842 0.775842 0.775842
0.790724 0.790724 0.790724
0.805606 0.805606 0.805606
0.820488 0.820488 0.820488
0.835370 0.835370 0.835370
0.850252 0.850252 0.850252
0.865134 0.865134 0.865134
0.880016 0.880016 0.880016
0.894898 0.894898 0.894898
0.909780 0.909780 0.909780
0.924662 0.924662 0.924662
0.939544 0.939544 0.939544
0.954426 0.954426 0.954426
0.969308 0.969308 0.969308
0.984190 0.984190 0.984190
0.000000 0.000000 0.000000
0.000000 0.000000 0.000000
0.000000 0.000000 0.000000
0.000000 0.000000 0.000000
0.009636 0.009636 0.009636
0.024518 0.024518 0.024518
0.039400 0.039400 0.039400
0.054282 0.054282 0.054282
0.069164 0.069164 0.069164
0.084046 0.084046 0.084046
0.098928 0.098928 0.098928
0.113810 0.113810 0.113810
0.128692 0.128692 0.128692
0.143574 0.143574 0.143574
0.158456 0.158456 0.158456
0.173338 0.173338 0.173338
0.188220 0.188220 0.188220
0.000172 0.000172 0.000172
0.015054 0.015054 0.015054
0.029936 0.029936 0.029936
0.044818 0.044818 0.044818
0.059700 0.059700 0.059700
0.074582 0.074582 0.074582
0.089464 0.089464 0.089464
0.104346 0.104346 0.104346
0.119228 0.119228 0.119228
0.134110 0.134110 0.134110
0.148992 0.148992 0.148992
0.163874 0.163874 0.163874
0.178756 0.178756 0.178756
0.193638 0.193638 0.193638
0.208520 0.208520 0.208520
0.223402 0.223402 0.223402
0.238284 0.238284 0.238284
0.050236 0.050236 0.050236
0.065118 0.065118 0.065118
0.080000 0.080000 0.080000
0.094882 0.094882 0.094882
0.109764 0.109764 0.109764
0.124646 0.124646 0.124646
0.139528 0.139528 0.139528
0.154410 0.154410 0.154410
0.169292 0.169292 0.169292
0.184174 0.184174 0.184174
0.199056 0.199056 0.199056
0.213938 0.213938 0.213938
0.228820 0.228820 0.228820
0.243702 0.243702 0.243702
0.258584 0.258584 0.258584
0.273466 0.273466 0.273466
0.288348 0.288348 0.288348
0.100300 0.100300 0.100300
0.115182 0.115182 0.115182
0.130064 0.130064 0.130064
0.144946 0.144946 0.144946
0.159828 0.159828 0.159828
0.174710 0.174710 0.174710
0.189592 0.189592 0.189592
0.204474 0.204474 0.204474
0.219356 0.219356 0.219356
0.234238 0.234238 0.234238
0.249120 0.249120 0.249120
0.264002 0.264002 0.264002
0.278884 0.278884 0.278884
0.293766 0.293766 0.293766
0.308648 0.308648 0.308648
0.323530 0.323530 0.323530
0.338412 0.338412 0.338412
0.150364 0.150364 0.150364
0.165246 0.165246 0.165246
0.180128 0.180128 0.180128
0.195010 0.195010 0.195010
0.209892 0.209892 0.209892
0.224774 0.224774 0.224774
0.239656 0.239656 0.239656
0.254538 0.254538 0.254538
0.269420 0.269420 0.269420
0.284302 0.284302 0.284302
0.299184 0.299184 0.299184
0.314066 0.314066 0.314066
0.328948 0.328948 0.328948
0.343830 0.343830 0.343830
0.358712 0.358712 0.358712
0.373594 0.373594 0.373594
0.388476 0.388476 0.388476
0.200428 0.200428 0.200428
0.215310 0.215310 0.215310
0.230192 0.230192 0.230192
0.245074 0.245074 0.245074
0.259956 0.259956 0.259956
0.274838 0.274838 0.274838
0.289720 0.289720 0.289720
0.304602 0.304602 0.304602
0.319484 0.319484 0.319484
0.334366 0.334366 0.334366
0.349248 0.349248 0.349248
0.364130 0.364130 0.364130
0.379012 0.379012 0.379012
0.393894 0.393894 0.393894
0.408776 0.408776 0.408776
0.423658 0.423658 0.423658
0.438540 0.438540 0.438540
0.250492 0.250492 0.250492
0.265374 0.265374 0.265374
0.280256 0.280256 0.280256
0.295138 0.295138 0.295138
0.310020 0.310020 0.310020
0.324902 0.324902 0.324902
0.339784 0.339784 0.339784
0.354666 0.354666 0.354666
0.369548 0.369548 0.369548
0.384430 0.384430 0.384430
0.399312 0.399312 0.399312
0.414194 0.414194 0.414194
0.429076 0.429076 0.429076
0.443958 0.443958 0.443958
0.458840 0.458840 0.458840
0.473722 0.473722 0.473722
0.488604 0.488604 0.488604
0.300556 0.300556 0.300556
0.315438 0.315438 0.315438
0.330320 0.330320 0.330320
0.345202 0.345202 0.345202
0.360084 0.360084 0.360084
0.374966 0.374966 0.374966
0.389848 0.389848 0.389848
0.404730 0.404730 0.404730
0.419612 0.419612 0.419612
0.434494 0.434494 0.434494
0.449376 0.449376 0.449376
0.464258 0.464258 0.464258
0.479140 0.479140 0.479140
0.494022 0.494022 0.494022
0.508904 0.508904 0.508904
0.523786 0.523786 0.523786
0.538668 0.538668 0.538668
0.350620 0.350620 0.350620
0.365502 0.365502 0.365502
0.380384 0.380384 0.380384
0.395266 0.395266 0.395266
0.410148 0.410148 0.410148
0.425030 0.425030 0.425030
0.439912 0.439912 0.439912
0.454794 0.454794 0.454794
0.469676 0.469676 0.469676
0.484558 0.484558 0.484558
0.499440 0.499440 0.499440
0.514322 0.514322 0.514322
0.529204 0.529204 0.529204
0.544086 0.544086 0.544086
0.558968 0.558968 0.558968
0.573850 0.573850 0.573850
0.588732 0.588732 0.588732
0.400684 0.400684 0.400684
0.415566 0.415566 0.415566
0.430448 0.430448 0.430448
0.445330 0.445330 0.445330
0.460212 0.460212 0.460212
0.475094 0.475094 0.475094
0.489976 0.489976 0.489976
0.504858 0.504858 0.504858
0.519740 0.519740 0.519740
0.534622 0.534622 0.534622
0.549504 0.549504 0.549504
0.564386 0.564386 0.564386
0.579268 0.579268 0.579268
0.594150 0.594150 0.594150
0.609032 0.609032 0.609032
0.623914 0.623914 0.623914
0.638796 0.638796 0.638796
0.450748 0.450748 0.450748
0.465630 0.465630 0.465630
0.480512 0.480512 0.480512
0.495394 0.495394 0.495394
0.510276 0.510276 0.510276
0.525158 0.525158 0.525158
0.540040 0.540040 0.540040
0.554922 0.554922 0.554922
0.569804 0.569804 0.569804
0.584686 0.584686 0.584686
0.599568 0.599568 0.599568
0.614450 0.614450 0.614450
0.629332 0.629332 0.629332
0.644214 0.644214 0.644214
0.659096 0.659096 0.659096
0.673978 0.673978 0.673978
0.688860 0.688860 0.688860
0.500812 0.500812 0.500812
0.515694 0.515694 0.515694
0.530576 0.530576 0.530576
0.545458 0.545458 0.545458
0.560340 0.560340 0.560340
0.575222 0.575222 0.575222
0.590104 0.590104 0.590104
0.604986 0.604986 0.604986
0.619868 0.619868 0.619868
0.634750 0.634750 0.634750
0.649632 0.649632 0.649632
0.664514 0.664514 0.664514
0.679396 0.679396 0.679396
0.694278 0.694278 0.694278
0.709160 0.709160 0.709160
0.724042 0.724042 0.724042
0.738924 0.738924 0.738924
0.550876 0.550876 0.550876
0.565758 0.565758 0.565758
0.580640 0.580640 0.580640
0.595522 0.595522 0.595522
0.610404 0.610404 0.610404
0.625286 0.625286 0.625286
0.640168 0.640168 0.640168
0.655050 0.655050 0.655050
0.669932 0.669932 0.669932
0.684814 0.684814 0.684814
0.699696 0.699696 0.699696
0.714578 0.714578 0.714578
0.729460 0.729460 0.729460
0.744342 0.744342 0.744342
0.759224 0.759224 0.759224
0.774106 0.774106 0.774106
0.788988 0.788988 0.788988
0.600940 0.600940 0.600940
0.615822 0.615822 0.615822
0.630704 0.630704 0.630704
0.645586 0.645586 0.645586
0.660468 0.660468 0.660468
0.675350 0.675350 0.675350
0.690232 0.690232 0.690232
0.705114 0.705114 0.705114
0.719996 0.719996 0.719996
0.734878 0.734878 0.734878
0.749760 0.749760 0.749760
0.764642 0.764642 0.764642
0.779524 0.779524 0.779524
0.794406 0.794406 0.794406
0.809288 0.809288 0.809288
0.824170 0.824170 0.824170
0.839052 0.839052 0.839052
0.651004 0.651004 0.651004
0.665886 0.665886 0.665886
0.680768 0.680768 0.680768
0.695650 0.695650 0.695650
0.710532 0.710532 0.710532
0.725414 0.725414 0.725414
0.740296 0.740296 0.740296
0.755178 0.755178 0.755178
0.770060 0.770060 0.770060
0.784942 0.784942 0.784942
0.799824 0.799824 0.799824
0.814706 0.814706 0.814706
0.829588 0.829588 0.829588
0.844470 0.844470 0.844470
0.859352 0.859352 0.859352
0.874234 0.874234 0.874234
0.889116 0.889116 0.889116
0.701068 0.701068 0.701068
0.715950 0.715950 0.715950
0.730832 0.730832 0.730832
0.745714 0.745714 0.745714
0.760596 0.760596 0.760596
0.775478 0.775478 0.775478
0.790360 0.790360 0.790360
0.805242 0.805242 0.805242
0.820124 0.820124 0.820124
0.835006 0.835006 0.835006
0.849888 0.849888 0.849888
0.864770 0.864770 0.864770
0.879652 0.879652 0.879652
0.894534 0.894534 0.894534
0.909416 0.909416 0.909416
0.924298 0.924298 0.924298
0.939180 0.939180 0.939180
0.751132 0.751132 0.751132
0.766014 0.766014 0.766014
0.780896 0.780896 0.780896
0.795778 0.795778 0.795778
0.810660 0.810660 0.810660
0.825542 0.825542 0.825542
0.840424 0.840424 0.840424
0.855306 0.855306 0.855306
0.870188 0.870188 0.870188
0.885070 0.885070 0.885070
0.899952 0.899952 0.899952
0.914834 0.914834 0.914834
0.929716 0.929716 0.929716
0.944598 0.944598 0.944598
0.959480 0.959480 0.959480
0.974362 0.974362 0.974362
0.989244 0.989244 0.989244
0.000000 0.000000 0.000000
0.000000 0.000000 0.000000
0.000000 0.000000 0.000000
0.000000 0.000000 0.000000
0.014690 0.014690 0.014690
0.029572 0.029572 0.029572
0.044454 0.044454 0.044454
0.059336 0.059336 0.059336
0.074218 0.074218 0.074218
0.089100 0.089100 0.089100
0.103982 0.103982 0.103982
0.118864 0.118864 0.118864
0.133746 0.133746 0.133746
0.148628 0.148628 0.148628
0.163510 0.163510 0.163510
0.178392 0.178392 0.178392
0.193274 0.193274 0.193274
0.005226 0.005226 0.005226
0.020108 0.020108 0.020108
0.034990 0.034990 0.034990
