public/luts/black-white.cube
TITLE "Black & White"
LUT_3D_SIZE 5
0.000000 0.000000 0.000000
0.000000 0.000000 0.000000
0.059056 0.059056 0.059056
0.118584 0.118584 0.118584
0.178112 0.178112 0.178112
0.140256 0.140256 0.140256
0.199784 0.199784 0.199784
0.259312 0.259312 0.259312
0.318840 0.318840 0.318840
0.378368 0.378368 0.378368
0.340512 0.340512 0.340512
0.400040 0.400040 0.400040
0.459568 0.459568 0.459568
0.519096 0.519096 0.519096
0.578624 0.578624 0.578624
0.540768 0.540768 0.540768
0.600296 0.600296 0.600296
0.659824 0.659824 0.659824
0.719352 0.719352 0.719352
0.778880 0.778880 0.778880
0.741024 0.741024 0.741024
0.800552 0.800552 0.800552
0.860080 0.860080 0.860080
0.919608 0.919608 0.919608
0.979136 0.979136 0.979136
0.000000 0.000000 0.000000
0.019744 0.019744 0.019744
0.079272 0.079272 0.079272
0.138800 0.138800 0.138800
0.198328 0.198328 0.198328
0.160472 0.160472 0.160472
0.220000 0.220000 0.220000
0.279528 0.279528 0.279528
0.339056 0.339056 0.339056
0.398584 0.398584 0.398584
0.360728 0.360728 0.360728
0.420256 0.420256 0.420256
0.479784 0.479784 0.479784
0.539312 0.539312 0.539312
0.598840 0.598840 0.598840
0.560984 0.560984 0.560984
0.620512 0.620512 0.620512
0.680040 0.680040 0.680040
0.739568 0.739568 0.739568
0.799096 0.799096 0.799096
0.761240 0.761240 0.761240
0.820768 0.820768 0.820768
0.880296 0.880296 0.880296
0.939824 0.939824 0.939824
0.999352 0.999352 0.999352
0.000000 0.000000 0.000000
0.039960 0.039960 0.039960
0.099488 0.099488 0.099488
0.159016 0.159016 0.159016
0.218544 0.218544 0.218544
0.180688 0.180688 0.180688
0.240216 0.240216 0.240216
0.299744 0.299744 0.299744
0.359272 0.359272 0.359272
0.418800 0.418800 0.418800
0.380944 0.380944 0.380944
0.440472 0.440472 0.440472
0.500000 0.500000 0.500000
0.559528 0.559528 0.559528
0.619056 0.619056 0.619056
0.581200 0.581200 0.581200
0.640728 0.640728 0.640728
0.700256 0.700256 0.700256
0.759784 0.759784 0.759784
0.819312 0.819312 0.819312
0.781456 0.781456 0.781456
0.840984 0.840984 0.840984
0.900512 0.900512 0.900512
0.960040 0.960040 0.960040
1.000000 1.000000 1.000000
0.000648 0.000648 0.000648
0.060176 0.060176 0.060176
0.119704 0.119704 0.119704
0.179232 0.179232 0.179232
0.238760 0.238760 0.238760
0.200904 0.200904 0.200904
0.260432 0.260432 0.260432
0.319960 0.319960 0.319960
0.379488 0.379488 0.379488
0.439016 0.439016 0.439016
0.401160 0.401160 0.401160
0.460688 0.460688 0.460688
0.520216 0.520216 0.520216
0.579744 0.579744 0.579744
0.639272 0.639272 0.639272
0.601416 0.601416 0.601416
0.660944 0.660944 0.660944
0.720472 0.720472 0.720472
0.780000 0.780000 0.780000
0.839528 0.839528 0.839528
0.801672 0.801672 0.801672
0.861200 0.861200 0.861200
0.920728 0.920728 0.920728
0.980256 0.980256 0.980256
1.000000 1.000000 1.000000
0.020864 0.020864 0.020864
0.080392 0.080392 0.080392
0.139920 0.139920 0.139920
0.199448 0.199448 0.199448
0.258976 0.258976 0.258976
0.221120 0.221120 0.221120
0.280648 0.280648 0.280648
0.340176 0.340176 0.340176
0.399704 0.399704 0.399704
0.459232 0.459232 0.459232
0.421376 0.421376 0.421376
0.480904 0.480904 0.480904
0.540432 0.540432 0.540432
0.599960 0.599960 0.599960
0.659488 0.659488 0.659488
0.621632 0.621632 0.621632
0.681160 0.681160 0.681160
0.740688 0.740688 0.740688
0.800216 0.800216 0.800216
0.859744 0.859744 0.859744
0.821888 0.821888 0.821888
0.881416 0.881416 0.881416
0.940944 0.940944 0.940944
1.000000 1.000000 1.000000
1.000000 1.000000 1.000000
