public/luts/black-white.cube
TITLE "Black & White"
LUT_3D_SIZE 9
0.000000 0.000000 0.000000
0.000000 0.000000 0.000000
0.000000 0.000000 0.000000
0.029292 0.029292 0.029292
0.059056 0.059056 0.059056
0.088820 0.088820 0.088820
0.118584 0.118584 0.118584
0.148348 0.148348 0.148348
0.178112 0.178112 0.178112
0.040128 0.040128 0.040128
0.069892 0.069892 0.069892
0.099656 0.099656 0.099656
0.129420 0.129420 0.129420
0.159184 0.159184 0.159184
0.188948 0.188948 0.188948
0.218712 0.218712 0.218712
0.248476 0.248476 0.248476
0.278240 0.278240 0.278240
0.140256 0.140256 0.140256
0.170020 0.170020 0.170020
0.199784 0.199784 0.199784
0.229548 0.229548 0.229548
0.259312 0.259312 0.259312
0.289076 0.289076 0.289076
0.318840 0.318840 0.318840
0.348604 0.348604 0.348604
0.378368 0.378368 0.378368
0.240384 0.240384 0.240384
0.270148 0.270148 0.270148
0.299912 0.299912 0.299912
0.329676 0.329676 0.329676
0.359440 0.359440 0.359440
0.389204 0.389204 0.389204
0.418968 0.418968 0.418968
0.448732 0.448732 0.448732
0.478496 0.478496 0.478496
0.340512 0.340512 0.340512
0.370276 0.370276 0.370276
0.400040 0.400040 0.400040
0.429804 0.429804 0.429804
0.459568 0.459568 0.459568
0.489332 0.489332 0.489332
0.519096 0.519096 0.519096
0.548860 0.548860 0.548860
0.578624 0.578624 0.578624
0.440640 0.440640 0.440640
0.470404 0.470404 0.470404
0.500168 0.500168 0.500168
0.529932 0.529932 0.529932
0.559696 0.559696 0.559696
0.589460 0.589460 0.589460
0.619224 0.619224 0.619224
0.648988 0.648988 0.648988
0.678752 0.678752 0.678752
0.540768 0.540768 0.540768
0.570532 0.570532 0.570532
0.600296 0.600296 0.600296
0.630060 0.630060 0.630060
0.659824 0.659824 0.659824
0.689588 0.689588 0.689588
0.719352 0.719352 0.719352
0.749116 0.749116 0.749116
0.778880 0.778880 0.778880
0.640896 0.640896 0.640896
0.670660 0.670660 0.670660
0.700424 0.700424 0.700424
0.730188 0.730188 0.730188
0.759952 0.759952 0.759952
0.789716 0.789716 0.789716
0.819480 0.819480 0.819480
0.849244 0.849244 0.849244
0.879008 0.879008 0.879008
0.741024 0.741024 0.741024
0.770788 0.770788 0.770788
0.800552 0.800552 0.800552
0.830316 0.830316 0.830316
0.860080 0.860080 0.860080
0.889844 0.889844 0.889844
0.919608 0.919608 0.919608
0.949372 0.949372 0.949372
0.979136 0.979136 0.979136
0.000000 0.000000 0.000000
0.000000 0.000000 0.000000
0.009636 0.009636 0.009636
0.039400 0.039400 0.039400
0.069164 0.069164 0.069164
0.098928 0.098928 0.098928
0.128692 0.128692 0.128692
0.158456 0.158456 0.158456
0.188220 0.188220 0.188220
0.050236 0.050236 0.050236
0.080000 0.080000 0.080000
0.109764 0.109764 0.109764
0.139528 0.139528 0.139528
0.169292 0.169292 0.169292
0.199056 0.199056 0.199056
0.228820 0.228820 0.228820
0.258584 0.258584 0.258584
0.288348 0.288348 0.288348
0.150364 0.150364 0.150364
0.180128 0.180128 0.180128
0.209892 0.209892 0.209892
0.239656 0.239656 0.239656
0.269420 0.269420 0.269420
0.299184 0.299184 0.299184
0.328948 0.328948 0.328948
0.358712 0.358712 0.358712
0.388476 0.388476 0.388476
0.250492 0.250492 0.250492
0.280256 0.280256 0.280256
0.310020 0.310020 0.310020
0.339784 0.339784 0.339784
0.369548 0.369548 0.369548
0.399312 0.399312 0.399312
0.429076 0.429076 0.429076
0.458840 0.458840 0.458840
0.488604 0.488604 0.488604
0.350620 0.350620 0.350620
0.380384 0.380384 0.380384
0.410148 0.410148 0.410148
0.439912 0.439912 0.439912
0.469676 0.469676 0.469676
0.499440 0.499440 0.499440
0.529204 0.529204 0.529204
0.558968 0.558968 0.558968
0.588732 0.588732 0.588732
0.450748 0.450748 0.450748
0.480512 0.480512 0.480512
0.510276 0.510276 0.510276
0.540040 0.540040 0.540040
0.569804 0.569804 0.569804
0.599568 0.599568 0.599568
0.629332 0.629332 0.629332
0.659096 0.659096 0.659096
0.688860 0.688860 0.688860
0.550876 0.550876 0.550876
0.580640 0.580640 0.580640
0.610404 0.610404 0.610404
0.640168 0.640168 0.640168
0.669932 0.669932 0.669932
0.699696 0.699696 0.699696
0.729460 0.729460 0.729460
0.759224 0.759224 0.759224
0.788988 0.788988 0.788988
0.651004 0.651004 0.651004
0.680768 0.680768 0.680768
0.710532 0.710532 0.710532
0.740296 0.740296 0.740296
0.770060 0.770060 0.770060
0.799824 0.799824 0.799824
0.829588 0.829588 0.829588
0.859352 0.859352 0.859352
0.889116 0.889116 0.889116
0.751132 0.751132 0.751132
0.780896 0.780896 0.780896
0.810660 0.810660 0.810660
0.840424 0.840424 0.840424
0.870188 0.870188 0.870188
0.899952 0.899952 0.899952
0.929716 0.929716 0.929716
0.959480 0.959480 0.959480
0.989244 0.989244 0.989244
0.000000 0.000000 0.000000
0.000000 0.000000 0.000000
0.019744 0.019744 0.019744
0.049508 0.049508 0.049508
0.079272 0.079272 0.079272
0.109036 0.109036 0.109036
0.138800 0.138800 0.138800
0.168564 0.168564 0.168564
0.198328 0.198328 0.198328
0.060344 0.060344 0.060344
0.090108 0.090108 0.090108
0.119872 0.119872 0.119872
0.149636 0.149636 0.149636
0.179400 0.179400 0.179400
0.209164 0.209164 0.209164
0.238928 0.238928 0.238928
0.268692 0.268692 0.268692
0.298456 0.298456 0.298456
0.160472 0.160472 0.160472
0.190236 0.190236 0.190236
0.220000 0.220000 0.220000
0.249764 0.249764 0.249764
0.279528 0.279528 0.279528
0.309292 0.309292 0.309292
0.339056 0.339056 0.339056
0.368820 0.368820 0.368820
0.398584 0.398584 0.398584
0.260600 0.260600 0.260600
0.290364 0.290364 0.290364
0.320128 0.320128 0.320128
0.349892 0.349892 0.349892
0.379656 0.379656 0.379656
0.409420 0.409420 0.409420
0.439184 0.439184 0.439184
0.468948 0.468948 0.468948
0.498712 0.498712 0.498712
0.360728 0.360728 0.360728
0.390492 0.390492 0.390492
0.420256 0.420256 0.420256
0.450020 0.450020 0.450020
0.479784 0.479784 0.479784
0.509548 0.509548 0.509548
0.539312 0.539312 0.539312
0.569076 0.569076 0.569076
0.598840 0.598840 0.598840
0.460856 0.460856 0.460856
0.490620 0.490620 0.490620
0.520384 0.520384 0.520384
0.550148 0.550148 0.550148
0.579912 0.579912 0.579912
0.609676 0.609676 0.609676
0.639440 0.639440 0.639440
0.669204 0.669204 0.669204
0.698968 0.698968 0.698968
0.560984 0.560984 0.560984
0.590748 0.590748 0.590748
0.620512 0.620512 0.620512
0.650276 0.650276 0.650276
0.680040 0.680040 0.680040
0.709804 0.709804 0.709804
0.739568 0.739568 0.739568
0.769332 0.769332 0.769332
0.799096 0.799096 0.799096
0.661112 0.661112 0.661112
0.690876 0.690876 0.690876
0.720640 0.720640 0.720640
0.750404 0.750404 0.750404
0.780168 0.780168 0.780168
0.809932 0.809932 0.809932
0.839696 0.839696 0.839696
0.869460 0.869460 0.869460
0.899224 0.899224 0.899224
0.761240 0.761240 0.761240
0.791004 0.791004 0.791004
0.820768 0.820768 0.820768
0.850532 0.850532 0.850532
0.880296 0.880296 0.880296
0.910060 0.910060 0.910060
0.939824 0.939824 0.939824
0.969588 0.969588 0.969588
0.999352 0.999352 0.999352
0.000000 0.000000 0.000000
0.000088 0.000088 0.000088
0.029852 0.029852 0.029852
0.059616 0.059616 0.059616
0.089380 0.089380 0.089380
0.119144 0.119144 0.119144
0.148908 0.148908 0.148908
0.178672 0.178672 0.178672
0.208436 0.208436 0.208436
0.070452 0.070452 0.070452
0.100216 0.100216 0.100216
0.129980 0.129980 0.129980
0.159744 0.159744 0.159744
0.189508 0.189508 0.189508
0.219272 0.219272 0.219272
0.249036 0.249036 0.249036
0.278800 0.278800 0.278800
0.308564 0.308564 0.308564
0.170580 0.170580 0.170580
0.200344 0.200344 0.200344
0.230108 0.230108 0.230108
0.259872 0.259872 0.259872
0.289636 0.289636 0.289636
0.319400 0.319400 0.319400
0.349164 0.349164 0.349164
0.378928 0.378928 0.378928
0.408692 0.408692 0.408692
0.270708 0.270708 0.270708
0.300472 0.300472 0.300472
0.330236 0.330236 0.330236
0.360000 0.360000 0.360000
0.389764 0.389764 0.389764
0.419528 0.419528 0.419528
0.449292 0.449292 0.449292
0.479056 0.479056 0.479056
0.508820 0.508820 0.508820
0.370836 0.370836 0.370836
0.400600 0.400600 0.400600
0.430364 0.430364 0.430364
0.460128 0.460128 0.460128
0.489892 0.489892 0.489892
0.519656 0.519656 0.519656
0.549420 0.549420 0.549420
0.579184 0.579184 0.579184
0.608948 0.608948 0.608948
0.470964 0.470964 0.470964
0.500728 0.500728 0.500728
0.530492 0.530492 0.530492
0.560256 0.560256 0.560256
0.590020 0.590020 0.590020
0.619784 0.619784 0.619784
0.649548 0.649548 0.649548
0.679312 0.679312 0.679312
0.709076 0.709076 0.709076
0.571092 0.571092 0.571092
0.600856 0.600856 0.600856
0.630620 0.630620 0.630620
0.660384 0.660384 0.660384
0.690148 0.690148 0.690148
0.719912 0.719912 0.719912
0.749676 0.749676 0.749676
0.779440 0.779440 0.779440
0.809204 0.809204 0.809204
0.671220 0.671220 0.671220
0.700984 0.700984 0.700984
0.730748 0.730748 0.730748
0.760512 0.760512 0.760512
0.790276 0.790276 0.790276
0.820040 0.820040 0.820040
0.849804 0.849804 0.849804
0.879568 0.879568 0.879568
0.909332 0.909332 0.909332
0.771348 0.771348 0.771348
0.801112 0.801112 0.801112
0.830876 0.830876 0.830876
0.860640 0.860640 0.860640
0.890404 0.890404 0.890404
0.920168 0.920168 0.920168
0.949932 0.949932 0.949932
0.979696 0.979696 0.979696
1.000000 1.000000 1.000000
0.000000 0.000000 0.000000
0.010196 0.010196 0.010196
0.039960 0.039960 0.039960
0.069724 0.069724 0.069724
0.099488 0.099488 0.099488
0.129252 0.129252 0.129252
0.159016 0.159016 0.159016
0.188780 0.188780 0.188780
0.218544 0.218544 0.218544
0.080560 0.080560 0.080560
0.110324 0.110324 0.110324
0.140088 0.140088 0.140088
0.169852 0.169852 0.169852
0.199616 0.199616 0.199616
0.229380 0.229380 0.229380
0.259144 0.259144 0.259144
0.288908 0.288908 0.288908
0.318672 0.318672 0.318672
0.180688 0.180688 0.180688
0.210452 0.210452 0.210452
0.240216 0.240216 0.240216
0.269980 0.269980 0.269980
0.299744 0.299744 0.299744
0.329508 0.329508 0.329508
0.359272 0.359272 0.359272
0.389036 0.389036 0.389036
0.418800 0.418800 0.418800
0.280816 0.280816 0.280816
0.310580 0.310580 0.310580
0.340344 0.340344 0.340344
0.370108 0.370108 0.370108
0.399872 0.399872 0.399872
0.429636 0.429636 0.429636
0.459400 0.459400 0.459400
0.489164 0.489164 0.489164
0.518928 0.518928 0.518928
0.380944 0.380944 0.380944
0.410708 0.410708 0.410708
0.440472 0.440472 0.440472
0.470236 0.470236 0.470236
0.500000 0.500000 0.500000
0.529764 0.529764 0.529764
0.559528 0.559528 0.559528
0.589292 0.589292 0.589292
0.619056 0.619056 0.619056
0.481072 0.481072 0.481072
0.510836 0.510836 0.510836
0.540600 0.540600 0.540600
0.570364 0.570364 0.570364
0.600128 0.600128 0.600128
0.629892 0.629892 0.629892
0.659656 0.659656 0.659656
0.689420 0.689420 0.689420
0.719184 0.719184 0.719184
0.581200 0.581200 0.581200
0.610964 0.610964 0.610964
0.640728 0.640728 0.640728
0.670492 0.670492 0.670492
0.700256 0.700256 0.700256
0.730020 0.730020 0.730020
0.759784 0.759784 0.759784
0.789548 0.789548 0.789548
0.819312 0.819312 0.819312
0.681328 0.681328 0.681328
0.711092 0.711092 0.711092
0.740856 0.740856 0.740856
0.770620 0.770620 0.770620
0.800384 0.800384 0.800384
0.830148 0.830148 0.830148
0.859912 0.859912 0.859912
0.889676 0.889676 0.889676
0.919440 0.919440 0.919440
0.781456 0.781456 0.781456
0.811220 0.811220 0.811220
0.840984 0.840984 0.840984
0.870748 0.870748 0.870748
0.900512 0.900512 0.900512
0.930276 0.930276 0.930276
0.960040 0.960040 0.960040
0.989804 0.989804 0.989804
1.000000 1.000000 1.000000
0.000000 0.000000 0.000000
0.020304 0.020304 0.020304
0.050068 0.050068 0.050068
0.079832 0.079832 0.079832
0.109596 0.109596 0.109596
0.139360 0.139360 0.139360
0.169124 0.169124 0.169124
0.198888 0.198888 0.198888
0.228652 0.228652 0.228652
0.090668 0.090668 0.090668
0.120432 0.120432 0.120432
0.150196 0.150196 0.150196
0.179960 0.179960 0.179960
0.209724 0.209724 0.209724
0.239488 0.239488 0.239488
0.269252 0.269252 0.269252
0.299016 0.299016 0.299016
0.328780 0.328780 0.328780
0.190796 0.190796 0.190796
0.220560 0.220560 0.220560
0.250324 0.250324 0.250324
0.280088 0.280088 0.280088
0.309852 0.309852 0.309852
0.339616 0.339616 0.339616
0.369380 0.369380 0.369380
0.399144 0.399144 0.399144
0.428908 0.428908 0.428908
0.290924 0.290924 0.290924
0.320688 0.320688 0.320688
0.350452 0.350452 0.350452
0.380216 0.380216 0.380216
0.409980 0.409980 0.409980
0.439744 0.439744 0.439744
0.469508 0.469508 0.469508
0.499272 0.499272 0.499272
0.529036 0.529036 0.529036
0.391052 0.391052 0.391052
0.420816 0.420816 0.420816
0.450580 0.450580 0.450580
0.480344 0.480344 0.480344
0.510108 0.510108 0.510108
0.539872 0.539872 0.539872
0.569636 0.569636 0.569636
0.599400 0.599400 0.599400
0.629164 0.629164 0.629164
0.491180 0.491180 0.491180
0.520944 0.520944 0.520944
0.550708 0.550708 0.550708
0.580472 0.580472 0.580472
0.610236 0.610236 0.610236
0.640000 0.640000 0.640000
0.669764 0.669764 0.669764
0.699528 0.699528 0.699528
0.729292 0.729292 0.729292
0.591308 0.591308 0.591308
0.621072 0.621072 0.621072
0.650836 0.650836 0.650836
0.680600 0.680600 0.680600
0.710364 0.710364 0.710364
0.740128 0.740128 0.740128
0.769892 0.769892 0.769892
0.799656 0.799656 0.799656
0.829420 0.829420 0.829420
0.691436 0.691436 0.691436
0.721200 0.721200 0.721200
0.750964 0.750964 0.750964
0.780728 0.780728 0.780728
0.810492 0.810492 0.810492
0.840256 0.840256 0.840256
0.870020 0.870020 0.870020
0.899784 0.899784 0.899784
0.929548 0.929548 0.929548
0.791564 0.791564 0.791564
0.821328 0.821328 0.821328
0.851092 0.851092 0.851092
0.880856 0.880856 0.880856
0.910620 0.910620 0.910620
0.940384 0.940384 0.940384
0.970148 0.970148 0.970148
0.999912 0.999912 0.999912
1.000000 1.000000 1.000000
0.000648 0.000648 0.000648
0.030412 0.030412 0.030412
0.060176 0.060176 0.060176
0.089940 0.089940 0.089940
0.119704 0.119704 0.119704
0.149468 0.149468 0.149468
0.179232 0.179232 0.179232
0.208996 0.208996 0.208996
0.238760 0.238760 0.238760
0.100776 0.100776 0.100776
0.130540 0.130540 0.130540
0.160304 0.160304 0.160304
0.190068 0.190068 0.190068
0.219832 0.219832 0.219832
0.249596 0.249596 0.249596
0.279360 0.279360 0.279360
0.309124 0.309124 0.309124
0.338888 0.338888 0.338888
0.200904 0.200904 0.200904
0.230668 0.230668 0.230668
0.260432 0.260432 0.260432
0.290196 0.290196 0.290196
0.319960 0.319960 0.319960
0.349724 0.349724 0.349724
0.379488 0.379488 0.379488
0.409252 0.409252 0.409252
0.439016 0.439016 0.439016
0.301032 0.301032 0.301032
0.330796 0.330796 0.330796
0.360560 0.360560 0.360560
0.390324 0.390324 0.390324
0.420088 0.420088 0.420088
0.449852 0.449852 0.449852
0.479616 0.479616 0.479616
0.509380 0.509380 0.509380
0.539144 0.539144 0.539144
0.401160 0.401160 0.401160
0.430924 0.430924 0.430924
0.460688 0.460688 0.460688
0.490452 0.490452 0.490452
0.520216 0.520216 0.520216
0.549980 0.549980 0.549980
0.579744 0.579744 0.579744
0.609508 0.609508 0.609508
0.639272 0.639272 0.639272
0.501288 0.501288 0.501288
0.531052 0.531052 0.531052
0.560816 0.560816 0.560816
0.590580 0.590580 0.590580
0.620344 0.620344 0.620344
0.650108 0.650108 0.650108
0.679872 0.679872 0.679872
0.709636 0.709636 0.709636
0.739400 0.739400 0.739400
0.601416 0.601416 0.601416
0.631180 0.631180 0.631180
0.660944 0.660944 0.660944
0.690708 0.690708 0.690708
0.720472 0.720472 0.720472
0.750236 0.750236 0.750236
0.780000 0.780000 0.780000
0.809764 0.809764 0.809764
0.839528 0.839528 0.839528
0.701544 0.701544 0.701544
0.731308 0.731308 0.731308
0.761072 0.761072 0.761072
0.790836 0.790836 0.790836
0.820600 0.820600 0.820600
0.850364 0.850364 0.850364
0.880128 0.880128 0.880128
0.909892 0.909892 0.909892
0.939656 0.939656 0.939656
0.801672 0.801672 0.801672
0.831436 0.831436 0.831436
0.861200 0.861200 0.861200
0.890964 0.890964 0.890964
0.920728 0.920728 0.920728
0.950492 0.950492 0.950492
0.980256 0.980256 0.980256
1.000000 1.000000 1.000000
1.000000 1.000000 1.000000
0.010756 0.010756 0.010756
0.040520 0.040520 0.040520
0.070284 0.070284 0.070284
0.100048 0.100048 0.100048
0.129812 0.129812 0.129812
0.159576 0.159576 0.159576
0.189340 0.189340 0.189340
0.219104 0.219104 0.219104
0.248868 0.248868 0.248868
0.110884 0.110884 0.110884
0.140648 0.140648 0.140648
0.170412 0.170412 0.170412
0.200176 0.200176 0.200176
0.229940 0.229940 0.229940
0.259704 0.259704 0.259704
0.289468 0.289468 0.289468
0.319232 0.319232 0.319232
0.348996 0.348996 0.348996
0.211012 0.211012 0.211012
0.240776 0.240776 0.240776
0.270540 0.270540 0.270540
0.300304 0.300304 0.300304
0.330068 0.330068 0.330068
0.359832 0.359832 0.359832
0.389596 0.389596 0.389596
0.419360 0.419360 0.419360
0.449124 0.449124 0.449124
0.311140 0.311140 0.311140
0.340904 0.340904 0.340904
0.370668 0.370668 0.370668
0.400432 0.400432 0.400432
0.430196 0.430196 0.430196
0.459960 0.459960 0.459960
0.489724 0.489724 0.489724
0.519488 0.519488 0.519488
0.549252 0.549252 0.549252
0.411268 0.411268 0.411268
0.441032 0.441032 0.441032
0.470796 0.470796 0.470796
0.500560 0.500560 0.500560
0.530324 0.530324 0.530324
0.560088 0.560088 0.560088
0.589852 0.589852 0.589852
0.619616 0.619616 0.619616
0.649380 0.649380 0.649380
0.511396 0.511396 0.511396
0.541160 0.541160 0.541160
0.570924 0.570924 0.570924
0.600688 0.600688 0.600688
0.630452 0.630452 0.630452
0.660216 0.660216 0.660216
0.689980 0.689980 0.689980
0.719744 0.719744 0.719744
0.749508 0.749508 0.749508
0.611524 0.611524 0.611524
0.641288 0.641288 0.641288
0.671052 0.671052 0.671052
0.700816 0.700816 0.700816
0.730580 0.730580 0.730580
0.760344 0.760344 0.760344
0.790108 0.790108 0.790108
0.819872 0.819872 0.819872
0.849636 0.849636 0.849636
0.711652 0.711652 0.711652
0.741416 0.741416 0.741416
0.771180 0.771180 0.771180
0.800944 0.800944 0.800944
0.830708 0.830708 0.830708
0.860472 0.860472 0.860472
0.890236 0.890236 0.890236
0.920000 0.920000 0.920000
0.949764 0.949764 0.949764
0.811780 0.811780 0.811780
0.841544 0.841544 0.841544
0.871308 0.871308 0.871308
0.901072 0.901072 0.901072
0.930836 0.930836 0.930836
0.960600 0.960600 0.960600
0.990364 0.990364 0.990364
1.000000 1.000000 1.000000
1.000000 1.000000 1.000000
0.020864 0.020864 0.020864
0.050628 0.050628 0.050628
0.080392 0.080392 0.080392
0.110156 0.110156 0.110156
0.139920 0.139920 0.139920
0.169684 0.169684 0.169684
0.199448 0.199448 0.199448
0.229212 0.229212 0.229212
0.258976 0.258976 0.258976
0.120992 0.120992 0.120992
0.150756 0.150756 0.150756
0.180520 0.180520 0.180520
0.210284 0.210284 0.210284
0.240048 0.240048 0.240048
0.269812 0.269812 0.269812
0.299576 0.299576 0.299576
0.329340 0.329340 0.329340
0.359104 0.359104 0.359104
0.221120 0.221120 0.221120
0.250884 0.250884 0.250884
0.280648 0.280648 0.280648
0.310412 0.310412 0.310412
0.340176 0.340176 0.340176
0.369940 0.369940 0.369940
0.399704 0.399704 0.399704
0.429468 0.429468 0.429468
0.459232 0.459232 0.459232
0.321248 0.321248 0.321248
0.351012 0.351012 0.351012
0.380776 0.380776 0.380776
0.410540 0.410540 0.410540
0.440304 0.440304 0.440304
0.470068 0.470068 0.470068
0.499832 0.499832 0.499832
0.529596 0.529596 0.529596
0.559360 0.559360 0.559360
0.421376 0.421376 0.421376
0.451140 0.451140 0.451140
0.480904 0.480904 0.480904
0.510668 0.510668 0.510668
0.540432 0.540432 0.540432
0.570196 0.570196 0.570196
0.599960 0.599960 0.599960
0.629724 0.629724 0.629724
0.659488 0.659488 0.659488
0.521504 0.521504 0.521504
0.551268 0.551268 0.551268
0.581032 0.581032 0.581032
0.610796 0.610796 0.610796
0.640560 0.640560 0.640560
0.670324 0.670324 0.670324
0.700088 0.700088 0.700088
0.729852 0.729852 0.729852
0.759616 0.759616 0.759616
0.621632 0.621632 0.621632
0.651396 0.651396 0.651396
0.681160 0.681160 0.681160
0.710924 0.710924 0.710924
0.740688 0.740688 0.740688
0.770452 0.770452 0.770452
0.800216 0.800216 0.800216
0.829980 0.829980 0.829980
0.859744 0.859744 0.859744
0.721760 0.721760 0.721760
0.751524 0.751524 0.751524
0.781288 0.781288 0.781288
0.811052 0.811052 0.811052
0.840816 0.840816 0.840816
0.870580 0.870580 0.870580
0.900344 0.900344 0.900344
0.930108 0.930108 0.930108
0.959872 0.959872 0.959872
0.821888 0.821888 0.821888
0.851652 0.851652 0.851652
0.881416 0.881416 0.881416
0.911180 0.911180 0.911180
0.940944 0.940944 0.940944
0.970708 0.970708 0.970708
1.000000 1.000000 1.000000
1.000000 1.000000 1.000000
1.000000 1.000000 1.000000
