public/luts/cool.cube
TITLE "Cool"
LUT_3D_SIZE 9
0.000000 0.004000 0.015000
0.116250 0.004000 0.015000
0.232500 0.004000 0.015000
0.348750 0.004000 0.015000
0.465000 0.004000 0.015000
0.581250 0.004000 0.015000
0.697500 0.004000 0.015000
0.813750 0.004000 0.015000
0.930000 0.004000 0.015000
0.000000 0.129000 0.015000
0.116250 0.129000 0.015000
0.232500 0.129000 0.015000
0.348750 0.129000 0.015000
0.465000 0.129000 0.015000
0.581250 0.129000 0.015000
0.697500 0.129000 0.015000
0.813750 0.129000 0.015000
0.930000 0.129000 0.015000
0.000000 0.254000 0.015000
0.116250 0.254000 0.015000
0.232500 0.254000 0.015000
0.348750 0.254000 0.015000
0.465000 0.254000 0.015000
0.581250 0.254000 0.015000
0.697500 0.254000 0.015000
0.813750 0.254000 0.015000
0.930000 0.254000 0.015000
0.000000 0.379000 0.015000
0.116250 0.379000 0.015000
0.232500 0.379000 0.015000
0.348750 0.379000 0.015000
0.465000 0.379000 0.015000
0.581250 0.379000 0.015000
0.697500 0.379000 0.015000
0.813750 0.379000 0.015000
0.930000 0.379000 0.015000
0.000000 0.504000 0.015000
0.116250 0.504000 0.015000
0.232500 0.504000 0.015000
0.348750 0.504000 0.015000
0.465000 0.504000 0.015000
0.581250 0.504000 0.015000
0.697500 0.504000 0.015000
0.813750 0.504000 0.015000
0.930000 0.504000 0.015000
0.000000 0.629000 0.015000
0.116250 0.629000 0.015000
0.232500 0.629000 0.015000
0.348750 0.629000 0.015000
0.465000 0.629000 0.015000
0.581250 0.629000 0.015000
0.697500 0.629000 0.015000
0.813750 0.629000 0.015000
0.930000 0.629000 0.015000
0.000000 0.754000 0.015000
0.116250 0.754000 0.015000
0.232500 0.754000 0.015000
0.348750 0.754000 0.015000
0.465000 0.754000 0.015000
0.581250 0.754000 0.015000
0.697500 0.754000 0.015000
0.813750 0.754000 0.015000
0.930000 0.754000 0.015000
0.000000 0.879000 0.015000
0.116250 0.879000 0.015000
0.232500 0.879000 0.015000
0.348750 0.879000 0.015000
0.465000 0.879000 0.015000
0.581250 0.879000 0.015000
0.697500 0.879000 0.015000
0.813750 0.879000 0.015000
0.930000 0.879000 0.015000
0.000000 1.000000 0.015000
0.116250 1.000000 0.015000
0.232500 1.000000 0.015000
0.348750 1.000000 0.015000
0.465000 1.000000 0.015000
0.581250 1.000000 0.015000
0.697500 1.000000 0.015000
0.813750 1.000000 0.015000
0.930000 1.000000 0.015000
0.000000 0.004000 0.146250
0.116250 0.004000 0.146250
0.232500 0.004000 0.146250
0.348750 0.004000 0.146250
0.465000 0.004000 0.146250
0.581250 0.004000 0.146250
0.697500 0.004000 0.146250
0.813750 0.004000 0.146250
0.930000 0.004000 0.146250
0.000000 0.129000 0.146250
0.116250 0.129000 0.146250
0.232500 0.129000 0.146250
0.348750 0.129000 0.146250
0.465000 0.129000 0.146250
0.581250 0.129000 0.146250
0.697500 0.129000 0.146250
0.813750 0.129000 0.146250
0.930000 0.129000 0.146250
0.000000 0.254000 0.146250
0.116250 0.254000 0.146250
0.232500 0.254000 0.146250
0.348750 0.254000 0.146250
0.465000 0.254000 0.146250
0.581250 0.254000 0.146250
0.697500 0.254000 0.146250
0.813750 0.254000 0.146250
0.930000 0.254000 0.146250
0.000000 0.379000 0.146250
0.116250 0.379000 0.146250
0.232500 0.379000 0.146250
0.348750 0.379000 0.146250
0.465000 0.379000 0.146250
0.581250 0.379000 0.146250
0.697500 0.379000 0.146250
0.813750 0.379000 0.146250
0.930000 0.379000 0.146250
0.000000 0.504000 0.146250
0.116250 0.504000 0.146250
0.232500 0.504000 0.146250
0.348750 0.504000 0.146250
0.465000 0.504000 0.146250
0.581250 0.504000 0.146250
0.697500 0.504000 0.146250
0.813750 0.504000 0.146250
0.930000 0.504000 0.146250
0.000000 0.629000 0.146250
0.116250 0.629000 0.146250
0.232500 0.629000 0.146250
0.348750 0.629000 0.146250
0.465000 0.629000 0.146250
0.581250 0.629000 0.146250
0.697500 0.629000 0.146250
0.813750 0.629000 0.146250
0.930000 0.629000 0.146250
0.000000 0.754000 0.146250
0.116250 0.754000 0.146250
0.232500 0.754000 0.146250
0.348750 0.754000 0.146250
0.465000 0.754000 0.146250
0.581250 0.754000 0.146250
0.697500 0.754000 0.146250
0.813750 0.754000 0.146250
0.930000 0.754000 0.146250
0.000000 0.879000 0.146250
0.116250 0.879000 0.146250
0.232500 0.879000 0.146250
0.348750 0.879000 0.146250
0.465000 0.879000 0.146250
0.581250 0.879000 0.146250
0.697500 0.879000 0.146250
0.813750 0.879000 0.146250
0.930000 0.879000 0.146250
0.000000 1.000000 0.146250
0.116250 1.000000 0.146250
0.232500 1.000000 0.146250
0.348750 1.000000 0.146250
0.465000 1.000000 0.146250
0.581250 1.000000 0.146250
0.697500 1.000000 0.146250
0.813750 1.000000 0.146250
0.930000 1.000000 0.146250
0.000000 0.004000 0.277500
0.116250 0.004000 0.277500
0.232500 0.004000 0.277500
0.348750 0.004000 0.277500
0.465000 0.004000 0.277500
0.581250 0.004000 0.277500
0.697500 0.004000 0.277500
0.813750 0.004000 0.277500
0.930000 0.004000 0.277500
0.000000 0.129000 0.277500
0.116250 0.129000 0.277500
0.232500 0.129000 0.277500
0.348750 0.129000 0.277500
0.465000 0.129000 0.277500
0.581250 0.129000 0.277500
0.697500 0.129000 0.277500
0.813750 0.129000 0.277500
0.930000 0.129000 0.277500
0.000000 0.254000 0.277500
0.116250 0.254000 0.277500
0.232500 0.254000 0.277500
0.348750 0.254000 0.277500
0.465000 0.254000 0.277500
0.581250 0.254000 0.277500
0.697500 0.254000 0.277500
0.813750 0.254000 0.277500
0.930000 0.254000 0.277500
0.000000 0.379000 0.277500
0.116250 0.379000 0.277500
0.232500 0.379000 0.277500
0.348750 0.379000 0.277500
0.465000 0.379000 0.277500
0.581250 0.379000 0.277500
0.697500 0.379000 0.277500
0.813750 0.379000 0.277500
0.930000 0.379000 0.277500
0.000000 0.504000 0.277500
0.116250 0.504000 0.277500
0.232500 0.504000 0.277500
0.348750 0.504000 0.277500
0.465000 0.504000 0.277500
0.581250 0.504000 0.277500
0.697500 0.504000 0.277500
0.813750 0.504000 0.277500
0.930000 0.504000 0.277500
0.000000 0.629000 0.277500
0.116250 0.629000 0.277500
0.232500 0.629000 0.277500
0.348750 0.629000 0.277500
0.465000 0.629000 0.277500
0.581250 0.629000 0.277500
0.697500 0.629000 0.277500
0.813750 0.629000 0.277500
0.930000 0.629000 0.277500
0.000000 0.754000 0.277500
0.116250 0.754000 0.277500
0.232500 0.754000 0.277500
0.348750 0.754000 0.277500
0.465000 0.754000 0.277500
0.581250 0.754000 0.277500
0.697500 0.754000 0.277500
0.813750 0.754000 0.277500
0.930000 0.754000 0.277500
0.000000 0.879000 0.277500
0.116250 0.879000 0.277500
0.232500 0.879000 0.277500
0.348750 0.879000 0.277500
0.465000 0.879000 0.277500
0.581250 0.879000 0.277500
0.697500 0.879000 0.277500
0.813750 0.879000 0.277500
0.930000 0.879000 0.277500
0.000000 1.000000 0.277500
0.116250 1.000000 0.277500
0.232500 1.000000 0.277500
0.348750 1.000000 0.277500
0.465000 1.000000 0.277500
0.581250 1.000000 0.277500
0.697500 1.000000 0.277500
0.813750 1.000000 0.277500
0.930000 1.000000 0.277500
0.000000 0.004000 0.408750
0.116250 0.004000 0.408750
0.232500 0.004000 0.408750
0.348750 0.004000 0.408750
0.465000 0.004000 0.408750
0.581250 0.004000 0.408750
0.697500 0.004000 0.408750
0.813750 0.004000 0.408750
0.930000 0.004000 0.408750
0.000000 0.129000 0.408750
0.116250 0.129000 0.408750
0.232500 0.129000 0.408750
0.348750 0.129000 0.408750
0.465000 0.129000 0.408750
0.581250 0.129000 0.408750
0.697500 0.129000 0.408750
0.813750 0.129000 0.408750
0.930000 0.129000 0.408750
0.000000 0.254000 0.408750
0.116250 0.254000 0.408750
0.232500 0.254000 0.408750
0.348750 0.254000 0.408750
0.465000 0.254000 0.408750
0.581250 0.254000 0.408750
0.697500 0.254000 0.408750
0.813750 0.254000 0.408750
0.930000 0.254000 0.408750
0.000000 0.379000 0.408750
0.116250 0.379000 0.408750
0.232500 0.379000 0.408750
0.348750 0.379000 0.408750
0.465000 0.379000 0.408750
0.581250 0.379000 0.408750
0.697500 0.379000 0.408750
0.813750 0.379000 0.408750
0.930000 0.379000 0.408750
0.000000 0.504000 0.408750
0.116250 0.504000 0.408750
0.232500 0.504000 0.408750
0.348750 0.504000 0.408750
0.465000 0.504000 0.408750
0.581250 0.504000 0.408750
0.697500 0.504000 0.408750
0.813750 0.504000 0.408750
0.930000 0.504000 0.408750
0.000000 0.629000 0.408750
0.116250 0.629000 0.408750
0.232500 0.629000 0.408750
0.348750 0.629000 0.408750
0.465000 0.629000 0.408750
0.581250 0.629000 0.408750
0.697500 0.629000 0.408750
0.813750 0.629000 0.408750
0.930000 0.629000 0.408750
0.000000 0.754000 0.408750
0.116250 0.754000 0.408750
0.232500 0.754000 0.408750
0.348750 0.754000 0.408750
0.465000 0.754000 0.408750
0.581250 0.754000 0.408750
0.697500 0.754000 0.408750
0.813750 0.754000 0.408750
0.930000 0.754000 0.408750
0.000000 0.879000 0.408750
0.116250 0.879000 0.408750
0.232500 0.879000 0.408750
0.348750 0.879000 0.408750
0.465000 0.879000 0.408750
0.581250 0.879000 0.408750
0.697500 0.879000 0.408750
0.813750 0.879000 0.408750
0.930000 0.879000 0.408750
0.000000 1.000000 0.408750
0.116250 1.000000 0.408750
0.232500 1.000000 0.408750
0.348750 1.000000 0.408750
0.465000 1.000000 0.408750
0.581250 1.000000 0.408750
0.697500 1.000000 0.408750
0.813750 1.000000 0.408750
0.930000 1.000000 0.408750
0.000000 0.004000 0.540000
0.116250 0.004000 0.540000
0.232500 0.004000 0.540000
0.348750 0.004000 0.540000
0.465000 0.004000 0.540000
0.581250 0.004000 0.540000
0.697500 0.004000 0.540000
0.813750 0.004000 0.540000
0.930000 0.004000 0.540000
0.000000 0.129000 0.540000
0.116250 0.129000 0.540000
0.232500 0.129000 0.540000
0.348750 0.129000 0.540000
0.465000 0.129000 0.540000
0.581250 0.129000 0.540000
0.697500 0.129000 0.540000
0.813750 0.129000 0.540000
0.930000 0.129000 0.540000
0.000000 0.254000 0.540000
0.116250 0.254000 0.540000
0.232500 0.254000 0.540000
0.348750 0.254000 0.540000
0.465000 0.254000 0.540000
0.581250 0.254000 0.540000
0.697500 0.254000 0.540000
0.813750 0.254000 0.540000
0.930000 0.254000 0.540000
0.000000 0.379000 0.540000
0.116250 0.379000 0.540000
0.232500 0.379000 0.540000
0.348750 0.379000 0.540000
0.465000 0.379000 0.540000
0.581250 0.379000 0.540000
0.697500 0.379000 0.540000
0.813750 0.379000 0.540000
0.930000 0.379000 0.540000
0.000000 0.504000 0.540000
0.116250 0.504000 0.540000
0.232500 0.504000 0.540000
0.348750 0.504000 0.540000
0.465000 0.504000 0.540000
0.581250 0.504000 0.540000
0.697500 0.504000 0.540000
0.813750 0.504000 0.540000
0.930000 0.504000 0.540000
0.000000 0.629000 0.540000
0.116250 0.629000 0.540000
0.232500 0.629000 0.540000
0.348750 0.629000 0.540000
0.465000 0.629000 0.540000
0.581250 0.629000 0.540000
0.697500 0.629000 0.540000
0.813750 0.629000 0.540000
0.930000 0.629000 0.540000
0.000000 0.754000 0.540000
0.116250 0.754000 0.540000
0.232500 0.754000 0.540000
0.348750 0.754000 0.540000
0.465000 0.754000 0.540000
0.581250 0.754000 0.540000
0.697500 0.754000 0.540000
0.813750 0.754000 0.540000
0.930000 0.754000 0.540000
0.000000 0.879000 0.540000
0.116250 0.879000 0.540000
0.232500 0.879000 0.540000
0.348750 0.879000 0.540000
0.465000 0.879000 0.540000
0.581250 0.879000 0.540000
0.697500 0.879000 0.540000
0.813750 0.879000 0.540000
0.930000 0.879000 0.540000
0.000000 1.000000 0.540000
0.116250 1.000000 0.540000
0.232500 1.000000 0.540000
0.348750 1.000000 0.540000
0.465000 1.000000 0.540000
0.581250 1.000000 0.540000
0.697500 1.000000 0.540000
0.813750 1.000000 0.540000
0.930000 1.000000 0.540000
0.000000 0.004000 0.671250
0.116250 0.004000 0.671250
0.232500 0.004000 0.671250
0.348750 0.004000 0.671250
0.465000 0.004000 0.671250
0.581250 0.004000 0.671250
0.697500 0.004000 0.671250
0.813750 0.004000 0.671250
0.930000 0.004000 0.671250
0.000000 0.129000 0.671250
0.116250 0.129000 0.671250
0.232500 0.129000 0.671250
0.348750 0.129000 0.671250
0.465000 0.129000 0.671250
0.581250 0.129000 0.671250
0.697500 0.129000 0.671250
0.813750 0.129000 0.671250
0.930000 0.129000 0.671250
0.000000 0.254000 0.671250
0.116250 0.254000 0.671250
0.232500 0.254000 0.671250
0.348750 0.254000 0.671250
0.465000 0.254000 0.671250
0.581250 0.254000 0.671250
0.697500 0.254000 0.671250
0.813750 0.254000 0.671250
0.930000 0.254000 0.671250
0.000000 0.379000 0.671250
0.116250 0.379000 0.671250
0.232500 0.379000 0.671250
0.348750 0.379000 0.671250
0.465000 0.379000 0.671250
0.581250 0.379000 0.671250
0.697500 0.379000 0.671250
0.813750 0.379000 0.671250
0.930000 0.379000 0.671250
0.000000 0.504000 0.671250
0.116250 0.504000 0.671250
0.232500 0.504000 0.671250
0.348750 0.504000 0.671250
0.465000 0.504000 0.671250
0.581250 0.504000 0.671250
0.697500 0.504000 0.671250
0.813750 0.504000 0.671250
0.930000 0.504000 0.671250
0.000000 0.629000 0.671250
0.116250 0.629000 0.671250
0.232500 0.629000 0.671250
0.348750 0.629000 0.671250
0.465000 0.629000 0.671250
0.581250 0.629000 0.671250
0.697500 0.629000 0.671250
0.813750 0.629000 0.671250
0.930000 0.629000 0.671250
0.000000 0.754000 0.671250
0.116250 0.754000 0.671250
0.232500 0.754000 0.671250
0.348750 0.754000 0.671250
0.465000 0.754000 0.671250
0.581250 0.754000 0.671250
0.697500 0.754000 0.671250
0.813750 0.754000 0.671250
0.930000 0.754000 0.671250
0.000000 0.879000 0.671250
0.116250 0.879000 0.671250
0.232500 0.879000 0.671250
0.348750 0.879000 0.671250
0.465000 0.879000 0.671250
0.581250 0.879000 0.671250
0.697500 0.879000 0.671250
0.813750 0.879000 0.671250
0.930000 0.879000 0.671250
0.000000 1.000000 0.671250
0.116250 1.000000 0.671250
0.232500 1.000000 0.671250
0.348750 1.000000 0.671250
0.465000 1.000000 0.671250
0.581250 1.000000 0.671250
0.697500 1.000000 0.671250
0.813750 1.000000 0.671250
0.930000 1.000000 0.671250
0.000000 0.004000 0.802500
0.116250 0.004000 0.802500
0.232500 0.004000 0.802500
0.348750 0.004000 0.802500
0.465000 0.004000 0.802500
0.581250 0.004000 0.802500
0.697500 0.004000 0.802500
0.813750 0.004000 0.802500
0.930000 0.004000 0.802500
0.000000 0.129000 0.802500
0.116250 0.129000 0.802500
0.232500 0.129000 0.802500
0.348750 0.129000 0.802500
0.465000 0.129000 0.802500
0.581250 0.129000 0.802500
0.697500 0.129000 0.802500
0.813750 0.129000 0.802500
0.930000 0.129000 0.802500
0.000000 0.254000 0.802500
0.116250 0.254000 0.802500
0.232500 0.254000 0.802500
0.348750 0.254000 0.802500
0.465000 0.254000 0.802500
0.581250 0.254000 0.802500
0.697500 0.254000 0.802500
0.813750 0.254000 0.802500
0.930000 0.254000 0.802500
0.000000 0.379000 0.802500
0.116250 0.379000 0.802500
0.232500 0.379000 0.802500
0.348750 0.379000 0.802500
0.465000 0.379000 0.802500
0.581250 0.379000 0.802500
0.697500 0.379000 0.802500
0.813750 0.379000 0.802500
0.930000 0.379000 0.802500
0.000000 0.504000 0.802500
0.116250 0.504000 0.802500
0.232500 0.504000 0.802500
0.348750 0.504000 0.802500
0.465000 0.504000 0.802500
0.581250 0.504000 0.802500
0.697500 0.504000 0.802500
0.813750 0.504000 0.802500
0.930000 0.504000 0.802500
0.000000 0.629000 0.802500
0.116250 0.629000 0.802500
0.232500 0.629000 0.802500
0.348750 0.629000 0.802500
0.465000 0.629000 0.802500
0.581250 0.629000 0.802500
0.697500 0.629000 0.802500
0.813750 0.629000 0.802500
0.930000 0.629000 0.802500
0.000000 0.754000 0.802500
0.116250 0.754000 0.802500
0.232500 0.754000 0.802500
0.348750 0.754000 0.802500
0.465000 0.754000 0.802500
0.581250 0.754000 0.802500
0.697500 0.754000 0.802500
0.813750 0.754000 0.802500
0.930000 0.754000 0.802500
0.000000 0.879000 0.802500
0.116250 0.879000 0.802500
0.232500 0.879000 0.802500
0.348750 0.879000 0.802500
0.465000 0.879000 0.802500
0.581250 0.879000 0.802500
0.697500 0.879000 0.802500
0.813750 0.879000 0.802500
0.930000 0.879000 0.802500
0.000000 1.000000 0.802500
0.116250 1.000000 0.802500
0.232500 1.000000 0.802500
0.348750 1.000000 0.802500
0.465000 1.000000 0.802500
0.581250 1.000000 0.802500
0.697500 1.000000 0.802500
0.813750 1.000000 0.802500
0.930000 1.000000 0.802500
0.000000 0.004000 0.933750
0.116250 0.004000 0.933750
0.232500 0.004000 0.933750
0.348750 0.004000 0.933750
0.465000 0.004000 0.933750
0.581250 0.004000 0.933750
0.697500 0.004000 0.933750
0.813750 0.004000 0.933750
0.930000 0.004000 0.933750
0.000000 0.129000 0.933750
0.116250 0.129000 0.933750
0.232500 0.129000 0.933750
0.348750 0.129000 0.933750
0.465000 0.129000 0.933750
0.581250 0.129000 0.933750
0.697500 0.129000 0.933750
0.813750 0.129000 0.933750
0.930000 0.129000 0.933750
0.000000 0.254000 0.933750
0.116250 0.254000 0.933750
0.232500 0.254000 0.933750
0.348750 0.254000 0.933750
0.465000 0.254000 0.933750
0.581250 0.254000 0.933750
0.697500 0.254000 0.933750
0.813750 0.254000 0.933750
0.930000 0.254000 0.933750
0.000000 0.379000 0.933750
0.116250 0.379000 0.933750
0.232500 0.379000 0.933750
0.348750 0.379000 0.933750
0.465000 0.379000 0.933750
0.581250 0.379000 0.933750
0.697500 0.379000 0.933750
0.813750 0.379000 0.933750
0.930000 0.379000 0.933750
0.000000 0.504000 0.933750
0.116250 0.504000 0.933750
0.232500 0.504000 0.933750
0.348750 0.504000 0.933750
0.465000 0.504000 0.933750
0.581250 0.504000 0.933750
0.697500 0.504000 0.933750
0.813750 0.504000 0.933750
0.930000 0.504000 0.933750
0.000000 0.629000 0.933750
0.116250 0.629000 0.933750
0.232500 0.629000 0.933750
0.348750 0.629000 0.933750
0.465000 0.629000 0.933750
0.581250 0.629000 0.933750
0.697500 0.629000 0.933750
0.813750 0.629000 0.933750
0.930000 0.629000 0.933750
0.000000 0.754000 0.933750
0.116250 0.754000 0.933750
0.232500 0.754000 0.933750
0.348750 0.754000 0.933750
0.465000 0.754000 0.933750
0.581250 0.754000 0.933750
0.697500 0.754000 0.933750
0.813750 0.754000 0.933750
0.930000 0.754000 0.933750
0.000000 0.879000 0.933750
0.116250 0.879000 0.933750
0.232500 0.879000 0.933750
0.348750 0.879000 0.933750
0.465000 0.879000 0.933750
0.581250 0.879000 0.933750
0.697500 0.879000 0.933750
0.813750 0.879000 0.933750
0.930000 0.879000 0.933750
0.000000 1.000000 0.933750
0.116250 1.000000 0.933750
0.232500 1.000000 0.933750
0.348750 1.000000 0.933750
0.465000 1.000000 0.933750
0.581250 1.000000 0.933750
0.697500 1.000000 0.933750
0.813750 1.000000 0.933750
0.930000 1.000000 0.933750
0.000000 0.004000 1.000000
0.116250 0.004000 1.000000
0.232500 0.004000 1.000000
0.348750 0.004000 1.000000
0.465000 0.004000 1.000000
0.581250 0.004000 1.000000
0.697500 0.004000 1.000000
0.813750 0.004000 1.000000
0.930000 0.004000 1.000000
0.000000 0.129000 1.000000
0.116250 0.129000 1.000000
0.232500 0.129000 1.000000
0.348750 0.129000 1.000000
0.465000 0.129000 1.000000
0.581250 0.129000 1.000000
0.697500 0.129000 1.000000
0.813750 0.129000 1.000000
0.930000 0.129000 1.000000
0.000000 0.254000 1.000000
0.116250 0.254000 1.000000
0.232500 0.254000 1.000000
0.348750 0.254000 1.000000
0.465000 0.254000 1.000000
0.581250 0.254000 1.000000
0.697500 0.254000 1.000000
0.813750 0.254000 1.000000
0.930000 0.254000 1.000000
0.000000 0.379000 1.000000
0.116250 0.379000 1.000000
0.232500 0.379000 1.000000
0.348750 0.379000 1.000000
0.465000 0.379000 1.000000
0.581250 0.379000 1.000000
0.697500 0.379000 1.000000
0.813750 0.379000 1.000000
0.930000 0.379000 1.000000
0.000000 0.504000 1.000000
0.116250 0.504000 1.000000
0.232500 0.504000 1.000000
0.348750 0.504000 1.000000
0.465000 0.504000 1.000000
0.581250 0.504000 1.000000
0.697500 0.504000 1.000000
0.813750 0.504000 1.000000
0.930000 0.504000 1.000000
0.000000 0.629000 1.000000
0.116250 0.629000 1.000000
0.232500 0.629000 1.000000
0.348750 0.629000 1.000000
0.465000 0.629000 1.000000
0.581250 0.629000 1.000000
0.697500 0.629000 1.000000
0.813750 0.629000 1.000000
0.930000 0.629000 1.000000
0.000000 0.754000 1.000000
0.116250 0.754000 1.000000
0.232500 0.754000 1.000000
0.348750 0.754000 1.000000
0.465000 0.754000 1.000000
0.581250 0.754000 1.000000
0.697500 0.754000 1.000000
0.813750 0.754000 1.000000
0.930000 0.754000 1.000000
0.000000 0.879000 1.000000
0.116250 0.879000 1.000000
0.232500 0.879000 1.000000
0.348750 0.879000 1.000000
0.465000 0.879000 1.000000
0.581250 0.879000 1.000000
0.697500 0.879000 1.000000
0.813750 0.879000 1.000000
0.930000 0.879000 1.000000
0.000000 1.000000 1.000000
0.116250 1.000000 1.000000
0.232500 1.000000 1.000000
0.348750 1.000000 1.000000
0.465000 1.000000 1.000000
0.581250 1.000000 1.000000
0.697500 1.000000 1.000000
0.813750 1.000000 1.000000
0.930000 1.000000 1.000000
