public/luts/cool.cube
TITLE "Cool"
LUT_3D_SIZE 17
0.000000 0.004000 0.015000
0.058125 0.004000 0.015000
0.116250 0.004000 0.015000
0.174375 0.004000 0.015000
0.232500 0.004000 0.015000
0.290625 0.004000 0.015000
0.348750 0.004000 0.015000
0.406875 0.004000 0.015000
0.465000 0.004000 0.015000
0.523125 0.004000 0.015000
0.581250 0.004000 0.015000
0.639375 0.004000 0.015000
0.697500 0.004000 0.015000
0.755625 0.004000 0.015000
0.813750 0.004000 0.015000
0.871875 0.004000 0.015000
0.930000 0.004000 0.015000
0.000000 0.066500 0.015000
0.058125 0.066500 0.015000
0.116250 0.066500 0.015000
0.174375 0.066500 0.015000
0.232500 0.066500 0.015000
0.290625 0.066500 0.015000
0.348750 0.066500 0.015000
0.406875 0.066500 0.015000
0.465000 0.066500 0.015000
0.523125 0.066500 0.015000
0.581250 0.066500 0.015000
0.639375 0.066500 0.015000
0.697500 0.066500 0.015000
0.755625 0.066500 0.015000
0.813750 0.066500 0.015000
0.871875 0.066500 0.015000
0.930000 0.066500 0.015000
0.000000 0.129000 0.015000
0.058125 0.129000 0.015000
0.116250 0.129000 0.015000
0.174375 0.129000 0.015000
0.232500 0.129000 0.015000
0.290625 0.129000 0.015000
0.348750 0.129000 0.015000
0.406875 0.129000 0.015000
0.465000 0.129000 0.015000
0.523125 0.129000 0.015000
0.581250 0.129000 0.015000
0.639375 0.129000 0.015000
0.697500 0.129000 0.015000
0.755625 0.129000 0.015000
0.813750 0.129000 0.015000
0.871875 0.129000 0.015000
0.930000 0.129000 0.015000
0.000000 0.191500 0.015000
0.058125 0.191500 0.015000
0.116250 0.191500 0.015000
0.174375 0.191500 0.015000
0.232500 0.191500 0.015000
0.290625 0.191500 0.015000
0.348750 0.191500 0.015000
0.406875 0.191500 0.015000
0.465000 0.191500 0.015000
0.523125 0.191500 0.015000
0.581250 0.191500 0.015000
0.639375 0.191500 0.015000
0.697500 0.191500 0.015000
0.755625 0.191500 0.015000
0.813750 0.191500 0.015000
0.871875 0.191500 0.015000
0.930000 0.191500 0.015000
0.000000 0.254000 0.015000
0.058125 0.254000 0.015000
0.116250 0.254000 0.015000
0.174375 0.254000 0.015000
0.232500 0.254000 0.015000
0.290625 0.254000 0.015000
0.348750 0.254000 0.015000
0.406875 0.254000 0.015000
0.465000 0.254000 0.015000
0.523125 0.254000 0.015000
0.581250 0.254000 0.015000
0.639375 0.254000 0.015000
0.697500 0.254000 0.015000
0.755625 0.254000 0.015000
0.813750 0.254000 0.015000
0.871875 0.254000 0.015000
0.930000 0.254000 0.015000
0.000000 0.316500 0.015000
0.058125 0.316500 0.015000
0.116250 0.316500 0.015000
0.174375 0.316500 0.015000
0.232500 0.316500 0.015000
0.290625 0.316500 0.015000
0.348750 0.316500 0.015000
0.406875 0.316500 0.015000
0.465000 0.316500 0.015000
0.523125 0.316500 0.015000
0.581250 0.316500 0.015000
0.639375 0.316500 0.015000
0.697500 0.316500 0.015000
0.755625 0.316500 0.015000
0.813750 0.316500 0.015000
0.871875 0.316500 0.015000
0.930000 0.316500 0.015000
0.000000 0.379000 0.015000
0.058125 0.379000 0.015000
0.116250 0.379000 0.015000
0.174375 0.379000 0.015000
0.232500 0.379000 0.015000
0.290625 0.379000 0.015000
0.348750 0.379000 0.015000
0.406875 0.379000 0.015000
0.465000 0.379000 0.015000
0.523125 0.379000 0.015000
0.581250 0.379000 0.015000
0.639375 0.379000 0.015000
0.697500 0.379000 0.015000
0.755625 0.379000 0.015000
0.813750 0.379000 0.015000
0.871875 0.379000 0.015000
0.930000 0.379000 0.015000
0.000000 0.441500 0.015000
0.058125 0.441500 0.015000
0.116250 0.441500 0.015000
0.174375 0.441500 0.015000
0.232500 0.441500 0.015000
0.290625 0.441500 0.015000
0.348750 0.441500 0.015000
0.406875 0.441500 0.015000
0.465000 0.441500 0.015000
0.523125 0.441500 0.015000
0.581250 0.441500 0.015000
0.639375 0.441500 0.015000
0.697500 0.441500 0.015000
0.755625 0.441500 0.015000
0.813750 0.441500 0.015000
0.871875 0.441500 0.015000
0.930000 0.441500 0.015000
0.000000 0.504000 0.015000
0.058125 0.504000 0.015000
0.116250 0.504000 0.015000
0.174375 0.504000 0.015000
0.232500 0.504000 0.015000
0.290625 0.504000 0.015000
0.348750 0.504000 0.015000
0.406875 0.504000 0.015000
0.465000 0.504000 0.015000
0.523125 0.504000 0.015000
0.581250 0.504000 0.015000
0.639375 0.504000 0.015000
0.697500 0.504000 0.015000
0.755625 0.504000 0.015000
0.813750 0.504000 0.015000
0.871875 0.504000 0.015000
0.930000 0.504000 0.015000
0.000000 0.566500 0.015000
0.058125 0.566500 0.015000
0.116250 0.566500 0.015000
0.174375 0.566500 0.015000
0.232500 0.566500 0.015000
0.290625 0.566500 0.015000
0.348750 0.566500 0.015000
0.406875 0.566500 0.015000
0.465000 0.566500 0.015000
0.523125 0.566500 0.015000
0.581250 0.566500 0.015000
0.639375 0.566500 0.015000
0.697500 0.566500 0.015000
0.755625 0.566500 0.015000
0.813750 0.566500 0.015000
0.871875 0.566500 0.015000
0.930000 0.566500 0.015000
0.000000 0.629000 0.015000
0.058125 0.629000 0.015000
0.116250 0.629000 0.015000
0.174375 0.629000 0.015000
0.232500 0.629000 0.015000
0.290625 0.629000 0.015000
0.348750 0.629000 0.015000
0.406875 0.629000 0.015000
0.465000 0.629000 0.015000
0.523125 0.629000 0.015000
0.581250 0.629000 0.015000
0.639375 0.629000 0.015000
0.697500 0.629000 0.015000
0.755625 0.629000 0.015000
0.813750 0.629000 0.015000
0.871875 0.629000 0.015000
0.930000 0.629000 0.015000
0.000000 0.691500 0.015000
0.058125 0.691500 0.015000
0.116250 0.691500 0.015000
0.174375 0.691500 0.015000
0.232500 0.691500 0.015000
0.290625 0.691500 0.015000
0.348750 0.691500 0.015000
0.406875 0.691500 0.015000
0.465000 0.691500 0.015000
0.523125 0.691500 0.015000
0.581250 0.691500 0.015000
0.639375 0.691500 0.015000
0.697500 0.691500 0.015000
0.755625 0.691500 0.015000
0.813750 0.691500 0.015000
0.871875 0.691500 0.015000
0.930000 0.691500 0.015000
0.000000 0.754000 0.015000
0.058125 0.754000 0.015000
0.116250 0.754000 0.015000
0.174375 0.754000 0.015000
0.232500 0.754000 0.015000
0.290625 0.754000 0.015000
0.348750 0.754000 0.015000
0.406875 0.754000 0.015000
0.465000 0.754000 0.015000
0.523125 0.754000 0.015000
0.581250 0.754000 0.015000
0.639375 0.754000 0.015000
0.697500 0.754000 0.015000
0.755625 0.754000 0.015000
0.813750 0.754000 0.015000
0.871875 0.754000 0.015000
0.930000 0.754000 0.015000
0.000000 0.816500 0.015000
0.058125 0.816500 0.015000
0.116250 0.816500 0.015000
0.174375 0.816500 0.015000
0.232500 0.816500 0.015000
0.290625 0.816500 0.015000
0.348750 0.816500 0.015000
0.406875 0.816500 0.015000
0.465000 0.816500 0.015000
0.523125 0.816500 0.015000
0.581250 0.816500 0.015000
0.639375 0.816500 0.015000
0.697500 0.816500 0.015000
0.755625 0.816500 0.015000
0.813750 0.816500 0.015000
0.871875 0.816500 0.015000
0.930000 0.816500 0.015000
0.000000 0.879000 0.015000
0.058125 0.879000 0.015000
0.116250 0.879000 0.015000
0.174375 0.879000 0.015000
0.232500 0.879000 0.015000
0.290625 0.879000 0.015000
0.348750 0.879000 0.015000
0.406875 0.879000 0.015000
0.465000 0.879000 0.015000
0.523125 0.879000 0.015000
0.581250 0.879000 0.015000
0.639375 0.879000 0.015000
0.697500 0.879000 0.015000
0.755625 0.879000 0.015000
0.813750 0.879000 0.015000
0.871875 0.879000 0.015000
0.930000 0.879000 0.015000
0.000000 0.941500 0.015000
0.058125 0.941500 0.015000
0.116250 0.941500 0.015000
0.174375 0.941500 0.015000
0.232500 0.941500 0.015000
0.290625 0.941500 0.015000
0.348750 0.941500 0.015000
0.406875 0.941500 0.015000
0.465000 0.941500 0.015000
0.523125 0.941500 0.015000
0.581250 0.941500 0.015000
0.639375 0.941500 0.015000
0.697500 0.941500 0.015000
0.755625 0.941500 0.015000
0.813750 0.941500 0.015000
0.871875 0.941500 0.015000
0.930000 0.941500 0.015000
0.000000 1.000000 0.015000
0.058125 1.000000 0.015000
0.116250 1.000000 0.015000
0.174375 1.000000 0.015000
0.232500 1.000000 0.015000
0.290625 1.000000 0.015000
0.348750 1.000000 0.015000
0.406875 1.000000 0.015000
0.465000 1.000000 0.015000
0.523125 1.000000 0.015000
0.581250 1.000000 0.015000
0.639375 1.000000 0.015000
0.697500 1.000000 0.015000
0.755625 1.000000 0.015000
0.813750 1.000000 0.015000
0.871875 1.000000 0.015000
0.930000 1.000000 0.015000
0.000000 0.004000 0.080625
0.058125 0.004000 0.080625
0.116250 0.004000 0.080625
0.174375 0.004000 0.080625
0.232500 0.004000 0.080625
0.290625 0.004000 0.080625
0.348750 0.004000 0.080625
0.406875 0.004000 0.080625
0.465000 0.004000 0.080625
0.523125 0.004000 0.080625
0.581250 0.004000 0.080625
0.639375 0.004000 0.080625
0.697500 0.004000 0.080625
0.755625 0.004000 0.080625
0.813750 0.004000 0.080625
0.871875 0.004000 0.080625
0.930000 0.004000 0.080625
0.000000 0.066500 0.080625
0.058125 0.066500 0.080625
0.116250 0.066500 0.080625
0.174375 0.066500 0.080625
0.232500 0.066500 0.080625
0.290625 0.066500 0.080625
0.348750 0.066500 0.080625
0.406875 0.066500 0.080625
0.465000 0.066500 0.080625
0.523125 0.066500 0.080625
0.581250 0.066500 0.080625
0.639375 0.066500 0.080625
0.697500 0.066500 0.080625
0.755625 0.066500 0.080625
0.813750 0.066500 0.080625
0.871875 0.066500 0.080625
0.930000 0.066500 0.080625
0.000000 0.129000 0.080625
0.058125 0.129000 0.080625
0.116250 0.129000 0.080625
0.174375 0.129000 0.080625
0.232500 0.129000 0.080625
0.290625 0.129000 0.080625
0.348750 0.129000 0.080625
0.406875 0.129000 0.080625
0.465000 0.129000 0.080625
0.523125 0.129000 0.080625
0.581250 0.129000 0.080625
0.639375 0.129000 0.080625
0.697500 0.129000 0.080625
0.755625 0.129000 0.080625
0.813750 0.129000 0.080625
0.871875 0.129000 0.080625
0.930000 0.129000 0.080625
0.000000 0.191500 0.080625
0.058125 0.191500 0.080625
0.116250 0.191500 0.080625
0.174375 0.191500 0.080625
0.232500 0.191500 0.080625
0.290625 0.191500 0.080625
0.348750 0.191500 0.080625
0.406875 0.191500 0.080625
0.465000 0.191500 0.080625
0.523125 0.191500 0.080625
0.581250 0.191500 0.080625
0.639375 0.191500 0.080625
0.697500 0.191500 0.080625
0.755625 0.191500 0.080625
0.813750 0.191500 0.080625
0.871875 0.191500 0.080625
0.930000 0.191500 0.080625
0.000000 0.254000 0.080625
0.058125 0.254000 0.080625
0.116250 0.254000 0.080625
0.174375 0.254000 0.080625
0.232500 0.254000 0.080625
0.290625 0.254000 0.080625
0.348750 0.254000 0.080625
0.406875 0.254000 0.080625
0.465000 0.254000 0.080625
0.523125 0.254000 0.080625
0.581250 0.254000 0.080625
0.639375 0.254000 0.080625
0.697500 0.254000 0.080625
0.755625 0.254000 0.080625
0.813750 0.254000 0.080625
0.871875 0.254000 0.080625
0.930000 0.254000 0.080625
0.000000 0.316500 0.080625
0.058125 0.316500 0.080625
0.116250 0.316500 0.080625
0.174375 0.316500 0.080625
0.232500 0.316500 0.080625
0.290625 0.316500 0.080625
0.348750 0.316500 0.080625
0.406875 0.316500 0.080625
0.465000 0.316500 0.080625
0.523125 0.316500 0.080625
0.581250 0.316500 0.080625
0.639375 0.316500 0.080625
0.697500 0.316500 0.080625
0.755625 0.316500 0.080625
0.813750 0.316500 0.080625
0.871875 0.316500 0.080625
0.930000 0.316500 0.080625
0.000000 0.379000 0.080625
0.058125 0.379000 0.080625
0.116250 0.379000 0.080625
0.174375 0.379000 0.080625
0.232500 0.379000 0.080625
0.290625 0.379000 0.080625
0.348750 0.379000 0.080625
0.406875 0.379000 0.080625
0.465000 0.379000 0.080625
0.523125 0.379000 0.080625
0.581250 0.379000 0.080625
0.639375 0.379000 0.080625
0.697500 0.379000 0.080625
0.755625 0.379000 0.080625
0.813750 0.379000 0.080625
0.871875 0.379000 0.080625
0.930000 0.379000 0.080625
0.000000 0.441500 0.080625
0.058125 0.441500 0.080625
0.116250 0.441500 0.080625
0.174375 0.441500 0.080625
0.232500 0.441500 0.080625
0.290625 0.441500 0.080625
0.348750 0.441500 0.080625
0.406875 0.441500 0.080625
0.465000 0.441500 0.080625
0.523125 0.441500 0.080625
0.581250 0.441500 0.080625
0.639375 0.441500 0.080625
0.697500 0.441500 0.080625
0.755625 0.441500 0.080625
0.813750 0.441500 0.080625
0.871875 0.441500 0.080625
0.930000 0.441500 0.080625
0.000000 0.504000 0.080625
0.058125 0.504000 0.080625
0.116250 0.504000 0.080625
0.174375 0.504000 0.080625
0.232500 0.504000 0.080625
0.290625 0.504000 0.080625
0.348750 0.504000 0.080625
0.406875 0.504000 0.080625
0.465000 0.504000 0.080625
0.523125 0.504000 0.080625
0.581250 0.504000 0.080625
0.639375 0.504000 0.080625
0.697500 0.504000 0.080625
0.755625 0.504000 0.080625
0.813750 0.504000 0.080625
0.871875 0.504000 0.080625
0.930000 0.504000 0.080625
0.000000 0.566500 0.080625
0.058125 0.566500 0.080625
0.116250 0.566500 0.080625
0.174375 0.566500 0.080625
0.232500 0.566500 0.080625
0.290625 0.566500 0.080625
0.348750 0.566500 0.080625
0.406875 0.566500 0.080625
0.465000 0.566500 0.080625
0.523125 0.566500 0.080625
0.581250 0.566500 0.080625
0.639375 0.566500 0.080625
0.697500 0.566500 0.080625
0.755625 0.566500 0.080625
0.813750 0.566500 0.080625
0.871875 0.566500 0.080625
0.930000 0.566500 0.080625
0.000000 0.629000 0.080625
0.058125 0.629000 0.080625
0.116250 0.629000 0.080625
0.174375 0.629000 0.080625
0.232500 0.629000 0.080625
0.290625 0.629000 0.080625
0.348750 0.629000 0.080625
0.406875 0.629000 0.080625
0.465000 0.629000 0.080625
0.523125 0.629000 0.080625
0.581250 0.629000 0.080625
0.639375 0.629000 0.080625
0.697500 0.629000 0.080625
0.755625 0.629000 0.080625
0.813750 0.629000 0.080625
0.871875 0.629000 0.080625
0.930000 0.629000 0.080625
0.000000 0.691500 0.080625
0.058125 0.691500 0.080625
0.116250 0.691500 0.080625
0.174375 0.691500 0.080625
0.232500 0.691500 0.080625
0.290625 0.691500 0.080625
0.348750 0.691500 0.080625
0.406875 0.691500 0.080625
0.465000 0.691500 0.080625
0.523125 0.691500 0.080625
0.581250 0.691500 0.080625
0.639375 0.691500 0.080625
0.697500 0.691500 0.080625
0.755625 0.691500 0.080625
0.813750 0.691500 0.080625
0.871875 0.691500 0.080625
0.930000 0.691500 0.080625
0.000000 0.754000 0.080625
0.058125 0.754000 0.080625
0.116250 0.754000 0.080625
0.174375 0.754000 0.080625
0.232500 0.754000 0.080625
0.290625 0.754000 0.080625
0.348750 0.754000 0.080625
0.406875 0.754000 0.080625
0.465000 0.754000 0.080625
0.523125 0.754000 0.080625
0.581250 0.754000 0.080625
0.639375 0.754000 0.080625
0.697500 0.754000 0.080625
0.755625 0.754000 0.080625
0.813750 0.754000 0.080625
0.871875 0.754000 0.080625
0.930000 0.754000 0.080625
0.000000 0.816500 0.080625
0.058125 0.816500 0.080625
0.116250 0.816500 0.080625
0.174375 0.816500 0.080625
0.232500 0.816500 0.080625
0.290625 0.816500 0.080625
0.348750 0.816500 0.080625
0.406875 0.816500 0.080625
0.465000 0.816500 0.080625
0.523125 0.816500 0.080625
0.581250 0.816500 0.080625
0.639375 0.816500 0.080625
0.697500 0.816500 0.080625
0.755625 0.816500 0.080625
0.813750 0.816500 0.080625
0.871875 0.816500 0.080625
0.930000 0.816500 0.080625
0.000000 0.879000 0.080625
0.058125 0.879000 0.080625
0.116250 0.879000 0.080625
0.174375 0.879000 0.080625
0.232500 0.879000 0.080625
0.290625 0.879000 0.080625
0.348750 0.879000 0.080625
0.406875 0.879000 0.080625
0.465000 0.879000 0.080625
0.523125 0.879000 0.080625
0.581250 0.879000 0.080625
0.639375 0.879000 0.080625
0.697500 0.879000 0.080625
0.755625 0.879000 0.080625
0.813750 0.879000 0.080625
0.871875 0.879000 0.080625
0.930000 0.879000 0.080625
0.000000 0.941500 0.080625
0.058125 0.941500 0.080625
0.116250 0.941500 0.080625
0.174375 0.941500 0.080625
0.232500 0.941500 0.080625
0.290625 0.941500 0.080625
0.348750 0.941500 0.080625
0.406875 0.941500 0.080625
0.465000 0.941500 0.080625
0.523125 0.941500 0.080625
0.581250 0.941500 0.080625
0.639375 0.941500 0.080625
0.697500 0.941500 0.080625
0.755625 0.941500 0.080625
0.813750 0.941500 0.080625
0.871875 0.941500 0.080625
0.930000 0.941500 0.080625
0.000000 1.000000 0.080625
0.058125 1.000000 0.080625
0.116250 1.000000 0.080625
0.174375 1.000000 0.080625
0.232500 1.000000 0.080625
0.290625 1.000000 0.080625
0.348750 1.000000 0.080625
0.406875 1.000000 0.080625
0.465000 1.000000 0.080625
0.523125 1.000000 0.080625
0.581250 1.000000 0.080625
0.639375 1.000000 0.080625
0.697500 1.000000 0.080625
0.755625 1.000000 0.080625
0.813750 1.000000 0.080625
0.871875 1.000000 0.080625
0.930000 1.000000 0.080625
0.000000 0.004000 0.146250
0.058125 0.004000 0.146250
0.116250 0.004000 0.146250
0.174375 0.004000 0.146250
0.232500 0.004000 0.146250
0.290625 0.004000 0.146250
0.348750 0.004000 0.146250
0.406875 0.004000 0.146250
0.465000 0.004000 0.146250
0.523125 0.004000 0.146250
0.581250 0.004000 0.146250
0.639375 0.004000 0.146250
0.697500 0.004000 0.146250
0.755625 0.004000 0.146250
0.813750 0.004000 0.146250
0.871875 0.004000 0.146250
0.930000 0.004000 0.146250
0.000000 0.066500 0.146250
0.058125 0.066500 0.146250
0.116250 0.066500 0.146250
0.174375 0.066500 0.146250
0.232500 0.066500 0.146250
0.290625 0.066500 0.146250
0.348750 0.066500 0.146250
0.406875 0.066500 0.146250
0.465000 0.066500 0.146250
0.523125 0.066500 0.146250
0.581250 0.066500 0.146250
0.639375 0.066500 0.146250
0.697500 0.066500 0.146250
0.755625 0.066500 0.146250
0.813750 0.066500 0.146250
0.871875 0.066500 0.146250
0.930000 0.066500 0.146250
0.000000 0.129000 0.146250
0.058125 0.129000 0.146250
0.116250 0.129000 0.146250
0.174375 0.129000 0.146250
0.232500 0.129000 0.146250
0.290625 0.129000 0.146250
0.348750 0.129000 0.146250
0.406875 0.129000 0.146250
0.465000 0.129000 0.146250
0.523125 0.129000 0.146250
0.581250 0.129000 0.146250
0.639375 0.129000 0.146250
0.697500 0.129000 0.146250
0.755625 0.129000 0.146250
0.813750 0.129000 0.146250
0.871875 0.129000 0.146250
0.930000 0.129000 0.146250
0.000000 0.191500 0.146250
0.058125 0.191500 0.146250
0.116250 0.191500 0.146250
0.174375 0.191500 0.146250
0.232500 0.191500 0.146250
0.290625 0.191500 0.146250
0.348750 0.191500 0.146250
0.406875 0.191500 0.146250
0.465000 0.191500 0.146250
0.523125 0.191500 0.146250
0.581250 0.191500 0.146250
0.639375 0.191500 0.146250
0.697500 0.191500 0.146250
0.755625 0.191500 0.146250
0.813750 0.191500 0.146250
0.871875 0.191500 0.146250
0.930000 0.191500 0.146250
0.000000 0.254000 0.146250
0.058125 0.254000 0.146250
0.116250 0.254000 0.146250
0.174375 0.254000 0.146250
0.232500 0.254000 0.146250
0.290625 0.254000 0.146250
0.348750 0.254000 0.146250
0.406875 0.254000 0.146250
0.465000 0.254000 0.146250
0.523125 0.254000 0.146250
0.581250 0.254000 0.146250
0.639375 0.254000 0.146250
0.697500 0.254000 0.146250
0.755625 0.254000 0.146250
0.813750 0.254000 0.146250
0.871875 0.254000 0.146250
0.930000 0.254000 0.146250
0.000000 0.316500 0.146250
0.058125 0.316500 0.146250
0.116250 0.316500 0.146250
0.174375 0.316500 0.146250
0.232500 0.316500 0.146250
0.290625 0.316500 0.146250
0.348750 0.316500 0.146250
0.406875 0.316500 0.146250
0.465000 0.316500 0.146250
0.523125 0.316500 0.146250
0.581250 0.316500 0.146250
0.639375 0.316500 0.146250
0.697500 0.316500 0.146250
0.755625 0.316500 0.146250
0.813750 0.316500 0.146250
0.871875 0.316500 0.146250
0.930000 0.316500 0.146250
0.000000 0.379000 0.146250
0.058125 0.379000 0.146250
0.116250 0.379000 0.146250
0.174375 0.379000 0.146250
0.232500 0.379000 0.146250
0.290625 0.379000 0.146250
0.348750 0.379000 0.146250
0.406875 0.379000 0.146250
0.465000 0.379000 0.146250
0.523125 0.379000 0.146250
0.581250 0.379000 0.146250
0.639375 0.379000 0.146250
0.697500 0.379000 0.146250
0.755625 0.379000 0.146250
0.813750 0.379000 0.146250
0.871875 0.379000 0.146250
0.930000 0.379000 0.146250
0.000000 0.441500 0.146250
0.058125 0.441500 0.146250
0.116250 0.441500 0.146250
0.174375 0.441500 0.146250
0.232500 0.441500 0.146250
0.290625 0.441500 0.146250
0.348750 0.441500 0.146250
0.406875 0.441500 0.146250
0.465000 0.441500 0.146250
0.523125 0.441500 0.146250
0.581250 0.441500 0.146250
0.639375 0.441500 0.146250
0.697500 0.441500 0.146250
0.755625 0.441500 0.146250
0.813750 0.441500 0.146250
0.871875 0.441500 0.146250
0.930000 0.441500 0.146250
0.000000 0.504000 0.146250
0.058125 0.504000 0.146250
0.116250 0.504000 0.146250
0.174375 0.504000 0.146250
0.232500 0.504000 0.146250
0.290625 0.504000 0.146250
0.348750 0.504000 0.146250
0.406875 0.504000 0.146250
0.465000 0.504000 0.146250
0.523125 0.504000 0.146250
0.581250 0.504000 0.146250
0.639375 0.504000 0.146250
0.697500 0.504000 0.146250
0.755625 0.504000 0.146250
0.813750 0.504000 0.146250
0.871875 0.504000 0.146250
0.930000 0.504000 0.146250
0.000000 0.566500 0.146250
0.058125 0.566500 0.146250
0.116250 0.566500 0.146250
0.174375 0.566500 0.146250
0.232500 0.566500 0.146250
0.290625 0.566500 0.146250
0.348750 0.566500 0.146250
0.406875 0.566500 0.146250
0.465000 0.566500 0.146250
0.523125 0.566500 0.146250
0.581250 0.566500 0.146250
0.639375 0.566500 0.146250
0.697500 0.566500 0.146250
0.755625 0.566500 0.146250
0.813750 0.566500 0.146250
0.871875 0.566500 0.146250
0.930000 0.566500 0.146250
0.000000 0.629000 0.146250
0.058125 0.629000 0.146250
0.116250 0.629000 0.146250
0.174375 0.629000 0.146250
0.232500 0.629000 0.146250
0.290625 0.629000 0.146250
0.348750 0.629000 0.146250
0.406875 0.629000 0.146250
0.465000 0.629000 0.146250
0.523125 0.629000 0.146250
0.581250 0.629000 0.146250
0.639375 0.629000 0.146250
0.697500 0.629000 0.146250
0.755625 0.629000 0.146250
0.813750 0.629000 0.146250
0.871875 0.629000 0.146250
0.930000 0.629000 0.146250
0.000000 0.691500 0.146250
0.058125 0.691500 0.146250
0.116250 0.691500 0.146250
0.174375 0.691500 0.146250
0.232500 0.691500 0.146250
0.290625 0.691500 0.146250
0.348750 0.691500 0.146250
0.406875 0.691500 0.146250
0.465000 0.691500 0.146250
0.523125 0.691500 0.146250
0.581250 0.691500 0.146250
0.639375 0.691500 0.146250
0.697500 0.691500 0.146250
0.755625 0.691500 0.146250
0.813750 0.691500 0.146250
0.871875 0.691500 0.146250
0.930000 0.691500 0.146250
0.000000 0.754000 0.146250
0.058125 0.754000 0.146250
0.116250 0.754000 0.146250
0.174375 0.754000 0.146250
0.232500 0.754000 0.146250
0.290625 0.754000 0.146250
0.348750 0.754000 0.146250
0.406875 0.754000 0.146250
0.465000 0.754000 0.146250
0.523125 0.754000 0.146250
0.581250 0.754000 0.146250
0.639375 0.754000 0.146250
0.697500 0.754000 0.146250
0.755625 0.754000 0.146250
0.813750 0.754000 0.146250
0.871875 0.754000 0.146250
0.930000 0.754000 0.146250
0.000000 0.816500 0.146250
0.058125 0.816500 0.146250
0.116250 0.816500 0.146250
0.174375 0.816500 0.146250
0.232500 0.816500 0.146250
0.290625 0.816500 0.146250
0.348750 0.816500 0.146250
0.406875 0.816500 0.146250
0.465000 0.816500 0.146250
0.523125 0.816500 0.146250
0.581250 0.816500 0.146250
0.639375 0.816500 0.146250
0.697500 0.816500 0.146250
0.755625 0.816500 0.146250
0.813750 0.816500 0.146250
0.871875 0.816500 0.146250
0.930000 0.816500 0.146250
0.000000 0.879000 0.146250
0.058125 0.879000 0.146250
0.116250 0.879000 0.146250
0.174375 0.879000 0.146250
0.232500 0.879000 0.146250
0.290625 0.879000 0.146250
0.348750 0.879000 0.146250
0.406875 0.879000 0.146250
0.465000 0.879000 0.146250
0.523125 0.879000 0.146250
0.581250 0.879000 0.146250
0.639375 0.879000 0.146250
0.697500 0.879000 0.146250
0.755625 0.879000 0.146250
0.813750 0.879000 0.146250
0.871875 0.879000 0.146250
0.930000 0.879000 0.146250
0.000000 0.941500 0.146250
0.058125 0.941500 0.146250
0.116250 0.941500 0.146250
0.174375 0.941500 0.146250
0.232500 0.941500 0.146250
0.290625 0.941500 0.146250
0.348750 0.941500 0.146250
0.406875 0.941500 0.146250
0.465000 0.941500 0.146250
0.523125 0.941500 0.146250
0.581250 0.941500 0.146250
0.639375 0.941500 0.146250
0.697500 0.941500 0.146250
0.755625 0.941500 0.146250
0.813750 0.941500 0.146250
0.871875 0.941500 0.146250
0.930000 0.941500 0.146250
0.000000 1.000000 0.146250
0.058125 1.000000 0.146250
0.116250 1.000000 0.146250
0.174375 1.000000 0.146250
0.232500 1.000000 0.146250
0.290625 1.000000 0.146250
0.348750 1.000000 0.146250
0.406875 1.000000 0.146250
0.465000 1.000000 0.146250
0.523125 1.000000 0.146250
0.581250 1.000000 0.146250
0.639375 1.000000 0.146250
0.697500 1.000000 0.146250
0.755625 1.000000 0.146250
0.813750 1.000000 0.146250
0.871875 1.000000 0.146250
0.930000 1.000000 0.146250
0.000000 0.004000 0.211875
0.058125 0.004000 0.211875
0.116250 0.004000 0.211875
0.174375 0.004000 0.211875
0.232500 0.004000 0.211875
0.290625 0.004000 0.211875
0.348750 0.004000 0.211875
0.406875 0.004000 0.211875
0.465000 0.004000 0.211875
0.523125 0.004000 0.211875
0.581250 0.004000 0.211875
0.639375 0.004000 0.211875
0.697500 0.004000 0.211875
0.755625 0.004000 0.211875
0.813750 0.004000 0.211875
0.871875 0.004000 0.211875
0.930000 0.004000 0.211875
0.000000 0.066500 0.211875
0.058125 0.066500 0.211875
0.116250 0.066500 0.211875
