public/luts/high-contrast.cube
TITLE "High Contrast"
LUT_3D_SIZE 5
0.000000 0.000000 0.000000
0.175000 0.000000 0.000000
0.500000 0.000000 0.000000
0.825000 0.000000 0.000000
1.000000 0.000000 0.000000
0.000000 0.175000 0.000000
0.175000 0.175000 0.000000
0.500000 0.175000 0.000000
0.825000 0.175000 0.000000
1.000000 0.175000 0.000000
0.000000 0.500000 0.000000
0.175000 0.500000 0.000000
0.500000 0.500000 0.000000
0.825000 0.500000 0.000000
1.000000 0.500000 0.000000
0.000000 0.825000 0.000000
0.175000 0.825000 0.000000
0.500000 0.825000 0.000000
0.825000 0.825000 0.000000
1.000000 0.825000 0.000000
0.000000 1.000000 0.000000
0.175000 1.000000 0.000000
0.500000 1.000000 0.000000
0.825000 1.000000 0.000000
1.000000 1.000000 0.000000
0.000000 0.000000 0.175000
0.175000 0.000000 0.175000
0.500000 0.000000 0.175000
0.825000 0.000000 0.175000
1.000000 0.000000 0.175000
0.000000 0.175000 0.175000
0.175000 0.175000 0.175000
0.500000 0.175000 0.175000
0.825000 0.175000 0.175000
1.000000 0.175000 0.175000
0.000000 0.500000 0.175000
0.175000 0.500000 0.175000
0.500000 0.500000 0.175000
0.825000 0.500000 0.175000
1.000000 0.500000 0.175000
0.000000 0.825000 0.175000
0.175000 0.825000 0.175000
0.500000 0.825000 0.175000
0.825000 0.825000 0.175000
1.000000 0.825000 0.175000
0.000000 1.000000 0.175000
0.175000 1.000000 0.175000
0.500000 1.000000 0.175000
0.825000 1.000000 0.175000
1.000000 1.000000 0.175000
0.000000 0.000000 0.500000
0.175000 0.000000 0.500000
0.500000 0.000000 0.500000
0.825000 0.000000 0.500000
1.000000 0.000000 0.500000
0.000000 0.175000 0.500000
0.175000 0.175000 0.500000
0.500000 0.175000 0.500000
0.825000 0.175000 0.500000
1.000000 0.175000 0.500000
0.000000 0.500000 0.500000
0.175000 0.500000 0.500000
0.500000 0.500000 0.500000
0.825000 0.500000 0.500000
1.000000 0.500000 0.500000
0.000000 0.825000 0.500000
0.175000 0.825000 0.500000
0.500000 0.825000 0.500000
0.825000 0.825000 0.500000
1.000000 0.825000 0.500000
0.000000 1.000000 0.500000
0.175000 1.000000 0.500000
0.500000 1.000000 0.500000
0.825000 1.000000 0.500000
1.000000 1.000000 0.500000
0.000000 0.000000 0.825000
0.175000 0.000000 0.825000
0.500000 0.000000 0.825000
0.825000 0.000000 0.825000
1.000000 0.000000 0.825000
0.000000 0.175000 0.825000
0.175000 0.175000 0.825000
0.500000 0.175000 0.825000
0.825000 0.175000 0.825000
1.000000 0.175000 0.825000
0.000000 0.500000 0.825000
0.175000 0.500000 0.825000
0.500000 0.500000 0.825000
0.825000 0.500000 0.825000
1.000000 0.500000 0.825000
0.000000 0.825000 0.825000
0.175000 0.825000 0.825000
0.500000 0.825000 0.825000
0.825000 0.825000 0.825000
1.000000 0.825000 0.825000
0.000000 1.000000 0.825000
0.175000 1.000000 0.825000
0.500000 1.000000 0.825000
0.825000 1.000000 0.825000
1.000000 1.000000 0.825000
0.000000 0.000000 1.000000
0.175000 0.000000 1.000000
0.500000 0.000000 1.000000
0.825000 0.000000 1.000000
1.000000 0.000000 1.000000
0.000000 0.175000 1.000000
0.175000 0.175000 1.000000
0.500000 0.175000 1.000000
0.825000 0.175000 1.000000
1.000000 0.175000 1.000000
0.000000 0.500000 1.000000
0.175000 0.500000 1.000000
0.500000 0.500000 1.000000
0.825000 0.500000 1.000000
1.000000 0.500000 1.000000
0.000000 0.825000 1.000000
0.175000 0.825000 1.000000
0.500000 0.825000 1.000000
0.825000 0.825000 1.000000
1.000000 0.825000 1.000000
0.000000 1.000000 1.000000
0.175000 1.000000 1.000000
0.500000 1.000000 1.000000
0.825000 1.000000 1.000000
1.000000 1.000000 1.000000
