public/luts/high-contrast.cube
TITLE "High Contrast"
LUT_3D_SIZE 9
0.000000 0.000000 0.000000
0.012500 0.000000 0.000000
0.175000 0.000000 0.000000
0.337500 0.000000 0.000000
0.500000 0.000000 0.000000
0.662500 0.000000 0.000000
0.825000 0.000000 0.000000
0.987500 0.000000 0.000000
1.000000 0.000000 0.000000
0.000000 0.012500 0.000000
0.012500 0.012500 0.000000
0.175000 0.012500 0.000000
0.337500 0.012500 0.000000
0.500000 0.012500 0.000000
0.662500 0.012500 0.000000
0.825000 0.012500 0.000000
0.987500 0.012500 0.000000
1.000000 0.012500 0.000000
0.000000 0.175000 0.000000
0.012500 0.175000 0.000000
0.175000 0.175000 0.000000
0.337500 0.175000 0.000000
0.500000 0.175000 0.000000
0.662500 0.175000 0.000000
0.825000 0.175000 0.000000
0.987500 0.175000 0.000000
1.000000 0.175000 0.000000
0.000000 0.337500 0.000000
0.012500 0.337500 0.000000
0.175000 0.337500 0.000000
0.337500 0.337500 0.000000
0.500000 0.337500 0.000000
0.662500 0.337500 0.000000
0.825000 0.337500 0.000000
0.987500 0.337500 0.000000
1.000000 0.337500 0.000000
0.000000 0.500000 0.000000
0.012500 0.500000 0.000000
0.175000 0.500000 0.000000
0.337500 0.500000 0.000000
0.500000 0.500000 0.000000
0.662500 0.500000 0.000000
0.825000 0.500000 0.000000
0.987500 0.500000 0.000000
1.000000 0.500000 0.000000
0.000000 0.662500 0.000000
0.012500 0.662500 0.000000
0.175000 0.662500 0.000000
0.337500 0.662500 0.000000
0.500000 0.662500 0.000000
0.662500 0.662500 0.000000
0.825000 0.662500 0.000000
0.987500 0.662500 0.000000
1.000000 0.662500 0.000000
0.000000 0.825000 0.000000
0.012500 0.825000 0.000000
0.175000 0.825000 0.000000
0.337500 0.825000 0.000000
0.500000 0.825000 0.000000
0.662500 0.825000 0.000000
0.825000 0.825000 0.000000
0.987500 0.825000 0.000000
1.000000 0.825000 0.000000
0.000000 0.987500 0.000000
0.012500 0.987500 0.000000
0.175000 0.987500 0.000000
0.337500 0.987500 0.000000
0.500000 0.987500 0.000000
0.662500 0.987500 0.000000
0.825000 0.987500 0.000000
0.987500 0.987500 0.000000
1.000000 0.987500 0.000000
0.000000 1.000000 0.000000
0.012500 1.000000 0.000000
0.175000 1.000000 0.000000
0.337500 1.000000 0.000000
0.500000 1.000000 0.000000
0.662500 1.000000 0.000000
0.825000 1.000000 0.000000
0.987500 1.000000 0.000000
1.000000 1.000000 0.000000
0.000000 0.000000 0.012500
0.012500 0.000000 0.012500
0.175000 0.000000 0.012500
0.337500 0.000000 0.012500
0.500000 0.000000 0.012500
0.662500 0.000000 0.012500
0.825000 0.000000 0.012500
0.987500 0.000000 0.012500
1.000000 0.000000 0.012500
0.000000 0.012500 0.012500
0.012500 0.012500 0.012500
0.175000 0.012500 0.012500
0.337500 0.012500 0.012500
0.500000 0.012500 0.012500
0.662500 0.012500 0.012500
0.825000 0.012500 0.012500
0.987500 0.012500 0.012500
1.000000 0.012500 0.012500
0.000000 0.175000 0.012500
0.012500 0.175000 0.012500
0.175000 0.175000 0.012500
0.337500 0.175000 0.012500
0.500000 0.175000 0.012500
0.662500 0.175000 0.012500
0.825000 0.175000 0.012500
0.987500 0.175000 0.012500
1.000000 0.175000 0.012500
0.000000 0.337500 0.012500
0.012500 0.337500 0.012500
0.175000 0.337500 0.012500
0.337500 0.337500 0.012500
0.500000 0.337500 0.012500
0.662500 0.337500 0.012500
0.825000 0.337500 0.012500
0.987500 0.337500 0.012500
1.000000 0.337500 0.012500
0.000000 0.500000 0.012500
0.012500 0.500000 0.012500
0.175000 0.500000 0.012500
0.337500 0.500000 0.012500
0.500000 0.500000 0.012500
0.662500 0.500000 0.012500
0.825000 0.500000 0.012500
0.987500 0.500000 0.012500
1.000000 0.500000 0.012500
0.000000 0.662500 0.012500
0.012500 0.662500 0.012500
0.175000 0.662500 0.012500
0.337500 0.662500 0.012500
0.500000 0.662500 0.012500
0.662500 0.662500 0.012500
0.825000 0.662500 0.012500
0.987500 0.662500 0.012500
1.000000 0.662500 0.012500
0.000000 0.825000 0.012500
0.012500 0.825000 0.012500
0.175000 0.825000 0.012500
0.337500 0.825000 0.012500
0.500000 0.825000 0.012500
0.662500 0.825000 0.012500
0.825000 0.825000 0.012500
0.987500 0.825000 0.012500
1.000000 0.825000 0.012500
0.000000 0.987500 0.012500
0.012500 0.987500 0.012500
0.175000 0.987500 0.012500
0.337500 0.987500 0.012500
0.500000 0.987500 0.012500
0.662500 0.987500 0.012500
0.825000 0.987500 0.012500
0.987500 0.987500 0.012500
1.000000 0.987500 0.012500
0.000000 1.000000 0.012500
0.012500 1.000000 0.012500
0.175000 1.000000 0.012500
0.337500 1.000000 0.012500
0.500000 1.000000 0.012500
0.662500 1.000000 0.012500
0.825000 1.000000 0.012500
0.987500 1.000000 0.012500
1.000000 1.000000 0.012500
0.000000 0.000000 0.175000
0.012500 0.000000 0.175000
0.175000 0.000000 0.175000
0.337500 0.000000 0.175000
0.500000 0.000000 0.175000
0.662500 0.000000 0.175000
0.825000 0.000000 0.175000
0.987500 0.000000 0.175000
1.000000 0.000000 0.175000
0.000000 0.012500 0.175000
0.012500 0.012500 0.175000
0.175000 0.012500 0.175000
0.337500 0.012500 0.175000
0.500000 0.012500 0.175000
0.662500 0.012500 0.175000
0.825000 0.012500 0.175000
0.987500 0.012500 0.175000
1.000000 0.012500 0.175000
0.000000 0.175000 0.175000
0.012500 0.175000 0.175000
0.175000 0.175000 0.175000
0.337500 0.175000 0.175000
0.500000 0.175000 0.175000
0.662500 0.175000 0.175000
0.825000 0.175000 0.175000
0.987500 0.175000 0.175000
1.000000 0.175000 0.175000
0.000000 0.337500 0.175000
0.012500 0.337500 0.175000
0.175000 0.337500 0.175000
0.337500 0.337500 0.175000
0.500000 0.337500 0.175000
0.662500 0.337500 0.175000
0.825000 0.337500 0.175000
0.987500 0.337500 0.175000
1.000000 0.337500 0.175000
0.000000 0.500000 0.175000
0.012500 0.500000 0.175000
0.175000 0.500000 0.175000
0.337500 0.500000 0.175000
0.500000 0.500000 0.175000
0.662500 0.500000 0.175000
0.825000 0.500000 0.175000
0.987500 0.500000 0.175000
1.000000 0.500000 0.175000
0.000000 0.662500 0.175000
0.012500 0.662500 0.175000
0.175000 0.662500 0.175000
0.337500 0.662500 0.175000
0.500000 0.662500 0.175000
0.662500 0.662500 0.175000
0.825000 0.662500 0.175000
0.987500 0.662500 0.175000
1.000000 0.662500 0.175000
0.000000 0.825000 0.175000
0.012500 0.825000 0.175000
0.175000 0.825000 0.175000
0.337500 0.825000 0.175000
0.500000 0.825000 0.175000
0.662500 0.825000 0.175000
0.825000 0.825000 0.175000
0.987500 0.825000 0.175000
1.000000 0.825000 0.175000
0.000000 0.987500 0.175000
0.012500 0.987500 0.175000
0.175000 0.987500 0.175000
0.337500 0.987500 0.175000
0.500000 0.987500 0.175000
0.662500 0.987500 0.175000
0.825000 0.987500 0.175000
0.987500 0.987500 0.175000
1.000000 0.987500 0.175000
0.000000 1.000000 0.175000
0.012500 1.000000 0.175000
0.175000 1.000000 0.175000
0.337500 1.000000 0.175000
0.500000 1.000000 0.175000
0.662500 1.000000 0.175000
0.825000 1.000000 0.175000
0.987500 1.000000 0.175000
1.000000 1.000000 0.175000
0.000000 0.000000 0.337500
0.012500 0.000000 0.337500
0.175000 0.000000 0.337500
0.337500 0.000000 0.337500
0.500000 0.000000 0.337500
0.662500 0.000000 0.337500
0.825000 0.000000 0.337500
0.987500 0.000000 0.337500
1.000000 0.000000 0.337500
0.000000 0.012500 0.337500
0.012500 0.012500 0.337500
0.175000 0.012500 0.337500
0.337500 0.012500 0.337500
0.500000 0.012500 0.337500
0.662500 0.012500 0.337500
0.825000 0.012500 0.337500
0.987500 0.012500 0.337500
1.000000 0.012500 0.337500
0.000000 0.175000 0.337500
0.012500 0.175000 0.337500
0.175000 0.175000 0.337500
0.337500 0.175000 0.337500
0.500000 0.175000 0.337500
0.662500 0.175000 0.337500
0.825000 0.175000 0.337500
0.987500 0.175000 0.337500
1.000000 0.175000 0.337500
0.000000 0.337500 0.337500
0.012500 0.337500 0.337500
0.175000 0.337500 0.337500
0.337500 0.337500 0.337500
0.500000 0.337500 0.337500
0.662500 0.337500 0.337500
0.825000 0.337500 0.337500
0.987500 0.337500 0.337500
1.000000 0.337500 0.337500
0.000000 0.500000 0.337500
0.012500 0.500000 0.337500
0.175000 0.500000 0.337500
0.337500 0.500000 0.337500
0.500000 0.500000 0.337500
0.662500 0.500000 0.337500
0.825000 0.500000 0.337500
0.987500 0.500000 0.337500
1.000000 0.500000 0.337500
0.000000 0.662500 0.337500
0.012500 0.662500 0.337500
0.175000 0.662500 0.337500
0.337500 0.662500 0.337500
0.500000 0.662500 0.337500
0.662500 0.662500 0.337500
0.825000 0.662500 0.337500
0.987500 0.662500 0.337500
1.000000 0.662500 0.337500
0.000000 0.825000 0.337500
0.012500 0.825000 0.337500
0.175000 0.825000 0.337500
0.337500 0.825000 0.337500
0.500000 0.825000 0.337500
0.662500 0.825000 0.337500
0.825000 0.825000 0.337500
0.987500 0.825000 0.337500
1.000000 0.825000 0.337500
0.000000 0.987500 0.337500
0.012500 0.987500 0.337500
0.175000 0.987500 0.337500
0.337500 0.987500 0.337500
0.500000 0.987500 0.337500
0.662500 0.987500 0.337500
0.825000 0.987500 0.337500
0.987500 0.987500 0.337500
1.000000 0.987500 0.337500
0.000000 1.000000 0.337500
0.012500 1.000000 0.337500
0.175000 1.000000 0.337500
0.337500 1.000000 0.337500
0.500000 1.000000 0.337500
0.662500 1.000000 0.337500
0.825000 1.000000 0.337500
0.987500 1.000000 0.337500
1.000000 1.000000 0.337500
0.000000 0.000000 0.500000
0.012500 0.000000 0.500000
0.175000 0.000000 0.500000
0.337500 0.000000 0.500000
0.500000 0.000000 0.500000
0.662500 0.000000 0.500000
0.825000 0.000000 0.500000
0.987500 0.000000 0.500000
1.000000 0.000000 0.500000
0.000000 0.012500 0.500000
0.012500 0.012500 0.500000
0.175000 0.012500 0.500000
0.337500 0.012500 0.500000
0.500000 0.012500 0.500000
0.662500 0.012500 0.500000
0.825000 0.012500 0.500000
0.987500 0.012500 0.500000
1.000000 0.012500 0.500000
0.000000 0.175000 0.500000
0.012500 0.175000 0.500000
0.175000 0.175000 0.500000
0.337500 0.175000 0.500000
0.500000 0.175000 0.500000
0.662500 0.175000 0.500000
0.825000 0.175000 0.500000
0.987500 0.175000 0.500000
1.000000 0.175000 0.500000
0.000000 0.337500 0.500000
0.012500 0.337500 0.500000
0.175000 0.337500 0.500000
0.337500 0.337500 0.500000
0.500000 0.337500 0.500000
0.662500 0.337500 0.500000
0.825000 0.337500 0.500000
0.987500 0.337500 0.500000
1.000000 0.337500 0.500000
0.000000 0.500000 0.500000
0.012500 0.500000 0.500000
0.175000 0.500000 0.500000
0.337500 0.500000 0.500000
0.500000 0.500000 0.500000
0.662500 0.500000 0.500000
0.825000 0.500000 0.500000
0.987500 0.500000 0.500000
1.000000 0.500000 0.500000
0.000000 0.662500 0.500000
0.012500 0.662500 0.500000
0.175000 0.662500 0.500000
0.337500 0.662500 0.500000
0.500000 0.662500 0.500000
0.662500 0.662500 0.500000
0.825000 0.662500 0.500000
0.987500 0.662500 0.500000
1.000000 0.662500 0.500000
0.000000 0.825000 0.500000
0.012500 0.825000 0.500000
0.175000 0.825000 0.500000
0.337500 0.825000 0.500000
0.500000 0.825000 0.500000
0.662500 0.825000 0.500000
0.825000 0.825000 0.500000
0.987500 0.825000 0.500000
1.000000 0.825000 0.500000
0.000000 0.987500 0.500000
0.012500 0.987500 0.500000
0.175000 0.987500 0.500000
0.337500 0.987500 0.500000
0.500000 0.987500 0.500000
0.662500 0.987500 0.500000
0.825000 0.987500 0.500000
0.987500 0.987500 0.500000
1.000000 0.987500 0.500000
0.000000 1.000000 0.500000
0.012500 1.000000 0.500000
0.175000 1.000000 0.500000
0.337500 1.000000 0.500000
0.500000 1.000000 0.500000
0.662500 1.000000 0.500000
0.825000 1.000000 0.500000
0.987500 1.000000 0.500000
1.000000 1.000000 0.500000
0.000000 0.000000 0.662500
0.012500 0.000000 0.662500
0.175000 0.000000 0.662500
0.337500 0.000000 0.662500
0.500000 0.000000 0.662500
0.662500 0.000000 0.662500
0.825000 0.000000 0.662500
0.987500 0.000000 0.662500
1.000000 0.000000 0.662500
0.000000 0.012500 0.662500
0.012500 0.012500 0.662500
0.175000 0.012500 0.662500
0.337500 0.012500 0.662500
0.500000 0.012500 0.662500
0.662500 0.012500 0.662500
0.825000 0.012500 0.662500
0.987500 0.012500 0.662500
1.000000 0.012500 0.662500
0.000000 0.175000 0.662500
0.012500 0.175000 0.662500
0.175000 0.175000 0.662500
0.337500 0.175000 0.662500
0.500000 0.175000 0.662500
0.662500 0.175000 0.662500
0.825000 0.175000 0.662500
0.987500 0.175000 0.662500
1.000000 0.175000 0.662500
0.000000 0.337500 0.662500
0.012500 0.337500 0.662500
0.175000 0.337500 0.662500
0.337500 0.337500 0.662500
0.500000 0.337500 0.662500
0.662500 0.337500 0.662500
0.825000 0.337500 0.662500
0.987500 0.337500 0.662500
1.000000 0.337500 0.662500
0.000000 0.500000 0.662500
0.012500 0.500000 0.662500
0.175000 0.500000 0.662500
0.337500 0.500000 0.662500
0.500000 0.500000 0.662500
0.662500 0.500000 0.662500
0.825000 0.500000 0.662500
0.987500 0.500000 0.662500
1.000000 0.500000 0.662500
0.000000 0.662500 0.662500
0.012500 0.662500 0.662500
0.175000 0.662500 0.662500
0.337500 0.662500 0.662500
0.500000 0.662500 0.662500
0.662500 0.662500 0.662500
0.825000 0.662500 0.662500
0.987500 0.662500 0.662500
1.000000 0.662500 0.662500
0.000000 0.825000 0.662500
0.012500 0.825000 0.662500
0.175000 0.825000 0.662500
0.337500 0.825000 0.662500
0.500000 0.825000 0.662500
0.662500 0.825000 0.662500
0.825000 0.825000 0.662500
0.987500 0.825000 0.662500
1.000000 0.825000 0.662500
0.000000 0.987500 0.662500
0.012500 0.987500 0.662500
0.175000 0.987500 0.662500
0.337500 0.987500 0.662500
0.500000 0.987500 0.662500
0.662500 0.987500 0.662500
0.825000 0.987500 0.662500
0.987500 0.987500 0.662500
1.000000 0.987500 0.662500
0.000000 1.000000 0.662500
0.012500 1.000000 0.662500
0.175000 1.000000 0.662500
0.337500 1.000000 0.662500
0.500000 1.000000 0.662500
0.662500 1.000000 0.662500
0.825000 1.000000 0.662500
0.987500 1.000000 0.662500
1.000000 1.000000 0.662500
0.000000 0.000000 0.825000
0.012500 0.000000 0.825000
0.175000 0.000000 0.825000
0.337500 0.000000 0.825000
0.500000 0.000000 0.825000
0.662500 0.000000 0.825000
0.825000 0.000000 0.825000
0.987500 0.000000 0.825000
1.000000 0.000000 0.825000
0.000000 0.012500 0.825000
0.012500 0.012500 0.825000
0.175000 0.012500 0.825000
0.337500 0.012500 0.825000
0.500000 0.012500 0.825000
0.662500 0.012500 0.825000
0.825000 0.012500 0.825000
0.987500 0.012500 0.825000
1.000000 0.012500 0.825000
0.000000 0.175000 0.825000
0.012500 0.175000 0.825000
0.175000 0.175000 0.825000
0.337500 0.175000 0.825000
0.500000 0.175000 0.825000
0.662500 0.175000 0.825000
0.825000 0.175000 0.825000
0.987500 0.175000 0.825000
1.000000 0.175000 0.825000
0.000000 0.337500 0.825000
0.012500 0.337500 0.825000
0.175000 0.337500 0.825000
0.337500 0.337500 0.825000
0.500000 0.337500 0.825000
0.662500 0.337500 0.825000
0.825000 0.337500 0.825000
0.987500 0.337500 0.825000
1.000000 0.337500 0.825000
0.000000 0.500000 0.825000
0.012500 0.500000 0.825000
0.175000 0.500000 0.825000
0.337500 0.500000 0.825000
0.500000 0.500000 0.825000
0.662500 0.500000 0.825000
0.825000 0.500000 0.825000
0.987500 0.500000 0.825000
1.000000 0.500000 0.825000
0.000000 0.662500 0.825000
0.012500 0.662500 0.825000
0.175000 0.662500 0.825000
0.337500 0.662500 0.825000
0.500000 0.662500 0.825000
0.662500 0.662500 0.825000
0.825000 0.662500 0.825000
0.987500 0.662500 0.825000
1.000000 0.662500 0.825000
0.000000 0.825000 0.825000
0.012500 0.825000 0.825000
0.175000 0.825000 0.825000
0.337500 0.825000 0.825000
0.500000 0.825000 0.825000
0.662500 0.825000 0.825000
0.825000 0.825000 0.825000
0.987500 0.825000 0.825000
1.000000 0.825000 0.825000
0.000000 0.987500 0.825000
0.012500 0.987500 0.825000
0.175000 0.987500 0.825000
0.337500 0.987500 0.825000
0.500000 0.987500 0.825000
0.662500 0.987500 0.825000
0.825000 0.987500 0.825000
0.987500 0.987500 0.825000
1.000000 0.987500 0.825000
0.000000 1.000000 0.825000
0.012500 1.000000 0.825000
0.175000 1.000000 0.825000
0.337500 1.000000 0.825000
0.500000 1.000000 0.825000
0.662500 1.000000 0.825000
0.825000 1.000000 0.825000
0.987500 1.000000 0.825000
1.000000 1.000000 0.825000
0.000000 0.000000 0.987500
0.012500 0.000000 0.987500
0.175000 0.000000 0.987500
0.337500 0.000000 0.987500
0.500000 0.000000 0.987500
0.662500 0.000000 0.987500
0.825000 0.000000 0.987500
0.987500 0.000000 0.987500
1.000000 0.000000 0.987500
0.000000 0.012500 0.987500
0.012500 0.012500 0.987500
0.175000 0.012500 0.987500
0.337500 0.012500 0.987500
0.500000 0.012500 0.987500
0.662500 0.012500 0.987500
0.825000 0.012500 0.987500
0.987500 0.012500 0.987500
1.000000 0.012500 0.987500
0.000000 0.175000 0.987500
0.012500 0.175000 0.987500
0.175000 0.175000 0.987500
0.337500 0.175000 0.987500
0.500000 0.175000 0.987500
0.662500 0.175000 0.987500
0.825000 0.175000 0.987500
0.987500 0.175000 0.987500
1.000000 0.175000 0.987500
0.000000 0.337500 0.987500
0.012500 0.337500 0.987500
0.175000 0.337500 0.987500
0.337500 0.337500 0.987500
0.500000 0.337500 0.987500
0.662500 0.337500 0.987500
0.825000 0.337500 0.987500
0.987500 0.337500 0.987500
1.000000 0.337500 0.987500
0.000000 0.500000 0.987500
0.012500 0.500000 0.987500
0.175000 0.500000 0.987500
0.337500 0.500000 0.987500
0.500000 0.500000 0.987500
0.662500 0.500000 0.987500
0.825000 0.500000 0.987500
0.987500 0.500000 0.987500
1.000000 0.500000 0.987500
0.000000 0.662500 0.987500
0.012500 0.662500 0.987500
0.175000 0.662500 0.987500
0.337500 0.662500 0.987500
0.500000 0.662500 0.987500
0.662500 0.662500 0.987500
0.825000 0.662500 0.987500
0.987500 0.662500 0.987500
1.000000 0.662500 0.987500
0.000000 0.825000 0.987500
0.012500 0.825000 0.987500
0.175000 0.825000 0.987500
0.337500 0.825000 0.987500
0.500000 0.825000 0.987500
0.662500 0.825000 0.987500
0.825000 0.825000 0.987500
0.987500 0.825000 0.987500
1.000000 0.825000 0.987500
0.000000 0.987500 0.987500
0.012500 0.987500 0.987500
0.175000 0.987500 0.987500
0.337500 0.987500 0.987500
0.500000 0.987500 0.987500
0.662500 0.987500 0.987500
0.825000 0.987500 0.987500
0.987500 0.987500 0.987500
1.000000 0.987500 0.987500
0.000000 1.000000 0.987500
0.012500 1.000000 0.987500
0.175000 1.000000 0.987500
0.337500 1.000000 0.987500
0.500000 1.000000 0.987500
0.662500 1.000000 0.987500
0.825000 1.000000 0.987500
0.987500 1.000000 0.987500
1.000000 1.000000 0.987500
0.000000 0.000000 1.000000
0.012500 0.000000 1.000000
0.175000 0.000000 1.000000
0.337500 0.000000 1.000000
0.500000 0.000000 1.000000
0.662500 0.000000 1.000000
0.825000 0.000000 1.000000
0.987500 0.000000 1.000000
1.000000 0.000000 1.000000
0.000000 0.012500 1.000000
0.012500 0.012500 1.000000
0.175000 0.012500 1.000000
0.337500 0.012500 1.000000
0.500000 0.012500 1.000000
0.662500 0.012500 1.000000
0.825000 0.012500 1.000000
0.987500 0.012500 1.000000
1.000000 0.012500 1.000000
0.000000 0.175000 1.000000
0.012500 0.175000 1.000000
0.175000 0.175000 1.000000
0.337500 0.175000 1.000000
0.500000 0.175000 1.000000
0.662500 0.175000 1.000000
0.825000 0.175000 1.000000
0.987500 0.175000 1.000000
1.000000 0.175000 1.000000
0.000000 0.337500 1.000000
0.012500 0.337500 1.000000
0.175000 0.337500 1.000000
0.337500 0.337500 1.000000
0.500000 0.337500 1.000000
0.662500 0.337500 1.000000
0.825000 0.337500 1.000000
0.987500 0.337500 1.000000
1.000000 0.337500 1.000000
0.000000 0.500000 1.000000
0.012500 0.500000 1.000000
0.175000 0.500000 1.000000
0.337500 0.500000 1.000000
0.500000 0.500000 1.000000
0.662500 0.500000 1.000000
0.825000 0.500000 1.000000
0.987500 0.500000 1.000000
1.000000 0.500000 1.000000
0.000000 0.662500 1.000000
0.012500 0.662500 1.000000
0.175000 0.662500 1.000000
0.337500 0.662500 1.000000
0.500000 0.662500 1.000000
0.662500 0.662500 1.000000
0.825000 0.662500 1.000000
0.987500 0.662500 1.000000
1.000000 0.662500 1.000000
0.000000 0.825000 1.000000
0.012500 0.825000 1.000000
0.175000 0.825000 1.000000
0.337500 0.825000 1.000000
0.500000 0.825000 1.000000
0.662500 0.825000 1.000000
0.825000 0.825000 1.000000
0.987500 0.825000 1.000000
1.000000 0.825000 1.000000
0.000000 0.987500 1.000000
0.012500 0.987500 1.000000
0.175000 0.987500 1.000000
0.337500 0.987500 1.000000
0.500000 0.987500 1.000000
0.662500 0.987500 1.000000
0.825000 0.987500 1.000000
0.987500 0.987500 1.000000
1.000000 0.987500 1.000000
0.000000 1.000000 1.000000
0.012500 1.000000 1.000000
0.175000 1.000000 1.000000
0.337500 1.000000 1.000000
0.500000 1.000000 1.000000
0.662500 1.000000 1.000000
0.825000 1.000000 1.000000
0.987500 1.000000 1.000000
1.000000 1.000000 1.000000
