public/luts/high-contrast.cube
TITLE "High Contrast"
LUT_3D_SIZE 17
0.000000 0.000000 0.000000
0.000000 0.000000 0.000000
0.012500 0.000000 0.000000
0.093750 0.000000 0.000000
0.175000 0.000000 0.000000
0.256250 0.000000 0.000000
0.337500 0.000000 0.000000
0.418750 0.000000 0.000000
0.500000 0.000000 0.000000
0.581250 0.000000 0.000000
0.662500 0.000000 0.000000
0.743750 0.000000 0.000000
0.825000 0.000000 0.000000
0.906250 0.000000 0.000000
0.987500 0.000000 0.000000
1.000000 0.000000 0.000000
1.000000 0.000000 0.000000
0.000000 0.000000 0.000000
0.000000 0.000000 0.000000
0.012500 0.000000 0.000000
0.093750 0.000000 0.000000
0.175000 0.000000 0.000000
0.256250 0.000000 0.000000
0.337500 0.000000 0.000000
0.418750 0.000000 0.000000
0.500000 0.000000 0.000000
0.581250 0.000000 0.000000
0.662500 0.000000 0.000000
0.743750 0.000000 0.000000
0.825000 0.000000 0.000000
0.906250 0.000000 0.000000
0.987500 0.000000 0.000000
1.000000 0.000000 0.000000
1.000000 0.000000 0.000000
0.000000 0.012500 0.000000
0.000000 0.012500 0.000000
0.012500 0.012500 0.000000
0.093750 0.012500 0.000000
0.175000 0.012500 0.000000
0.256250 0.012500 0.000000
0.337500 0.012500 0.000000
0.418750 0.012500 0.000000
0.500000 0.012500 0.000000
0.581250 0.012500 0.000000
0.662500 0.012500 0.000000
0.743750 0.012500 0.000000
0.825000 0.012500 0.000000
0.906250 0.012500 0.000000
0.987500 0.012500 0.000000
1.000000 0.012500 0.000000
1.000000 0.012500 0.000000
0.000000 0.093750 0.000000
0.000000 0.093750 0.000000
0.012500 0.093750 0.000000
0.093750 0.093750 0.000000
0.175000 0.093750 0.000000
0.256250 0.093750 0.000000
0.337500 0.093750 0.000000
0.418750 0.093750 0.000000
0.500000 0.093750 0.000000
0.581250 0.093750 0.000000
0.662500 0.093750 0.000000
0.743750 0.093750 0.000000
0.825000 0.093750 0.000000
0.906250 0.093750 0.000000
0.987500 0.093750 0.000000
1.000000 0.093750 0.000000
1.000000 0.093750 0.000000
0.000000 0.175000 0.000000
0.000000 0.175000 0.000000
0.012500 0.175000 0.000000
0.093750 0.175000 0.000000
0.175000 0.175000 0.000000
0.256250 0.175000 0.000000
0.337500 0.175000 0.000000
0.418750 0.175000 0.000000
0.500000 0.175000 0.000000
0.581250 0.175000 0.000000
0.662500 0.175000 0.000000
0.743750 0.175000 0.000000
0.825000 0.175000 0.000000
0.906250 0.175000 0.000000
0.987500 0.175000 0.000000
1.000000 0.175000 0.000000
1.000000 0.175000 0.000000
0.000000 0.256250 0.000000
0.000000 0.256250 0.000000
0.012500 0.256250 0.000000
0.093750 0.256250 0.000000
0.175000 0.256250 0.000000
0.256250 0.256250 0.000000
0.337500 0.256250 0.000000
0.418750 0.256250 0.000000
0.500000 0.256250 0.000000
0.581250 0.256250 0.000000
0.662500 0.256250 0.000000
0.743750 0.256250 0.000000
0.825000 0.256250 0.000000
0.906250 0.256250 0.000000
0.987500 0.256250 0.000000
1.000000 0.256250 0.000000
1.000000 0.256250 0.000000
0.000000 0.337500 0.000000
0.000000 0.337500 0.000000
0.012500 0.337500 0.000000
0.093750 0.337500 0.000000
0.175000 0.337500 0.000000
0.256250 0.337500 0.000000
0.337500 0.337500 0.000000
0.418750 0.337500 0.000000
0.500000 0.337500 0.000000
0.581250 0.337500 0.000000
0.662500 0.337500 0.000000
0.743750 0.337500 0.000000
0.825000 0.337500 0.000000
0.906250 0.337500 0.000000
0.987500 0.337500 0.000000
1.000000 0.337500 0.000000
1.000000 0.337500 0.000000
0.000000 0.418750 0.000000
0.000000 0.418750 0.000000
0.012500 0.418750 0.000000
0.093750 0.418750 0.000000
0.175000 0.418750 0.000000
0.256250 0.418750 0.000000
0.337500 0.418750 0.000000
0.418750 0.418750 0.000000
0.500000 0.418750 0.000000
0.581250 0.418750 0.000000
0.662500 0.418750 0.000000
0.743750 0.418750 0.000000
0.825000 0.418750 0.000000
0.906250 0.418750 0.000000
0.987500 0.418750 0.000000
1.000000 0.418750 0.000000
1.000000 0.418750 0.000000
0.000000 0.500000 0.000000
0.000000 0.500000 0.000000
0.012500 0.500000 0.000000
0.093750 0.500000 0.000000
0.175000 0.500000 0.000000
0.256250 0.500000 0.000000
0.337500 0.500000 0.000000
0.418750 0.500000 0.000000
0.500000 0.500000 0.000000
0.581250 0.500000 0.000000
0.662500 0.500000 0.000000
0.743750 0.500000 0.000000
0.825000 0.500000 0.000000
0.906250 0.500000 0.000000
0.987500 0.500000 0.000000
1.000000 0.500000 0.000000
1.000000 0.500000 0.000000
0.000000 0.581250 0.000000
0.000000 0.581250 0.000000
0.012500 0.581250 0.000000
0.093750 0.581250 0.000000
0.175000 0.581250 0.000000
0.256250 0.581250 0.000000
0.337500 0.581250 0.000000
0.418750 0.581250 0.000000
0.500000 0.581250 0.000000
0.581250 0.581250 0.000000
0.662500 0.581250 0.000000
0.743750 0.581250 0.000000
0.825000 0.581250 0.000000
0.906250 0.581250 0.000000
0.987500 0.581250 0.000000
1.000000 0.581250 0.000000
1.000000 0.581250 0.000000
0.000000 0.662500 0.000000
0.000000 0.662500 0.000000
0.012500 0.662500 0.000000
0.093750 0.662500 0.000000
0.175000 0.662500 0.000000
0.256250 0.662500 0.000000
0.337500 0.662500 0.000000
0.418750 0.662500 0.000000
0.500000 0.662500 0.000000
0.581250 0.662500 0.000000
0.662500 0.662500 0.000000
0.743750 0.662500 0.000000
0.825000 0.662500 0.000000
0.906250 0.662500 0.000000
0.987500 0.662500 0.000000
1.000000 0.662500 0.000000
1.000000 0.662500 0.000000
0.000000 0.743750 0.000000
0.000000 0.743750 0.000000
0.012500 0.743750 0.000000
0.093750 0.743750 0.000000
0.175000 0.743750 0.000000
0.256250 0.743750 0.000000
0.337500 0.743750 0.000000
0.418750 0.743750 0.000000
0.500000 0.743750 0.000000
0.581250 0.743750 0.000000
0.662500 0.743750 0.000000
0.743750 0.743750 0.000000
0.825000 0.743750 0.000000
0.906250 0.743750 0.000000
0.987500 0.743750 0.000000
1.000000 0.743750 0.000000
1.000000 0.743750 0.000000
0.000000 0.825000 0.000000
0.000000 0.825000 0.000000
0.012500 0.825000 0.000000
0.093750 0.825000 0.000000
0.175000 0.825000 0.000000
0.256250 0.825000 0.000000
0.337500 0.825000 0.000000
0.418750 0.825000 0.000000
0.500000 0.825000 0.000000
0.581250 0.825000 0.000000
0.662500 0.825000 0.000000
0.743750 0.825000 0.000000
0.825000 0.825000 0.000000
0.906250 0.825000 0.000000
0.987500 0.825000 0.000000
1.000000 0.825000 0.000000
1.000000 0.825000 0.000000
0.000000 0.906250 0.000000
0.000000 0.906250 0.000000
0.012500 0.906250 0.000000
0.093750 0.906250 0.000000
0.175000 0.906250 0.000000
0.256250 0.906250 0.000000
0.337500 0.906250 0.000000
0.418750 0.906250 0.000000
0.500000 0.906250 0.000000
0.581250 0.906250 0.000000
0.662500 0.906250 0.000000
0.743750 0.906250 0.000000
0.825000 0.906250 0.000000
0.906250 0.906250 0.000000
0.987500 0.906250 0.000000
1.000000 0.906250 0.000000
1.000000 0.906250 0.000000
0.000000 0.987500 0.000000
0.000000 0.987500 0.000000
0.012500 0.987500 0.000000
0.093750 0.987500 0.000000
0.175000 0.987500 0.000000
0.256250 0.987500 0.000000
0.337500 0.987500 0.000000
0.418750 0.987500 0.000000
0.500000 0.987500 0.000000
0.581250 0.987500 0.000000
0.662500 0.987500 0.000000
0.743750 0.987500 0.000000
0.825000 0.987500 0.000000
0.906250 0.987500 0.000000
0.987500 0.987500 0.000000
1.000000 0.987500 0.000000
1.000000 0.987500 0.000000
0.000000 1.000000 0.000000
0.000000 1.000000 0.000000
0.012500 1.000000 0.000000
0.093750 1.000000 0.000000
0.175000 1.000000 0.000000
0.256250 1.000000 0.000000
0.337500 1.000000 0.000000
0.418750 1.000000 0.000000
0.500000 1.000000 0.000000
0.581250 1.000000 0.000000
0.662500 1.000000 0.000000
0.743750 1.000000 0.000000
0.825000 1.000000 0.000000
0.906250 1.000000 0.000000
0.987500 1.000000 0.000000
1.000000 1.000000 0.000000
1.000000 1.000000 0.000000
0.000000 1.000000 0.000000
0.000000 1.000000 0.000000
0.012500 1.000000 0.000000
0.093750 1.000000 0.000000
0.175000 1.000000 0.000000
0.256250 1.000000 0.000000
0.337500 1.000000 0.000000
0.418750 1.000000 0.000000
0.500000 1.000000 0.000000
0.581250 1.000000 0.000000
0.662500 1.000000 0.000000
0.743750 1.000000 0.000000
0.825000 1.000000 0.000000
0.906250 1.000000 0.000000
0.987500 1.000000 0.000000
1.000000 1.000000 0.000000
1.000000 1.000000 0.000000
0.000000 0.000000 0.000000
0.000000 0.000000 0.000000
0.012500 0.000000 0.000000
0.093750 0.000000 0.000000
0.175000 0.000000 0.000000
0.256250 0.000000 0.000000
0.337500 0.000000 0.000000
0.418750 0.000000 0.000000
0.500000 0.000000 0.000000
0.581250 0.000000 0.000000
0.662500 0.000000 0.000000
0.743750 0.000000 0.000000
0.825000 0.000000 0.000000
0.906250 0.000000 0.000000
0.987500 0.000000 0.000000
1.000000 0.000000 0.000000
1.000000 0.000000 0.000000
0.000000 0.000000 0.000000
0.000000 0.000000 0.000000
0.012500 0.000000 0.000000
0.093750 0.000000 0.000000
0.175000 0.000000 0.000000
0.256250 0.000000 0.000000
0.337500 0.000000 0.000000
0.418750 0.000000 0.000000
0.500000 0.000000 0.000000
0.581250 0.000000 0.000000
0.662500 0.000000 0.000000
0.743750 0.000000 0.000000
0.825000 0.000000 0.000000
0.906250 0.000000 0.000000
0.987500 0.000000 0.000000
1.000000 0.000000 0.000000
1.000000 0.000000 0.000000
0.000000 0.012500 0.000000
0.000000 0.012500 0.000000
0.012500 0.012500 0.000000
0.093750 0.012500 0.000000
0.175000 0.012500 0.000000
0.256250 0.012500 0.000000
0.337500 0.012500 0.000000
0.418750 0.012500 0.000000
0.500000 0.012500 0.000000
0.581250 0.012500 0.000000
0.662500 0.012500 0.000000
0.743750 0.012500 0.000000
0.825000 0.012500 0.000000
0.906250 0.012500 0.000000
0.987500 0.012500 0.000000
1.000000 0.012500 0.000000
1.000000 0.012500 0.000000
0.000000 0.093750 0.000000
0.000000 0.093750 0.000000
0.012500 0.093750 0.000000
0.093750 0.093750 0.000000
0.175000 0.093750 0.000000
0.256250 0.093750 0.000000
0.337500 0.093750 0.000000
0.418750 0.093750 0.000000
0.500000 0.093750 0.000000
0.581250 0.093750 0.000000
0.662500 0.093750 0.000000
0.743750 0.093750 0.000000
0.825000 0.093750 0.000000
0.906250 0.093750 0.000000
0.987500 0.093750 0.000000
1.000000 0.093750 0.000000
1.000000 0.093750 0.000000
0.000000 0.175000 0.000000
0.000000 0.175000 0.000000
0.012500 0.175000 0.000000
0.093750 0.175000 0.000000
0.175000 0.175000 0.000000
0.256250 0.175000 0.000000
0.337500 0.175000 0.000000
0.418750 0.175000 0.000000
0.500000 0.175000 0.000000
0.581250 0.175000 0.000000
0.662500 0.175000 0.000000
0.743750 0.175000 0.000000
0.825000 0.175000 0.000000
0.906250 0.175000 0.000000
0.987500 0.175000 0.000000
1.000000 0.175000 0.000000
1.000000 0.175000 0.000000
0.000000 0.256250 0.000000
0.000000 0.256250 0.000000
0.012500 0.256250 0.000000
0.093750 0.256250 0.000000
0.175000 0.256250 0.000000
0.256250 0.256250 0.000000
0.337500 0.256250 0.000000
0.418750 0.256250 0.000000
0.500000 0.256250 0.000000
0.581250 0.256250 0.000000
0.662500 0.256250 0.000000
0.743750 0.256250 0.000000
0.825000 0.256250 0.000000
0.906250 0.256250 0.000000
0.987500 0.256250 0.000000
1.000000 0.256250 0.000000
1.000000 0.256250 0.000000
0.000000 0.337500 0.000000
0.000000 0.337500 0.000000
0.012500 0.337500 0.000000
0.093750 0.337500 0.000000
0.175000 0.337500 0.000000
0.256250 0.337500 0.000000
0.337500 0.337500 0.000000
0.418750 0.337500 0.000000
0.500000 0.337500 0.000000
0.581250 0.337500 0.000000
0.662500 0.337500 0.000000
0.743750 0.337500 0.000000
0.825000 0.337500 0.000000
0.906250 0.337500 0.000000
0.987500 0.337500 0.000000
1.000000 0.337500 0.000000
1.000000 0.337500 0.000000
0.000000 0.418750 0.000000
0.000000 0.418750 0.000000
0.012500 0.418750 0.000000
0.093750 0.418750 0.000000
0.175000 0.418750 0.000000
0.256250 0.418750 0.000000
0.337500 0.418750 0.000000
0.418750 0.418750 0.000000
0.500000 0.418750 0.000000
0.581250 0.418750 0.000000
0.662500 0.418750 0.000000
0.743750 0.418750 0.000000
0.825000 0.418750 0.000000
0.906250 0.418750 0.000000
0.987500 0.418750 0.000000
1.000000 0.418750 0.000000
1.000000 0.418750 0.000000
0.000000 0.500000 0.000000
0.000000 0.500000 0.000000
0.012500 0.500000 0.000000
0.093750 0.500000 0.000000
0.175000 0.500000 0.000000
0.256250 0.500000 0.000000
0.337500 0.500000 0.000000
0.418750 0.500000 0.000000
0.500000 0.500000 0.000000
0.581250 0.500000 0.000000
0.662500 0.500000 0.000000
0.743750 0.500000 0.000000
0.825000 0.500000 0.000000
0.906250 0.500000 0.000000
0.987500 0.500000 0.000000
1.000000 0.500000 0.000000
1.000000 0.500000 0.000000
0.000000 0.581250 0.000000
0.000000 0.581250 0.000000
0.012500 0.581250 0.000000
0.093750 0.581250 0.000000
0.175000 0.581250 0.000000
0.256250 0.581250 0.000000
0.337500 0.581250 0.000000
0.418750 0.581250 0.000000
0.500000 0.581250 0.000000
0.581250 0.581250 0.000000
0.662500 0.581250 0.000000
0.743750 0.581250 0.000000
0.825000 0.581250 0.000000
0.906250 0.581250 0.000000
0.987500 0.581250 0.000000
1.000000 0.581250 0.000000
1.000000 0.581250 0.000000
0.000000 0.662500 0.000000
0.000000 0.662500 0.000000
0.012500 0.662500 0.000000
0.093750 0.662500 0.000000
0.175000 0.662500 0.000000
0.256250 0.662500 0.000000
0.337500 0.662500 0.000000
0.418750 0.662500 0.000000
0.500000 0.662500 0.000000
0.581250 0.662500 0.000000
0.662500 0.662500 0.000000
0.743750 0.662500 0.000000
0.825000 0.662500 0.000000
0.906250 0.662500 0.000000
0.987500 0.662500 0.000000
1.000000 0.662500 0.000000
1.000000 0.662500 0.000000
0.000000 0.743750 0.000000
0.000000 0.743750 0.000000
0.012500 0.743750 0.000000
0.093750 0.743750 0.000000
0.175000 0.743750 0.000000
0.256250 0.743750 0.000000
0.337500 0.743750 0.000000
0.418750 0.743750 0.000000
0.500000 0.743750 0.000000
0.581250 0.743750 0.000000
0.662500 0.743750 0.000000
0.743750 0.743750 0.000000
0.825000 0.743750 0.000000
0.906250 0.743750 0.000000
0.987500 0.743750 0.000000
1.000000 0.743750 0.000000
1.000000 0.743750 0.000000
0.000000 0.825000 0.000000
0.000000 0.825000 0.000000
0.012500 0.825000 0.000000
0.093750 0.825000 0.000000
0.175000 0.825000 0.000000
0.256250 0.825000 0.000000
0.337500 0.825000 0.000000
0.418750 0.825000 0.000000
0.500000 0.825000 0.000000
0.581250 0.825000 0.000000
0.662500 0.825000 0.000000
0.743750 0.825000 0.000000
0.825000 0.825000 0.000000
0.906250 0.825000 0.000000
0.987500 0.825000 0.000000
1.000000 0.825000 0.000000
1.000000 0.825000 0.000000
0.000000 0.906250 0.000000
0.000000 0.906250 0.000000
0.012500 0.906250 0.000000
0.093750 0.906250 0.000000
0.175000 0.906250 0.000000
0.256250 0.906250 0.000000
0.337500 0.906250 0.000000
0.418750 0.906250 0.000000
0.500000 0.906250 0.000000
0.581250 0.906250 0.000000
0.662500 0.906250 0.000000
0.743750 0.906250 0.000000
0.825000 0.906250 0.000000
0.906250 0.906250 0.000000
0.987500 0.906250 0.000000
1.000000 0.906250 0.000000
1.000000 0.906250 0.000000
0.000000 0.987500 0.000000
0.000000 0.987500 0.000000
0.012500 0.987500 0.000000
0.093750 0.987500 0.000000
0.175000 0.987500 0.000000
0.256250 0.987500 0.000000
0.337500 0.987500 0.000000
0.418750 0.987500 0.000000
0.500000 0.987500 0.000000
0.581250 0.987500 0.000000
0.662500 0.987500 0.000000
0.743750 0.987500 0.000000
0.825000 0.987500 0.000000
0.906250 0.987500 0.000000
0.987500 0.987500 0.000000
1.000000 0.987500 0.000000
1.000000 0.987500 0.000000
0.000000 1.000000 0.000000
0.000000 1.000000 0.000000
0.012500 1.000000 0.000000
0.093750 1.000000 0.000000
0.175000 1.000000 0.000000
0.256250 1.000000 0.000000
0.337500 1.000000 0.000000
0.418750 1.000000 0.000000
0.500000 1.000000 0.000000
0.581250 1.000000 0.000000
0.662500 1.000000 0.000000
0.743750 1.000000 0.000000
0.825000 1.000000 0.000000
0.906250 1.000000 0.000000
0.987500 1.000000 0.000000
1.000000 1.000000 0.000000
1.000000 1.000000 0.000000
0.000000 1.000000 0.000000
0.000000 1.000000 0.000000
0.012500 1.000000 0.000000
0.093750 1.000000 0.000000
0.175000 1.000000 0.000000
0.256250 1.000000 0.000000
0.337500 1.000000 0.000000
0.418750 1.000000 0.000000
0.500000 1.000000 0.000000
0.581250 1.000000 0.000000
0.662500 1.000000 0.000000
0.743750 1.000000 0.000000
0.825000 1.000000 0.000000
0.906250 1.000000 0.000000
0.987500 1.000000 0.000000
1.000000 1.000000 0.000000
1.000000 1.000000 0.000000
0.000000 0.000000 0.012500
0.000000 0.000000 0.012500
0.012500 0.000000 0.012500
0.093750 0.000000 0.012500
0.175000 0.000000 0.012500
0.256250 0.000000 0.012500
0.337500 0.000000 0.012500
0.418750 0.000000 0.012500
0.500000 0.000000 0.012500
0.581250 0.000000 0.012500
0.662500 0.000000 0.012500
0.743750 0.000000 0.012500
0.825000 0.000000 0.012500
0.906250 0.000000 0.012500
0.987500 0.000000 0.012500
1.000000 0.000000 0.012500
1.000000 0.000000 0.012500
0.000000 0.000000 0.012500
0.000000 0.000000 0.012500
0.012500 0.000000 0.012500
0.093750 0.000000 0.012500
0.175000 0.000000 0.012500
0.256250 0.000000 0.012500
0.337500 0.000000 0.012500
0.418750 0.000000 0.012500
0.500000 0.000000 0.012500
0.581250 0.000000 0.012500
0.662500 0.000000 0.012500
0.743750 0.000000 0.012500
0.825000 0.000000 0.012500
0.906250 0.000000 0.012500
0.987500 0.000000 0.012500
1.000000 0.000000 0.012500
1.000000 0.000000 0.012500
0.000000 0.012500 0.012500
0.000000 0.012500 0.012500
0.012500 0.012500 0.012500
0.093750 0.012500 0.012500
0.175000 0.012500 0.012500
0.256250 0.012500 0.012500
0.337500 0.012500 0.012500
0.418750 0.012500 0.012500
0.500000 0.012500 0.012500
0.581250 0.012500 0.012500
0.662500 0.012500 0.012500
0.743750 0.012500 0.012500
0.825000 0.012500 0.012500
0.906250 0.012500 0.012500
0.987500 0.012500 0.012500
1.000000 0.012500 0.012500
1.000000 0.012500 0.012500
0.000000 0.093750 0.012500
0.000000 0.093750 0.012500
0.012500 0.093750 0.012500
0.093750 0.093750 0.012500
0.175000 0.093750 0.012500
0.256250 0.093750 0.012500
0.337500 0.093750 0.012500
0.418750 0.093750 0.012500
0.500000 0.093750 0.012500
0.581250 0.093750 0.012500
0.662500 0.093750 0.012500
0.743750 0.093750 0.012500
0.825000 0.093750 0.012500
0.906250 0.093750 0.012500
0.987500 0.093750 0.012500
1.000000 0.093750 0.012500
1.000000 0.093750 0.012500
0.000000 0.175000 0.012500
0.000000 0.175000 0.012500
0.012500 0.175000 0.012500
0.093750 0.175000 0.012500
0.175000 0.175000 0.012500
0.256250 0.175000 0.012500
0.337500 0.175000 0.012500
0.418750 0.175000 0.012500
0.500000 0.175000 0.012500
0.581250 0.175000 0.012500
0.662500 0.175000 0.012500
0.743750 0.175000 0.012500
0.825000 0.175000 0.012500
0.906250 0.175000 0.012500
0.987500 0.175000 0.012500
1.000000 0.175000 0.012500
1.000000 0.175000 0.012500
0.000000 0.256250 0.012500
0.000000 0.256250 0.012500
0.012500 0.256250 0.012500
0.093750 0.256250 0.012500
0.175000 0.256250 0.012500
0.256250 0.256250 0.012500
0.337500 0.256250 0.012500
0.418750 0.256250 0.012500
0.500000 0.256250 0.012500
0.581250 0.256250 0.012500
0.662500 0.256250 0.012500
0.743750 0.256250 0.012500
0.825000 0.256250 0.012500
0.906250 0.256250 0.012500
0.987500 0.256250 0.012500
1.000000 0.256250 0.012500
1.000000 0.256250 0.012500
0.000000 0.337500 0.012500
0.000000 0.337500 0.012500
0.012500 0.337500 0.012500
0.093750 0.337500 0.012500
0.175000 0.337500 0.012500
0.256250 0.337500 0.012500
0.337500 0.337500 0.012500
0.418750 0.337500 0.012500
0.500000 0.337500 0.012500
0.581250 0.337500 0.012500
0.662500 0.337500 0.012500
0.743750 0.337500 0.012500
0.825000 0.337500 0.012500
0.906250 0.337500 0.012500
0.987500 0.337500 0.012500
1.000000 0.337500 0.012500
1.000000 0.337500 0.012500
0.000000 0.418750 0.012500
0.000000 0.418750 0.012500
0.012500 0.418750 0.012500
0.093750 0.418750 0.012500
0.175000 0.418750 0.012500
0.256250 0.418750 0.012500
0.337500 0.418750 0.012500
0.418750 0.418750 0.012500
0.500000 0.418750 0.012500
0.581250 0.418750 0.012500
0.662500 0.418750 0.012500
0.743750 0.418750 0.012500
0.825000 0.418750 0.012500
0.906250 0.418750 0.012500
0.987500 0.418750 0.012500
1.000000 0.418750 0.012500
1.000000 0.418750 0.012500
0.000000 0.500000 0.012500
0.000000 0.500000 0.012500
0.012500 0.500000 0.012500
0.093750 0.500000 0.012500
0.175000 0.500000 0.012500
0.256250 0.500000 0.012500
0.337500 0.500000 0.012500
0.418750 0.500000 0.012500
0.500000 0.500000 0.012500
0.581250 0.500000 0.012500
0.662500 0.500000 0.012500
0.743750 0.500000 0.012500
0.825000 0.500000 0.012500
0.906250 0.500000 0.012500
0.987500 0.500000 0.012500
1.000000 0.500000 0.012500
1.000000 0.500000 0.012500
0.000000 0.581250 0.012500
0.000000 0.581250 0.012500
0.012500 0.581250 0.012500
0.093750 0.581250 0.012500
0.175000 0.581250 0.012500
0.256250 0.581250 0.012500
0.337500 0.581250 0.012500
0.418750 0.581250 0.012500
0.500000 0.581250 0.012500
0.581250 0.581250 0.012500
0.662500 0.581250 0.012500
0.743750 0.581250 0.012500
0.825000 0.581250 0.012500
0.906250 0.581250 0.012500
0.987500 0.581250 0.012500
1.000000 0.581250 0.012500
1.000000 0.581250 0.012500
0.000000 0.662500 0.012500
0.000000 0.662500 0.012500
0.012500 0.662500 0.012500
0.093750 0.662500 0.012500
0.175000 0.662500 0.012500
0.256250 0.662500 0.012500
0.337500 0.662500 0.012500
0.418750 0.662500 0.012500
0.500000 0.662500 0.012500
0.581250 0.662500 0.012500
0.662500 0.662500 0.012500
0.743750 0.662500 0.012500
0.825000 0.662500 0.012500
0.906250 0.662500 0.012500
0.987500 0.662500 0.012500
1.000000 0.662500 0.012500
1.000000 0.662500 0.012500
0.000000 0.743750 0.012500
0.000000 0.743750 0.012500
0.012500 0.743750 0.012500
0.093750 0.743750 0.012500
0.175000 0.743750 0.012500
0.256250 0.743750 0.012500
0.337500 0.743750 0.012500
0.418750 0.743750 0.012500
0.500000 0.743750 0.012500
0.581250 0.743750 0.012500
0.662500 0.743750 0.012500
0.743750 0.743750 0.012500
0.825000 0.743750 0.012500
0.906250 0.743750 0.012500
0.987500 0.743750 0.012500
1.000000 0.743750 0.012500
1.000000 0.743750 0.012500
0.000000 0.825000 0.012500
0.000000 0.825000 0.012500
0.012500 0.825000 0.012500
0.093750 0.825000 0.012500
0.175000 0.825000 0.012500
0.256250 0.825000 0.012500
0.337500 0.825000 0.012500
0.418750 0.825000 0.012500
0.500000 0.825000 0.012500
0.581250 0.825000 0.012500
0.662500 0.825000 0.012500
0.743750 0.825000 0.012500
0.825000 0.825000 0.012500
0.906250 0.825000 0.012500
0.987500 0.825000 0.012500
1.000000 0.825000 0.012500
1.000000 0.825000 0.012500
0.000000 0.906250 0.012500
0.000000 0.906250 0.012500
0.012500 0.906250 0.012500
0.093750 0.906250 0.012500
0.175000 0.906250 0.012500
0.256250 0.906250 0.012500
0.337500 0.906250 0.012500
0.418750 0.906250 0.012500
0.500000 0.906250 0.012500
0.581250 0.906250 0.012500
0.662500 0.906250 0.012500
0.743750 0.906250 0.012500
0.825000 0.906250 0.012500
0.906250 0.906250 0.012500
0.987500 0.906250 0.012500
1.000000 0.906250 0.012500
1.000000 0.906250 0.012500
0.000000 0.987500 0.012500
0.000000 0.987500 0.012500
0.012500 0.987500 0.012500
0.093750 0.987500 0.012500
0.175000 0.987500 0.012500
0.256250 0.987500 0.012500
0.337500 0.987500 0.012500
0.418750 0.987500 0.012500
0.500000 0.987500 0.012500
0.581250 0.987500 0.012500
0.662500 0.987500 0.012500
0.743750 0.987500 0.012500
0.825000 0.987500 0.012500
0.906250 0.987500 0.012500
0.987500 0.987500 0.012500
1.000000 0.987500 0.012500
1.000000 0.987500 0.012500
0.000000 1.000000 0.012500
0.000000 1.000000 0.012500
0.012500 1.000000 0.012500
0.093750 1.000000 0.012500
0.175000 1.000000 0.012500
0.256250 1.000000 0.012500
0.337500 1.000000 0.012500
0.418750 1.000000 0.012500
0.500000 1.000000 0.012500
0.581250 1.000000 0.012500
0.662500 1.000000 0.012500
0.743750 1.000000 0.012500
0.825000 1.000000 0.012500
0.906250 1.000000 0.012500
0.987500 1.000000 0.012500
1.000000 1.000000 0.012500
1.000000 1.000000 0.012500
0.000000 1.000000 0.012500
0.000000 1.000000 0.012500
0.012500 1.000000 0.012500
0.093750 1.000000 0.012500
0.175000 1.000000 0.012500
0.256250 1.000000 0.012500
0.337500 1.000000 0.012500
0.418750 1.000000 0.012500
0.500000 1.000000 0.012500
0.581250 1.000000 0.012500
0.662500 1.000000 0.012500
0.743750 1.000000 0.012500
0.825000 1.000000 0.012500
0.906250 1.000000 0.012500
0.987500 1.000000 0.012500
1.000000 1.000000 0.012500
1.000000 1.000000 0.012500
0.000000 0.000000 0.093750
0.000000 0.000000 0.093750
0.012500 0.000000 0.093750
0.093750 0.000000 0.093750
0.175000 0.000000 0.093750
0.256250 0.000000 0.093750
0.337500 0.000000 0.093750
0.418750 0.000000 0.093750
0.500000 0.000000 0.093750
0.581250 0.000000 0.093750
0.662500 0.000000 0.093750
0.743750 0.000000 0.093750
0.825000 0.000000 0.093750
0.906250 0.000000 0.093750
0.987500 0.000000 0.093750
1.000000 0.000000 0.093750
1.000000 0.000000 0.093750
0.000000 0.000000 0.093750
0.000000 0.000000 0.093750
0.012500 0.000000 0.093750
