public/luts/teal-orange.cube
TITLE "Teal / Orange"
LUT_3D_SIZE 5
0.000000 0.000000 0.110000
0.151693 0.000000 0.098307
0.413386 0.000000 0.086614
0.675079 0.000000 0.074921
0.936772 0.000000 0.063228
0.000000 0.239400 0.070664
0.191029 0.241154 0.058971
0.452722 0.242908 0.047278
0.714415 0.244662 0.035585
0.976108 0.246416 0.023892
0.000000 0.495301 0.031328
0.230365 0.497055 0.019635
0.492058 0.498809 0.007942
0.753751 0.500563 0.000000
1.000000 0.502317 0.000000
0.008008 0.751201 0.000000
0.269701 0.752955 0.000000
0.531394 0.754709 0.000000
0.793087 0.756463 0.000000
1.000000 0.758217 0.000000
0.047344 1.000000 0.000000
0.309037 1.000000 0.000000
0.570730 1.000000 0.000000
0.832423 1.000000 0.000000
1.000000 1.000000 0.000000
0.000000 0.000000 0.356029
0.155664 0.000000 0.344336
0.417357 0.000000 0.332643
0.679050 0.000000 0.320950
0.940743 0.000000 0.309257
0.000000 0.239996 0.316693
0.195000 0.241750 0.305000
0.456693 0.243504 0.293307
0.718386 0.245258 0.281614
0.980079 0.247012 0.269921
0.000000 0.495896 0.277357
0.234336 0.497650 0.265664
0.496029 0.499404 0.253971
0.757722 0.501158 0.242278
1.000000 0.502912 0.230585
0.011979 0.751797 0.238021
0.273672 0.753551 0.226328
0.535365 0.755305 0.214635
0.797058 0.757059 0.202942
1.000000 0.758813 0.191249
0.051315 1.000000 0.198685
0.313008 1.000000 0.186992
0.574701 1.000000 0.175299
0.836394 1.000000 0.163606
1.000000 1.000000 0.151913
0.000000 0.000000 0.602058
0.159635 0.000000 0.590365
0.421328 0.000000 0.578672
0.683021 0.000000 0.566979
0.944714 0.000000 0.555286
0.000000 0.240592 0.562722
0.198971 0.242346 0.551029
0.460664 0.244100 0.539336
0.722357 0.245854 0.527643
0.984050 0.247608 0.515950
0.000000 0.496492 0.523386
0.238307 0.498246 0.511693
0.500000 0.500000 0.500000
0.761693 0.501754 0.488307
1.000000 0.503508 0.476614
0.015950 0.752393 0.484050
0.277643 0.754146 0.472357
0.539336 0.755900 0.460664
0.801029 0.757654 0.448971
1.000000 0.759408 0.437278
0.055286 1.000000 0.444714
0.316979 1.000000 0.433021
0.578672 1.000000 0.421328
0.840365 1.000000 0.409635
1.000000 1.000000 0.397942
0.000000 0.000000 0.848087
0.163606 0.000000 0.836394
0.425299 0.000000 0.824701
0.686992 0.000000 0.813008
0.948685 0.000000 0.801315
0.000000 0.241187 0.808751
0.202942 0.242941 0.797058
0.464635 0.244695 0.785365
0.726328 0.246449 0.773672
0.988021 0.248203 0.761979
0.000000 0.497088 0.769415
0.242278 0.498842 0.757722
0.503971 0.500596 0.746029
0.765664 0.502350 0.734336
1.000000 0.504104 0.722643
0.019921 0.752988 0.730079
0.281614 0.754742 0.718386
0.543307 0.756496 0.706693
0.805000 0.758250 0.695000
1.000000 0.760004 0.683307
0.059257 1.000000 0.690743
0.320950 1.000000 0.679050
0.582643 1.000000 0.667357
0.844336 1.000000 0.655664
1.000000 1.000000 0.643971
0.000000 0.000000 1.000000
0.167577 0.000000 1.000000
0.429270 0.000000 1.000000
0.690963 0.000000 1.000000
0.952656 0.000000 1.000000
0.000000 0.241783 1.000000
0.206913 0.243537 1.000000
0.468606 0.245291 1.000000
0.730299 0.247045 1.000000
0.991992 0.248799 1.000000
0.000000 0.497683 1.000000
0.246249 0.499437 1.000000
0.507942 0.501191 0.992058
0.769635 0.502945 0.980365
1.000000 0.504699 0.968672
0.023892 0.753584 0.976108
0.285585 0.755338 0.964415
0.547278 0.757092 0.952722
0.808971 0.758846 0.941029
1.000000 0.760600 0.929336
0.063228 1.000000 0.936772
0.324921 1.000000 0.925079
0.586614 1.000000 0.913386
0.848307 1.000000 0.901693
1.000000 1.000000 0.890000
