public/luts/teal-orange.cube
TITLE "Teal / Orange"
LUT_3D_SIZE 17
0.000000 0.000000 0.110000
0.000000 0.000000 0.107077
0.020847 0.000000 0.104153
0.086270 0.000000 0.101230
0.151693 0.000000 0.098307
0.217116 0.000000 0.095384
0.282539 0.000000 0.092461
0.347963 0.000000 0.089537
0.413386 0.000000 0.086614
0.478809 0.000000 0.083691
0.544233 0.000000 0.080767
0.609656 0.000000 0.077844
0.675079 0.000000 0.074921
0.740502 0.000000 0.071998
0.805925 0.000000 0.069074
0.871349 0.000000 0.066151
0.936772 0.000000 0.063228
0.000000 0.047475 0.100166
0.000000 0.047914 0.097243
0.030680 0.048352 0.094320
0.096104 0.048791 0.091396
0.161527 0.049229 0.088473
0.226950 0.049668 0.085550
0.292374 0.050106 0.082627
0.357797 0.050545 0.079703
0.423220 0.050983 0.076780
0.488643 0.051421 0.073857
0.554067 0.051860 0.070933
0.619490 0.052298 0.068010
0.684913 0.052737 0.065087
0.750336 0.053175 0.062164
0.815759 0.053614 0.059241
0.881183 0.054052 0.056317
0.946606 0.054491 0.053394
0.000000 0.111450 0.090332
0.000000 0.111889 0.087409
0.040514 0.112327 0.084486
0.105938 0.112766 0.081562
0.171361 0.113204 0.078639
0.236784 0.113643 0.075716
0.302207 0.114081 0.072793
0.367631 0.114520 0.069869
0.433054 0.114958 0.066946
0.498477 0.115397 0.064023
0.563901 0.115835 0.061100
0.629324 0.116274 0.058176
0.694747 0.116712 0.055253
0.760170 0.117151 0.052330
0.825593 0.117589 0.049407
0.891017 0.118028 0.046483
0.956440 0.118466 0.043560
0.000000 0.175425 0.080498
0.000000 0.175864 0.077575
0.050349 0.176302 0.074651
0.115772 0.176741 0.071728
0.181195 0.177179 0.068805
0.246618 0.177618 0.065882
0.312041 0.178056 0.062959
0.377465 0.178495 0.060035
0.442888 0.178933 0.057112
0.508311 0.179372 0.054189
0.573735 0.179810 0.051265
0.639158 0.180249 0.048342
0.704581 0.180687 0.045419
0.770004 0.181126 0.042496
0.835427 0.181564 0.039573
0.900851 0.182003 0.036649
0.966274 0.182441 0.033726
0.000000 0.239400 0.070664
0.000000 0.239839 0.067741
0.060182 0.240277 0.064818
0.125606 0.240716 0.061894
0.191029 0.241154 0.058971
0.256452 0.241593 0.056048
0.321875 0.242031 0.053124
0.387299 0.242470 0.050201
0.452722 0.242908 0.047278
0.518145 0.243347 0.044355
0.583569 0.243785 0.041431
0.648992 0.244224 0.038508
0.714415 0.244662 0.035585
0.779838 0.245101 0.032662
0.845261 0.245539 0.029739
0.910685 0.245978 0.026815
0.976108 0.246416 0.023892
0.000000 0.303376 0.060830
0.004593 0.303814 0.057907
0.070016 0.304252 0.054984
0.135440 0.304691 0.052060
0.200863 0.305129 0.049137
0.266286 0.305568 0.046214
0.331709 0.306006 0.043291
0.397133 0.306445 0.040367
0.462556 0.306883 0.037444
0.527979 0.307322 0.034521
0.593403 0.307760 0.031598
0.658826 0.308199 0.028674
0.724249 0.308637 0.025751
0.789672 0.309076 0.022828
0.855096 0.309514 0.019905
0.920519 0.309953 0.016981
0.985942 0.310391 0.014058
0.000000 0.367351 0.050996
0.014427 0.367789 0.048073
0.079851 0.368228 0.045149
0.145274 0.368666 0.042226
0.210697 0.369105 0.039303
0.276120 0.369543 0.036380
0.341543 0.369982 0.033457
0.406967 0.370420 0.030533
0.472390 0.370858 0.027610
0.537813 0.371297 0.024687
0.603236 0.371735 0.021763
0.668660 0.372174 0.018840
0.734083 0.372612 0.015917
0.799506 0.373051 0.012994
0.864930 0.373489 0.010071
0.930353 0.373928 0.007147
0.995776 0.374366 0.004224
0.000000 0.431326 0.041162
0.024261 0.431764 0.038239
0.089685 0.432203 0.035316
0.155108 0.432641 0.032392
0.220531 0.433080 0.029469
0.285954 0.433518 0.026546
0.351378 0.433957 0.023623
0.416801 0.434395 0.020699
0.482224 0.434834 0.017776
0.547647 0.435272 0.014853
0.613070 0.435711 0.011930
0.678494 0.436149 0.009006
0.743917 0.436588 0.006083
0.809340 0.437026 0.003160
0.874764 0.437465 0.000237
0.940187 0.437903 0.000000
1.000000 0.438341 0.000000
0.000000 0.495301 0.031328
0.034095 0.495739 0.028405
0.099518 0.496178 0.025482
0.164942 0.496616 0.022558
0.230365 0.497055 0.019635
0.295788 0.497493 0.016712
0.361212 0.497932 0.013789
0.426635 0.498370 0.010865
0.492058 0.498809 0.007942
0.557481 0.499247 0.005019
0.622904 0.499686 0.002096
0.688328 0.500124 0.000000
0.753751 0.500563 0.000000
0.819174 0.501001 0.000000
0.884598 0.501440 0.000000
0.950021 0.501878 0.000000
1.000000 0.502317 0.000000
0.000000 0.559276 0.021494
0.043929 0.559714 0.018571
0.109353 0.560153 0.015647
0.174776 0.560591 0.012724
0.240199 0.561030 0.009801
0.305622 0.561468 0.006878
0.371045 0.561907 0.003955
0.436469 0.562345 0.001031
0.501892 0.562784 0.000000
0.567315 0.563222 0.000000
0.632738 0.563661 0.000000
0.698162 0.564099 0.000000
0.763585 0.564538 0.000000
0.829008 0.564976 0.000000
0.894432 0.565415 0.000000
0.959855 0.565853 0.000000
1.000000 0.566292 0.000000
0.000000 0.623251 0.011660
0.053763 0.623689 0.008737
0.119186 0.624128 0.005814
0.184610 0.624566 0.002890
0.250033 0.625005 0.000000
0.315456 0.625443 0.000000
0.380879 0.625882 0.000000
0.446303 0.626320 0.000000
0.511726 0.626759 0.000000
0.577149 0.627197 0.000000
0.642572 0.627636 0.000000
0.707996 0.628074 0.000000
0.773419 0.628513 0.000000
0.838842 0.628951 0.000000
0.904265 0.629390 0.000000
0.969689 0.629828 0.000000
1.000000 0.630267 0.000000
0.000000 0.687226 0.001826
0.063597 0.687665 0.000000
0.129020 0.688103 0.000000
0.194444 0.688542 0.000000
0.259867 0.688980 0.000000
0.325290 0.689419 0.000000
0.390713 0.689857 0.000000
0.456137 0.690296 0.000000
0.521560 0.690734 0.000000
0.586983 0.691172 0.000000
0.652407 0.691611 0.000000
0.717830 0.692049 0.000000
0.783253 0.692488 0.000000
0.848676 0.692926 0.000000
0.914099 0.693365 0.000000
0.979523 0.693803 0.000000
1.000000 0.694242 0.000000
0.008008 0.751201 0.000000
0.073431 0.751640 0.000000
0.138854 0.752078 0.000000
0.204278 0.752517 0.000000
0.269701 0.752955 0.000000
0.335124 0.753394 0.000000
0.400548 0.753832 0.000000
0.465971 0.754271 0.000000
0.531394 0.754709 0.000000
0.596817 0.755148 0.000000
0.662241 0.755586 0.000000
0.727664 0.756025 0.000000
0.793087 0.756463 0.000000
0.858510 0.756902 0.000000
0.923933 0.757340 0.000000
0.989357 0.757779 0.000000
1.000000 0.758217 0.000000
0.017842 0.815176 0.000000
0.083265 0.815615 0.000000
0.148689 0.816053 0.000000
0.214112 0.816492 0.000000
0.279535 0.816930 0.000000
0.344958 0.817369 0.000000
0.410382 0.817807 0.000000
0.475805 0.818246 0.000000
0.541228 0.818684 0.000000
0.606651 0.819123 0.000000
0.672075 0.819561 0.000000
0.737498 0.820000 0.000000
0.802921 0.820438 0.000000
0.868344 0.820877 0.000000
0.933767 0.821315 0.000000
0.999191 0.821754 0.000000
1.000000 0.822192 0.000000
0.027676 0.879151 0.000000
0.093099 0.879590 0.000000
0.158522 0.880028 0.000000
0.223946 0.880467 0.000000
0.289369 0.880905 0.000000
0.354792 0.881344 0.000000
0.420215 0.881782 0.000000
0.485639 0.882221 0.000000
0.551062 0.882659 0.000000
0.616485 0.883098 0.000000
0.681909 0.883536 0.000000
0.747332 0.883975 0.000000
0.812755 0.884413 0.000000
0.878178 0.884852 0.000000
0.943601 0.885290 0.000000
1.000000 0.885729 0.000000
1.000000 0.886167 0.000000
0.037510 0.943126 0.000000
0.102933 0.943565 0.000000
0.168356 0.944003 0.000000
0.233780 0.944442 0.000000
0.299203 0.944880 0.000000
0.364626 0.945319 0.000000
0.430050 0.945757 0.000000
0.495473 0.946196 0.000000
0.560896 0.946634 0.000000
0.626319 0.947073 0.000000
0.691743 0.947511 0.000000
0.757166 0.947950 0.000000
0.822589 0.948388 0.000000
0.888012 0.948827 0.000000
0.953435 0.949265 0.000000
1.000000 0.949704 0.000000
1.000000 0.950142 0.000000
0.047344 1.000000 0.000000
0.112767 1.000000 0.000000
0.178191 1.000000 0.000000
0.243614 1.000000 0.000000
0.309037 1.000000 0.000000
0.374460 1.000000 0.000000
0.439883 1.000000 0.000000
0.505307 1.000000 0.000000
0.570730 1.000000 0.000000
0.636153 1.000000 0.000000
0.701576 1.000000 0.000000
0.767000 1.000000 0.000000
0.832423 1.000000 0.000000
0.897846 1.000000 0.000000
0.963270 1.000000 0.000000
1.000000 1.000000 0.000000
1.000000 1.000000 0.000000
0.000000 0.000000 0.171507
0.000000 0.000000 0.168584
0.021839 0.000000 0.165661
0.087262 0.000000 0.162738
0.152686 0.000000 0.159814
0.218109 0.000000 0.156891
0.283532 0.000000 0.153968
0.348955 0.000000 0.151045
0.414379 0.000000 0.148121
0.479802 0.000000 0.145198
0.545225 0.000000 0.142275
0.610649 0.000000 0.139352
0.676072 0.000000 0.136428
0.741495 0.000000 0.133505
0.806918 0.000000 0.130582
0.872341 0.000000 0.127659
0.937765 0.000000 0.124735
0.000000 0.047624 0.161673
0.000000 0.048063 0.158750
0.031673 0.048501 0.155827
0.097097 0.048939 0.152903
0.162520 0.049378 0.149980
0.227943 0.049816 0.147057
0.293366 0.050255 0.144134
0.358789 0.050693 0.141211
0.424213 0.051132 0.138287
0.489636 0.051570 0.135364
0.555059 0.052009 0.132441
0.620483 0.052447 0.129518
0.685906 0.052886 0.126594
0.751329 0.053324 0.123671
0.816752 0.053763 0.120748
0.882176 0.054201 0.117824
0.947599 0.054640 0.114901
0.000000 0.111599 0.151839
0.000000 0.112038 0.148916
0.041507 0.112476 0.145993
0.106930 0.112915 0.143070
0.172354 0.113353 0.140146
0.237777 0.113792 0.137223
0.303200 0.114230 0.134300
0.368623 0.114669 0.131377
0.434047 0.115107 0.128453
0.499470 0.115545 0.125530
0.564893 0.115984 0.122607
0.630317 0.116422 0.119683
0.695740 0.116861 0.116760
0.761163 0.117299 0.113837
0.826586 0.117738 0.110914
0.892010 0.118176 0.107991
0.957433 0.118615 0.105067
0.000000 0.175574 0.142005
0.000000 0.176013 0.139082
0.051341 0.176451 0.136159
0.116764 0.176890 0.133236
0.182188 0.177328 0.130312
0.247611 0.177767 0.127389
0.313034 0.178205 0.124466
0.378458 0.178644 0.121542
0.443881 0.179082 0.118619
0.509304 0.179521 0.115696
0.574727 0.179959 0.112773
0.640150 0.180398 0.109850
0.705574 0.180836 0.106926
0.770997 0.181275 0.104003
0.836420 0.181713 0.101080
0.901844 0.182152 0.098157
0.967267 0.182590 0.095233
0.000000 0.239549 0.132171
0.000000 0.239988 0.129248
0.061175 0.240426 0.126325
0.126599 0.240865 0.123401
0.192022 0.241303 0.120478
0.257445 0.241742 0.117555
0.322868 0.242180 0.114632
0.388292 0.242619 0.111709
0.453715 0.243057 0.108785
0.519138 0.243496 0.105862
0.584561 0.243934 0.102939
0.649984 0.244373 0.100016
0.715408 0.244811 0.097092
0.780831 0.245250 0.094169
0.846254 0.245688 0.091246
0.911678 0.246127 0.088323
0.977101 0.246565 0.085399
0.000000 0.303524 0.122337
0.005586 0.303963 0.119414
0.071009 0.304401 0.116491
0.136432 0.304840 0.113568
0.201856 0.305278 0.110644
0.267279 0.305717 0.107721
0.332702 0.306155 0.104798
0.398125 0.306594 0.101875
0.463549 0.307032 0.098951
0.528972 0.307471 0.096028
0.594395 0.307909 0.093105
0.659818 0.308348 0.090181
0.725242 0.308786 0.087258
0.790665 0.309225 0.084335
0.856088 0.309663 0.081412
0.921512 0.310102 0.078489
0.986935 0.310540 0.075565
0.000000 0.367500 0.112503
0.015420 0.367938 0.109580
0.080843 0.368376 0.106657
0.146266 0.368815 0.103734
0.211690 0.369253 0.100810
0.277113 0.369692 0.097887
0.342536 0.370130 0.094964
0.407959 0.370569 0.092041
0.473383 0.371007 0.089117
0.538806 0.371446 0.086194
0.604229 0.371884 0.083271
0.669652 0.372323 0.080348
0.735076 0.372761 0.077424
0.800499 0.373200 0.074501
0.865922 0.373638 0.071578
0.931346 0.374077 0.068655
0.996769 0.374515 0.065731
0.000000 0.431475 0.102669
0.025254 0.431913 0.099746
0.090677 0.432352 0.096823
0.156100 0.432790 0.093900
0.221524 0.433229 0.090976
0.286947 0.433667 0.088053
0.352370 0.434106 0.085130
0.417793 0.434544 0.082207
0.483217 0.434983 0.079283
0.548640 0.435421 0.076360
0.614063 0.435859 0.073437
0.679486 0.436298 0.070514
0.744910 0.436736 0.067590
0.810333 0.437175 0.064667
0.875756 0.437613 0.061744
0.941179 0.438052 0.058821
1.000000 0.438490 0.055897
0.000000 0.495450 0.092835
0.035088 0.495888 0.089912
0.100511 0.496327 0.086989
0.165934 0.496765 0.084066
0.231358 0.497204 0.081142
0.296781 0.497642 0.078219
0.362204 0.498081 0.075296
0.427627 0.498519 0.072373
0.493051 0.498958 0.069449
0.558474 0.499396 0.066526
0.623897 0.499835 0.063603
0.689321 0.500273 0.060679
0.754744 0.500712 0.057756
0.820167 0.501150 0.054833
0.885590 0.501589 0.051910
0.951013 0.502027 0.048987
1.000000 0.502466 0.046063
0.000000 0.559425 0.083001
0.044922 0.559863 0.080078
0.110345 0.560302 0.077155
0.175768 0.560740 0.074232
0.241192 0.561179 0.071308
0.306615 0.561617 0.068385
0.372038 0.562056 0.065462
0.437462 0.562494 0.062539
0.502885 0.562933 0.059615
0.568308 0.563371 0.056692
0.633731 0.563810 0.053769
0.699155 0.564248 0.050846
0.764578 0.564687 0.047922
0.830001 0.565125 0.044999
0.895424 0.565564 0.042076
0.960847 0.566002 0.039152
1.000000 0.566441 0.036229
0.000000 0.623400 0.073167
0.054756 0.623838 0.070244
0.120179 0.624277 0.067321
0.185602 0.624715 0.064398
0.251026 0.625154 0.061474
0.316449 0.625592 0.058551
0.381872 0.626031 0.055628
0.447296 0.626469 0.052704
0.512719 0.626908 0.049781
0.578142 0.627346 0.046858
0.643565 0.627785 0.043935
0.708989 0.628223 0.041012
0.774412 0.628662 0.038088
0.839835 0.629100 0.035165
0.905258 0.629539 0.032242
0.970681 0.629977 0.029319
1.000000 0.630416 0.026395
0.000000 0.687375 0.063333
0.064590 0.687813 0.060410
0.130013 0.688252 0.057487
0.195436 0.688690 0.054564
0.260860 0.689129 0.051640
0.326283 0.689567 0.048717
0.391706 0.690006 0.045794
0.457130 0.690444 0.042870
0.522553 0.690883 0.039947
0.587976 0.691321 0.037024
0.653399 0.691760 0.034101
0.718823 0.692198 0.031177
0.784246 0.692637 0.028254
0.849669 0.693075 0.025331
0.915092 0.693514 0.022408
0.980515 0.693952 0.019484
1.000000 0.694391 0.016561
0.009001 0.751350 0.053499
0.074424 0.751789 0.050576
0.139847 0.752227 0.047653
0.205271 0.752666 0.044729
0.270694 0.753104 0.041806
0.336117 0.753543 0.038883
0.401540 0.753981 0.035960
0.466963 0.754420 0.033037
0.532387 0.754858 0.030113
0.597810 0.755297 0.027190
0.663233 0.755735 0.024267
0.728657 0.756173 0.021344
0.794080 0.756612 0.018420
0.859503 0.757050 0.015497
0.924926 0.757489 0.012574
0.990349 0.757927 0.009650
1.000000 0.758366 0.006727
0.018835 0.815325 0.043665
0.084258 0.815764 0.040742
0.149681 0.816202 0.037819
0.215105 0.816641 0.034895
0.280528 0.817079 0.031972
0.345951 0.817518 0.029049
0.411374 0.817956 0.026126
0.476797 0.818395 0.023203
0.542221 0.818833 0.020279
0.607644 0.819272 0.017356
0.673067 0.819710 0.014433
0.738490 0.820149 0.011510
0.803914 0.820587 0.008586
0.869337 0.821026 0.005663
0.934760 0.821464 0.002740
1.000000 0.821903 0.000000
1.000000 0.822341 0.000000
0.028669 0.879300 0.033831
0.094092 0.879739 0.030908
0.159515 0.880177 0.027985
0.224938 0.880616 0.025062
0.290362 0.881054 0.022138
0.355785 0.881493 0.019215
0.421208 0.881931 0.016292
0.486631 0.882370 0.013369
0.552055 0.882808 0.010445
0.617478 0.883247 0.007522
0.682901 0.883685 0.004599
0.748324 0.884124 0.001676
0.813748 0.884562 0.000000
0.879171 0.885001 0.000000
0.944594 0.885439 0.000000
1.000000 0.885878 0.000000
1.000000 0.886316 0.000000
0.038503 0.943275 0.023997
0.103926 0.943714 0.021074
0.169349 0.944152 0.018151
0.234772 0.944591 0.015227
0.300196 0.945029 0.012304
0.365619 0.945468 0.009381
0.431042 0.945906 0.006458
0.496466 0.946345 0.003534
0.561889 0.946783 0.000611
0.627312 0.947222 0.000000
0.692735 0.947660 0.000000
0.758158 0.948099 0.000000
0.823582 0.948537 0.000000
0.889005 0.948976 0.000000
0.954428 0.949414 0.000000
1.000000 0.949853 0.000000
1.000000 0.950291 0.000000
0.048337 1.000000 0.014163
0.113760 1.000000 0.011240
0.179183 1.000000 0.008317
0.244607 1.000000 0.005394
0.310030 1.000000 0.002470
0.375453 1.000000 0.000000
0.440876 1.000000 0.000000
0.506300 1.000000 0.000000
0.571723 1.000000 0.000000
0.637146 1.000000 0.000000
0.702569 1.000000 0.000000
0.767992 1.000000 0.000000
0.833416 1.000000 0.000000
0.898839 1.000000 0.000000
0.964262 1.000000 0.000000
1.000000 1.000000 0.000000
1.000000 1.000000 0.000000
0.000000 0.000000 0.233015
0.000000 0.000000 0.230091
0.022832 0.000000 0.227168
0.088255 0.000000 0.224245
0.153678 0.000000 0.221322
0.219102 0.000000 0.218398
0.284525 0.000000 0.215475
0.349948 0.000000 0.212552
0.415372 0.000000 0.209628
0.480795 0.000000 0.206705
0.546218 0.000000 0.203782
0.611641 0.000000 0.200859
0.677064 0.000000 0.197935
0.742488 0.000000 0.195012
0.807911 0.000000 0.192089
0.873334 0.000000 0.189166
0.938758 0.000000 0.186243
0.000000 0.047773 0.223181
0.000000 0.048211 0.220257
0.032666 0.048650 0.217334
0.098089 0.049088 0.214411
0.163513 0.049527 0.211487
0.228936 0.049965 0.208564
0.294359 0.050404 0.205641
0.359782 0.050842 0.202718
0.425206 0.051281 0.199794
0.490629 0.051719 0.196871
0.556052 0.052158 0.193948
0.621475 0.052596 0.191025
0.686898 0.053035 0.188102
0.752322 0.053473 0.185178
0.817745 0.053912 0.182255
0.883168 0.054350 0.179332
0.948592 0.054789 0.176408
0.000000 0.111748 0.213346
0.000000 0.112187 0.210423
0.042500 0.112625 0.207500
0.107923 0.113063 0.204577
0.173347 0.113502 0.201653
0.238770 0.113940 0.198730
0.304193 0.114379 0.195807
0.369616 0.114817 0.192884
0.435040 0.115256 0.189961
0.500463 0.115694 0.187037
0.565886 0.116133 0.184114
0.631309 0.116571 0.181191
0.696732 0.117010 0.178267
0.762156 0.117448 0.175344
0.827579 0.117887 0.172421
0.893002 0.118325 0.169498
0.958426 0.118764 0.166575
0.000000 0.175723 0.203512
0.000000 0.176162 0.200589
0.052334 0.176600 0.197666
0.117757 0.177039 0.194743
0.183180 0.177477 0.191820
0.248604 0.177916 0.188896
0.314027 0.178354 0.185973
0.379450 0.178793 0.183050
0.444873 0.179231 0.180126
0.510297 0.179670 0.177203
0.575720 0.180108 0.174280
0.641143 0.180546 0.171357
0.706566 0.180985 0.168434
0.771990 0.181423 0.165510
0.837413 0.181862 0.162587
0.902836 0.182300 0.159664
0.968260 0.182739 0.156741
0.000000 0.239698 0.193678
0.000000 0.240137 0.190755
0.062168 0.240575 0.187832
0.127591 0.241014 0.184909
0.193015 0.241452 0.181985
0.258438 0.241891 0.179062
0.323861 0.242329 0.176139
0.389284 0.242768 0.173216
0.454707 0.243206 0.170292
0.520131 0.243645 0.167369
0.585554 0.244083 0.164446
0.650977 0.244522 0.161523
0.716400 0.244960 0.158600
0.781824 0.245399 0.155676
0.847247 0.245837 0.152753
0.912670 0.246276 0.149830
0.978093 0.246714 0.146906
0.000000 0.303673 0.183844
0.006579 0.304112 0.180921
0.072002 0.304550 0.177998
0.137425 0.304989 0.175075
0.202848 0.305427 0.172152
0.268272 0.305866 0.169228
0.333695 0.306304 0.166305
0.399118 0.306743 0.163382
0.464541 0.307181 0.160459
0.529965 0.307620 0.157535
0.595388 0.308058 0.154612
0.660811 0.308497 0.151689
0.726235 0.308935 0.148765
0.791658 0.309374 0.145842
0.857081 0.309812 0.142919
0.922504 0.310251 0.139996
0.987927 0.310689 0.137073
0.000000 0.367648 0.174011
0.016413 0.368087 0.171087
0.081836 0.368525 0.168164
0.147259 0.368964 0.165241
0.212682 0.369402 0.162318
0.278106 0.369841 0.159394
0.343529 0.370279 0.156471
0.408952 0.370718 0.153548
0.474376 0.371156 0.150624
0.539799 0.371595 0.147701
0.605222 0.372033 0.144778
0.670645 0.372472 0.141855
0.736069 0.372910 0.138932
0.801492 0.373349 0.136008
0.866915 0.373787 0.133085
0.932338 0.374226 0.130162
0.997761 0.374664 0.127239
0.000000 0.431624 0.164177
0.026247 0.432062 0.161253
0.091670 0.432501 0.158330
0.157093 0.432939 0.155407
0.222517 0.433377 0.152483
0.287940 0.433816 0.149560
0.353363 0.434254 0.146637
0.418786 0.434693 0.143714
0.484210 0.435131 0.140791
0.549633 0.435570 0.137867
0.615056 0.436008 0.134944
0.680479 0.436447 0.132021
0.745903 0.436885 0.129098
0.811326 0.437324 0.126174
0.876749 0.437762 0.123251
0.942172 0.438201 0.120328
1.000000 0.438639 0.117405
0.000000 0.495599 0.154342
0.036081 0.496037 0.151419
0.101504 0.496476 0.148496
0.166927 0.496914 0.145573
0.232350 0.497353 0.142650
0.297774 0.497791 0.139726
0.363197 0.498230 0.136803
0.428620 0.498668 0.133880
0.494043 0.499107 0.130957
0.559467 0.499545 0.128033
0.624890 0.499984 0.125110
0.690313 0.500422 0.122187
0.755737 0.500860 0.119264
0.821160 0.501299 0.116340
0.886583 0.501737 0.113417
0.952006 0.502176 0.110494
1.000000 0.502614 0.107570
0.000000 0.559574 0.144509
0.045915 0.560012 0.141585
0.111338 0.560451 0.138662
0.176761 0.560889 0.135739
0.242184 0.561328 0.132816
0.307608 0.561766 0.129892
0.373031 0.562205 0.126969
0.438454 0.562643 0.124046
0.503877 0.563082 0.121123
0.569301 0.563520 0.118199
0.634724 0.563959 0.115276
0.700147 0.564397 0.112353
0.765570 0.564836 0.109430
0.830994 0.565274 0.106506
0.896417 0.565713 0.103583
0.961840 0.566151 0.100660
1.000000 0.566590 0.097737
0.000000 0.623549 0.134675
0.055749 0.623987 0.131751
0.121172 0.624426 0.128828
0.186595 0.624864 0.125905
0.252018 0.625303 0.122982
0.317442 0.625741 0.120058
0.382865 0.626180 0.117135
0.448288 0.626618 0.114212
0.513711 0.627057 0.111289
0.579135 0.627495 0.108365
0.644558 0.627934 0.105442
0.709981 0.628372 0.102519
0.775404 0.628811 0.099596
0.840828 0.629249 0.096672
0.906251 0.629688 0.093749
0.971674 0.630126 0.090826
1.000000 0.630565 0.087903
0.000159 0.687524 0.124841
0.065583 0.687962 0.121917
0.131006 0.688401 0.118994
0.196429 0.688839 0.116071
0.261852 0.689278 0.113148
0.327276 0.689716 0.110224
0.392699 0.690155 0.107301
0.458122 0.690593 0.104378
0.523545 0.691032 0.101455
0.588969 0.691470 0.098531
0.654392 0.691909 0.095608
0.719815 0.692347 0.092685
0.785238 0.692786 0.089762
0.850662 0.693224 0.086838
0.916085 0.693663 0.083915
0.981508 0.694101 0.080992
1.000000 0.694540 0.078069
0.009993 0.751499 0.115007
0.075417 0.751938 0.112083
0.140840 0.752376 0.109160
0.206263 0.752814 0.106237
0.271686 0.753253 0.103314
0.337110 0.753691 0.100390
0.402533 0.754130 0.097467
0.467956 0.754568 0.094544
0.533380 0.755007 0.091620
0.598803 0.755445 0.088697
0.664226 0.755884 0.085774
0.729649 0.756322 0.082851
0.795072 0.756761 0.079928
0.860496 0.757199 0.077004
0.925919 0.757638 0.074081
0.991342 0.758076 0.071158
1.000000 0.758515 0.068235
0.019827 0.815474 0.105173
0.085251 0.815913 0.102249
0.150674 0.816351 0.099326
0.216097 0.816790 0.096403
0.281521 0.817228 0.093480
0.346944 0.817667 0.090556
0.412367 0.818105 0.087633
0.477790 0.818544 0.084710
0.543214 0.818982 0.081787
0.608637 0.819421 0.078863
0.674060 0.819859 0.075940
0.739483 0.820297 0.073017
0.804906 0.820736 0.070094
0.870330 0.821174 0.067170
0.935753 0.821613 0.064247
1.000000 0.822051 0.061324
1.000000 0.822490 0.058401
0.029661 0.879449 0.095339
0.095085 0.879888 0.092415
0.160508 0.880326 0.089492
0.225931 0.880765 0.086569
0.291354 0.881203 0.083646
0.356778 0.881642 0.080722
0.422201 0.882080 0.077799
0.487624 0.882519 0.074876
0.553048 0.882957 0.071953
0.618471 0.883396 0.069029
0.683894 0.883834 0.066106
0.749317 0.884273 0.063183
0.814740 0.884711 0.060260
0.880164 0.885150 0.057336
0.945587 0.885588 0.054413
1.000000 0.886027 0.051490
1.000000 0.886465 0.048567
0.039495 0.943424 0.085505
0.104919 0.943863 0.082581
0.170342 0.944301 0.079658
0.235765 0.944740 0.076735
0.301188 0.945178 0.073812
0.366612 0.945617 0.070888
0.432035 0.946055 0.067965
0.497458 0.946494 0.065042
0.562882 0.946932 0.062119
0.628305 0.947371 0.059195
0.693728 0.947809 0.056272
0.759151 0.948248 0.053349
0.824574 0.948686 0.050426
0.889998 0.949125 0.047502
0.955421 0.949563 0.044579
1.000000 0.950002 0.041656
1.000000 0.950440 0.038733
0.049329 1.000000 0.075671
0.114753 1.000000 0.072747
0.180176 1.000000 0.069824
0.245599 1.000000 0.066901
0.311022 1.000000 0.063978
0.376446 1.000000 0.061054
0.441869 1.000000 0.058131
0.507292 1.000000 0.055208
0.572715 1.000000 0.052285
0.638139 1.000000 0.049361
0.703562 1.000000 0.046438
0.768985 1.000000 0.043515
0.834408 1.000000 0.040592
0.899832 1.000000 0.037668
0.965255 1.000000 0.034745
1.000000 1.000000 0.031822
1.000000 1.000000 0.028899
0.000000 0.000000 0.294522
0.000000 0.000000 0.291598
0.023825 0.000000 0.288675
0.089248 0.000000 0.285752
0.154671 0.000000 0.282829
0.220094 0.000000 0.279906
0.285518 0.000000 0.276982
0.350941 0.000000 0.274059
0.416364 0.000000 0.271136
0.481788 0.000000 0.268212
0.547211 0.000000 0.265289
0.612634 0.000000 0.262366
0.678057 0.000000 0.259443
0.743480 0.000000 0.256520
0.808904 0.000000 0.253596
0.874327 0.000000 0.250673
0.939750 0.000000 0.247750
0.000000 0.047922 0.284688
0.000000 0.048360 0.281764
0.033659 0.048799 0.278841
