public/luts/teal-orange.cube
TITLE "Teal / Orange"
LUT_3D_SIZE 9
0.000000 0.000000 0.110000
0.020847 0.000000 0.104153
0.151693 0.000000 0.098307
0.282539 0.000000 0.092461
0.413386 0.000000 0.086614
0.544233 0.000000 0.080767
0.675079 0.000000 0.074921
0.805925 0.000000 0.069074
0.936772 0.000000 0.063228
0.000000 0.111450 0.090332
0.040514 0.112327 0.084486
0.171361 0.113204 0.078639
0.302207 0.114081 0.072793
0.433054 0.114958 0.066946
0.563901 0.115835 0.061100
0.694747 0.116712 0.055253
0.825593 0.117589 0.049407
0.956440 0.118466 0.043560
0.000000 0.239400 0.070664
0.060182 0.240277 0.064818
0.191029 0.241154 0.058971
0.321875 0.242031 0.053124
0.452722 0.242908 0.047278
0.583569 0.243785 0.041431
0.714415 0.244662 0.035585
0.845261 0.245539 0.029739
0.976108 0.246416 0.023892
0.000000 0.367351 0.050996
0.079851 0.368228 0.045149
0.210697 0.369105 0.039303
0.341543 0.369982 0.033457
0.472390 0.370858 0.027610
0.603236 0.371735 0.021763
0.734083 0.372612 0.015917
0.864930 0.373489 0.010071
0.995776 0.374366 0.004224
0.000000 0.495301 0.031328
0.099518 0.496178 0.025482
0.230365 0.497055 0.019635
0.361212 0.497932 0.013789
0.492058 0.498809 0.007942
0.622904 0.499686 0.002096
0.753751 0.500563 0.000000
0.884598 0.501440 0.000000
1.000000 0.502317 0.000000
0.000000 0.623251 0.011660
0.119186 0.624128 0.005814
0.250033 0.625005 0.000000
0.380879 0.625882 0.000000
0.511726 0.626759 0.000000
0.642572 0.627636 0.000000
0.773419 0.628513 0.000000
0.904265 0.629390 0.000000
1.000000 0.630267 0.000000
0.008008 0.751201 0.000000
0.138854 0.752078 0.000000
0.269701 0.752955 0.000000
0.400548 0.753832 0.000000
0.531394 0.754709 0.000000
0.662241 0.755586 0.000000
0.793087 0.756463 0.000000
0.923933 0.757340 0.000000
1.000000 0.758217 0.000000
0.027676 0.879151 0.000000
0.158522 0.880028 0.000000
0.289369 0.880905 0.000000
0.420215 0.881782 0.000000
0.551062 0.882659 0.000000
0.681909 0.883536 0.000000
0.812755 0.884413 0.000000
0.943601 0.885290 0.000000
1.000000 0.886167 0.000000
0.047344 1.000000 0.000000
0.178191 1.000000 0.000000
0.309037 1.000000 0.000000
0.439883 1.000000 0.000000
0.570730 1.000000 0.000000
0.701576 1.000000 0.000000
0.832423 1.000000 0.000000
0.963270 1.000000 0.000000
1.000000 1.000000 0.000000
0.000000 0.000000 0.233015
0.022832 0.000000 0.227168
0.153678 0.000000 0.221322
0.284525 0.000000 0.215475
0.415372 0.000000 0.209628
0.546218 0.000000 0.203782
0.677064 0.000000 0.197935
0.807911 0.000000 0.192089
0.938758 0.000000 0.186243
0.000000 0.111748 0.213346
0.042500 0.112625 0.207500
0.173347 0.113502 0.201653
0.304193 0.114379 0.195807
0.435040 0.115256 0.189961
0.565886 0.116133 0.184114
0.696732 0.117010 0.178267
0.827579 0.117887 0.172421
0.958426 0.118764 0.166575
0.000000 0.239698 0.193678
0.062168 0.240575 0.187832
0.193015 0.241452 0.181985
0.323861 0.242329 0.176139
0.454707 0.243206 0.170292
0.585554 0.244083 0.164446
0.716400 0.244960 0.158600
0.847247 0.245837 0.152753
0.978093 0.246714 0.146906
0.000000 0.367648 0.174011
0.081836 0.368525 0.168164
0.212682 0.369402 0.162318
0.343529 0.370279 0.156471
0.474376 0.371156 0.150624
0.605222 0.372033 0.144778
0.736069 0.372910 0.138932
0.866915 0.373787 0.133085
0.997761 0.374664 0.127239
0.000000 0.495599 0.154342
0.101504 0.496476 0.148496
0.232350 0.497353 0.142650
0.363197 0.498230 0.136803
0.494043 0.499107 0.130957
0.624890 0.499984 0.125110
0.755737 0.500860 0.119264
0.886583 0.501737 0.113417
1.000000 0.502614 0.107570
0.000000 0.623549 0.134675
0.121172 0.624426 0.128828
0.252018 0.625303 0.122982
0.382865 0.626180 0.117135
0.513711 0.627057 0.111289
0.644558 0.627934 0.105442
0.775404 0.628811 0.099596
0.906251 0.629688 0.093749
1.000000 0.630565 0.087903
0.009993 0.751499 0.115007
0.140840 0.752376 0.109160
0.271686 0.753253 0.103314
0.402533 0.754130 0.097467
0.533380 0.755007 0.091620
0.664226 0.755884 0.085774
0.795072 0.756761 0.079928
0.925919 0.757638 0.074081
1.000000 0.758515 0.068235
0.029661 0.879449 0.095339
0.160508 0.880326 0.089492
0.291354 0.881203 0.083646
0.422201 0.882080 0.077799
0.553048 0.882957 0.071953
0.683894 0.883834 0.066106
0.814740 0.884711 0.060260
0.945587 0.885588 0.054413
1.000000 0.886465 0.048567
0.049329 1.000000 0.075671
0.180176 1.000000 0.069824
0.311022 1.000000 0.063978
0.441869 1.000000 0.058131
0.572715 1.000000 0.052285
0.703562 1.000000 0.046438
0.834408 1.000000 0.040592
0.965255 1.000000 0.034745
1.000000 1.000000 0.028899
0.000000 0.000000 0.356029
0.024818 0.000000 0.350183
0.155664 0.000000 0.344336
0.286511 0.000000 0.338489
0.417357 0.000000 0.332643
0.548204 0.000000 0.326796
0.679050 0.000000 0.320950
0.809897 0.000000 0.315103
0.940743 0.000000 0.309257
0.000000 0.112046 0.336361
0.044485 0.112923 0.330514
0.175332 0.113800 0.324668
0.306179 0.114677 0.318821
0.437025 0.115554 0.312975
0.567871 0.116431 0.307129
0.698718 0.117308 0.301282
0.829565 0.118185 0.295436
0.960411 0.119062 0.289589
0.000000 0.239996 0.316693
0.064154 0.240873 0.310847
0.195000 0.241750 0.305000
0.325846 0.242627 0.299154
0.456693 0.243504 0.293307
0.587539 0.244381 0.287461
0.718386 0.245258 0.281614
0.849232 0.246135 0.275767
0.980079 0.247012 0.269921
0.000000 0.367946 0.297025
0.083822 0.368823 0.291179
0.214668 0.369700 0.285332
0.345515 0.370577 0.279485
0.476361 0.371454 0.273639
0.607208 0.372331 0.267792
0.738054 0.373208 0.261946
0.868900 0.374085 0.256099
0.999747 0.374962 0.250253
0.000000 0.495896 0.277357
0.103489 0.496773 0.271510
0.234336 0.497650 0.265664
0.365183 0.498527 0.259817
0.496029 0.499404 0.253971
0.626876 0.500281 0.248124
0.757722 0.501158 0.242278
0.888568 0.502035 0.236431
1.000000 0.502912 0.230585
0.000000 0.623847 0.257689
0.123157 0.624724 0.251843
0.254004 0.625601 0.245996
0.384850 0.626478 0.240149
0.515697 0.627355 0.234303
0.646543 0.628232 0.228457
0.777390 0.629108 0.222610
0.908237 0.629985 0.216763
1.000000 0.630862 0.210917
0.011979 0.751797 0.238021
0.142825 0.752674 0.232175
0.273672 0.753551 0.226328
0.404519 0.754428 0.220481
0.535365 0.755305 0.214635
0.666212 0.756182 0.208788
0.797058 0.757059 0.202942
0.927905 0.757936 0.197096
1.000000 0.758813 0.191249
0.031647 0.879747 0.218353
0.162493 0.880624 0.212507
0.293340 0.881501 0.206660
0.424187 0.882378 0.200814
0.555033 0.883255 0.194967
0.685879 0.884132 0.189120
0.816726 0.885009 0.183274
0.947572 0.885886 0.177428
1.000000 0.886763 0.171581
0.051315 1.000000 0.198685
0.182162 1.000000 0.192838
0.313008 1.000000 0.186992
0.443854 1.000000 0.181146
0.574701 1.000000 0.175299
0.705547 1.000000 0.169453
0.836394 1.000000 0.163606
0.967240 1.000000 0.157759
1.000000 1.000000 0.151913
0.000000 0.000000 0.479044
0.026803 0.000000 0.473197
0.157649 0.000000 0.467351
0.288496 0.000000 0.461504
0.419343 0.000000 0.455657
0.550189 0.000000 0.449811
0.681036 0.000000 0.443964
0.811882 0.000000 0.438118
0.942728 0.000000 0.432271
0.000000 0.112344 0.459375
0.046471 0.113221 0.453529
0.177318 0.114098 0.447682
0.308164 0.114975 0.441836
0.439010 0.115852 0.435990
0.569857 0.116729 0.430143
0.700704 0.117606 0.424296
0.831550 0.118483 0.418450
0.962396 0.119359 0.412604
0.000000 0.240294 0.439708
0.066139 0.241171 0.433861
0.196986 0.242048 0.428015
0.327832 0.242925 0.422168
0.458678 0.243802 0.416322
0.589525 0.244679 0.410475
0.720372 0.245556 0.404629
0.851218 0.246433 0.398782
0.982065 0.247310 0.392935
0.000000 0.368244 0.420040
0.085807 0.369121 0.414193
0.216653 0.369998 0.408347
0.347500 0.370875 0.402500
0.478347 0.371752 0.396653
0.609193 0.372629 0.390807
0.740039 0.373506 0.384960
0.870886 0.374383 0.379114
1.000000 0.375260 0.373268
0.000000 0.496194 0.400371
0.105475 0.497071 0.394525
0.236321 0.497948 0.388678
0.367168 0.498825 0.382832
0.498015 0.499702 0.376985
0.628861 0.500579 0.371139
0.759707 0.501456 0.365293
0.890554 0.502333 0.359446
1.000000 0.503210 0.353600
0.000000 0.624144 0.380704
0.125143 0.625021 0.374857
0.255989 0.625898 0.369011
0.386836 0.626775 0.363164
0.517682 0.627652 0.357318
0.648529 0.628529 0.351471
0.779375 0.629406 0.345625
0.910222 0.630283 0.339778
1.000000 0.631160 0.333931
0.013964 0.752095 0.361036
0.144811 0.752972 0.355189
0.275657 0.753849 0.349343
0.406504 0.754726 0.343496
0.537350 0.755603 0.337649
0.668197 0.756480 0.331803
0.799044 0.757357 0.325957
0.929890 0.758234 0.320110
1.000000 0.759110 0.314264
0.033632 0.880045 0.341368
0.164479 0.880922 0.335521
0.295325 0.881799 0.329675
0.426172 0.882676 0.323828
0.557018 0.883553 0.317982
0.687865 0.884430 0.312135
0.818711 0.885307 0.306289
0.949558 0.886184 0.300442
1.000000 0.887061 0.294596
0.053300 1.000000 0.321700
0.184147 1.000000 0.315853
0.314993 1.000000 0.310007
0.445840 1.000000 0.304160
0.576686 1.000000 0.298314
0.707533 1.000000 0.292467
0.838379 1.000000 0.286621
0.969226 1.000000 0.280774
1.000000 1.000000 0.274927
0.000000 0.000000 0.602058
0.028789 0.000000 0.596212
0.159635 0.000000 0.590365
0.290482 0.000000 0.584518
0.421328 0.000000 0.578672
0.552175 0.000000 0.572825
0.683021 0.000000 0.566979
0.813867 0.000000 0.561133
0.944714 0.000000 0.555286
0.000000 0.112642 0.582390
0.048456 0.113518 0.576543
0.179303 0.114395 0.570697
0.310149 0.115272 0.564851
0.440996 0.116149 0.559004
0.571843 0.117026 0.553157
0.702689 0.117903 0.547311
0.833535 0.118780 0.541465
0.964382 0.119657 0.535618
0.000000 0.240592 0.562722
0.068125 0.241469 0.556875
0.198971 0.242346 0.551029
0.329817 0.243223 0.545183
0.460664 0.244100 0.539336
0.591511 0.244977 0.533489
0.722357 0.245854 0.527643
0.853204 0.246731 0.521796
0.984050 0.247608 0.515950
0.000000 0.368542 0.543054
0.087793 0.369419 0.537207
0.218639 0.370296 0.531361
0.349486 0.371173 0.525514
0.480332 0.372050 0.519668
0.611178 0.372927 0.513822
0.742025 0.373804 0.507975
0.872872 0.374681 0.502128
1.000000 0.375558 0.496282
0.000000 0.496492 0.523386
0.107461 0.497369 0.517540
0.238307 0.498246 0.511693
0.369154 0.499123 0.505846
0.500000 0.500000 0.500000
0.630846 0.500877 0.494154
0.761693 0.501754 0.488307
0.892540 0.502631 0.482461
1.000000 0.503508 0.476614
0.000000 0.624442 0.503718
0.127129 0.625319 0.497872
0.257975 0.626196 0.492025
0.388821 0.627073 0.486179
0.519668 0.627950 0.480332
0.650514 0.628827 0.474486
0.781361 0.629704 0.468639
0.912207 0.630581 0.462792
1.000000 0.631458 0.456946
0.015950 0.752393 0.484050
0.146796 0.753269 0.478204
0.277643 0.754146 0.472357
0.408490 0.755023 0.466510
0.539336 0.755900 0.460664
0.670183 0.756777 0.454817
0.801029 0.757654 0.448971
0.931875 0.758531 0.443124
1.000000 0.759408 0.437278
0.035618 0.880343 0.464382
0.166464 0.881220 0.458535
0.297311 0.882097 0.452689
0.428157 0.882974 0.446843
0.559004 0.883851 0.440996
0.689851 0.884728 0.435149
0.820697 0.885605 0.429303
0.951543 0.886482 0.423457
1.000000 0.887359 0.417610
0.055286 1.000000 0.444714
0.186133 1.000000 0.438868
0.316979 1.000000 0.433021
0.447825 1.000000 0.427175
0.578672 1.000000 0.421328
0.709518 1.000000 0.415482
0.840365 1.000000 0.409635
0.971212 1.000000 0.403788
1.000000 1.000000 0.397942
0.000000 0.000000 0.725073
0.030774 0.000000 0.719226
0.161621 0.000000 0.713380
0.292467 0.000000 0.707533
0.423314 0.000000 0.701686
0.554160 0.000000 0.695840
0.685006 0.000000 0.689994
0.815853 0.000000 0.684147
0.946700 0.000000 0.678300
0.000000 0.112939 0.705404
0.050442 0.113816 0.699558
0.181289 0.114693 0.693712
0.312135 0.115570 0.687865
0.442981 0.116447 0.682018
0.573828 0.117324 0.676172
0.704674 0.118201 0.670326
0.835521 0.119078 0.664479
0.966368 0.119955 0.658632
0.000000 0.240890 0.685736
0.070110 0.241766 0.679890
0.200956 0.242643 0.674044
0.331803 0.243520 0.668197
0.462649 0.244397 0.662350
0.593496 0.245274 0.656504
0.724343 0.246151 0.650657
0.855189 0.247028 0.644811
0.986035 0.247905 0.638965
0.000000 0.368840 0.666068
0.089778 0.369717 0.660222
0.220625 0.370594 0.654375
0.351471 0.371471 0.648529
0.482318 0.372348 0.642683
0.613164 0.373225 0.636836
0.744011 0.374102 0.630989
0.874857 0.374979 0.625143
1.000000 0.375856 0.619297
0.000000 0.496790 0.646401
0.109446 0.497667 0.640554
0.240292 0.498544 0.634707
0.371139 0.499421 0.628861
0.501985 0.500298 0.623015
0.632832 0.501175 0.617168
0.763679 0.502052 0.611321
0.894525 0.502929 0.605475
1.000000 0.503806 0.599629
0.000000 0.624740 0.626733
0.129114 0.625617 0.620886
0.259960 0.626494 0.615039
0.390807 0.627371 0.609193
0.521653 0.628248 0.603347
0.652500 0.629125 0.597500
0.783346 0.630002 0.591654
0.914193 0.630879 0.585807
1.000000 0.631756 0.579960
0.017935 0.752690 0.607065
0.148782 0.753567 0.601218
0.279629 0.754444 0.595372
0.410475 0.755321 0.589525
0.541322 0.756198 0.583678
0.672168 0.757075 0.577832
0.803014 0.757952 0.571986
0.933861 0.758829 0.566139
1.000000 0.759706 0.560292
0.037603 0.880641 0.587396
0.168450 0.881517 0.581550
0.299296 0.882394 0.575704
0.430143 0.883271 0.569857
0.560990 0.884148 0.564010
0.691836 0.885025 0.558164
0.822682 0.885902 0.552318
0.953529 0.886779 0.546471
1.000000 0.887656 0.540625
0.057271 1.000000 0.567728
0.188118 1.000000 0.561882
0.318964 1.000000 0.556036
0.449811 1.000000 0.550189
0.580657 1.000000 0.544343
0.711504 1.000000 0.538496
0.842351 1.000000 0.532649
0.973197 1.000000 0.526803
1.000000 1.000000 0.520957
0.000000 0.000000 0.848087
0.032759 0.000000 0.842240
0.163606 0.000000 0.836394
0.294453 0.000000 0.830547
0.425299 0.000000 0.824701
0.556145 0.000000 0.818855
0.686992 0.000000 0.813008
0.817839 0.000000 0.807161
0.948685 0.000000 0.801315
0.000000 0.113237 0.828419
0.052427 0.114114 0.822573
0.183274 0.114991 0.816726
0.314121 0.115868 0.810879
0.444967 0.116745 0.805033
0.575813 0.117622 0.799187
0.706660 0.118499 0.793340
0.837506 0.119376 0.787494
0.968353 0.120253 0.781647
0.000000 0.241187 0.808751
0.072096 0.242064 0.802905
0.202942 0.242941 0.797058
0.333788 0.243818 0.791211
0.464635 0.244695 0.785365
0.595481 0.245572 0.779519
0.726328 0.246449 0.773672
0.857174 0.247326 0.767826
0.988021 0.248203 0.761979
0.000000 0.369138 0.789083
0.091764 0.370015 0.783237
0.222610 0.370891 0.777390
0.353457 0.371768 0.771544
0.484303 0.372645 0.765697
0.615150 0.373522 0.759850
0.745996 0.374399 0.754004
0.876842 0.375276 0.748158
1.000000 0.376153 0.742311
0.000000 0.497088 0.769415
0.111431 0.497965 0.763568
0.242278 0.498842 0.757722
0.373125 0.499719 0.751876
0.503971 0.500596 0.746029
0.634818 0.501473 0.740182
0.765664 0.502350 0.734336
0.896510 0.503227 0.728490
1.000000 0.504104 0.722643
0.000253 0.625038 0.749747
0.131100 0.625915 0.743900
0.261946 0.626792 0.738054
0.392792 0.627669 0.732208
0.523639 0.628546 0.726361
0.654485 0.629423 0.720515
0.785332 0.630300 0.714668
0.916179 0.631177 0.708821
1.000000 0.632054 0.702975
0.019921 0.752988 0.730079
0.150767 0.753865 0.724232
0.281614 0.754742 0.718386
0.412461 0.755619 0.712539
0.543307 0.756496 0.706693
0.674154 0.757373 0.700846
0.805000 0.758250 0.695000
0.935847 0.759127 0.689153
1.000000 0.760004 0.683307
0.039589 0.880938 0.710411
0.170435 0.881815 0.704565
0.301282 0.882692 0.698718
0.432129 0.883569 0.692871
0.562975 0.884446 0.687025
0.693821 0.885323 0.681179
0.824668 0.886200 0.675332
0.955515 0.887077 0.669485
1.000000 0.887954 0.663639
0.059257 1.000000 0.690743
0.190103 1.000000 0.684897
0.320950 1.000000 0.679050
0.451796 1.000000 0.673203
0.582643 1.000000 0.667357
0.713489 1.000000 0.661511
0.844336 1.000000 0.655664
0.975182 1.000000 0.649818
1.000000 1.000000 0.643971
0.000000 0.000000 0.971102
0.034745 0.000000 0.965255
0.165592 0.000000 0.959408
0.296438 0.000000 0.953562
0.427285 0.000000 0.947716
0.558131 0.000000 0.941869
0.688978 0.000000 0.936022
0.819824 0.000000 0.930176
0.950670 0.000000 0.924330
0.000000 0.113535 0.951434
0.054413 0.114412 0.945587
0.185259 0.115289 0.939740
0.316106 0.116166 0.933894
0.446952 0.117043 0.928048
0.577799 0.117920 0.922201
0.708646 0.118797 0.916354
0.839492 0.119674 0.910508
0.970338 0.120551 0.904662
0.000000 0.241485 0.931766
0.074081 0.242362 0.925919
0.204927 0.243239 0.920072
0.335774 0.244116 0.914226
0.466620 0.244993 0.908380
0.597467 0.245870 0.902533
0.728313 0.246747 0.896687
0.859160 0.247624 0.890840
0.990007 0.248501 0.884993
0.000000 0.369435 0.912098
0.093749 0.370312 0.906251
0.224596 0.371189 0.900405
0.355442 0.372066 0.894558
0.486289 0.372943 0.888711
0.617135 0.373820 0.882865
0.747981 0.374697 0.877019
0.878828 0.375574 0.871172
1.000000 0.376451 0.865325
0.000000 0.497386 0.892429
0.113417 0.498263 0.886583
0.244263 0.499140 0.880737
0.375110 0.500016 0.874890
0.505957 0.500893 0.869043
0.636803 0.501770 0.863197
0.767649 0.502647 0.857351
0.898496 0.503524 0.851504
1.000000 0.504401 0.845657
0.002238 0.625336 0.872761
0.133085 0.626213 0.866915
0.263931 0.627090 0.861069
0.394778 0.627967 0.855222
0.525624 0.628844 0.849376
0.656471 0.629721 0.843529
0.787318 0.630598 0.837682
0.918164 0.631475 0.831836
1.000000 0.632352 0.825990
0.021906 0.753286 0.853094
0.152753 0.754163 0.847247
0.283600 0.755040 0.841400
0.414446 0.755917 0.835554
0.545292 0.756794 0.829708
0.676139 0.757671 0.823861
0.806986 0.758548 0.818014
0.937832 0.759425 0.812168
1.000000 0.760302 0.806322
0.041574 0.881236 0.833426
0.172421 0.882113 0.827579
0.303267 0.882990 0.821732
0.434114 0.883867 0.815886
0.564960 0.884744 0.810040
0.695807 0.885621 0.804193
0.826653 0.886498 0.798347
0.957500 0.887375 0.792500
1.000000 0.888252 0.786654
0.061242 1.000000 0.813758
0.192089 1.000000 0.807911
0.322935 1.000000 0.802064
0.453782 1.000000 0.796218
0.584628 1.000000 0.790372
0.715475 1.000000 0.784525
0.846321 1.000000 0.778679
0.977168 1.000000 0.772832
1.000000 1.000000 0.766985
0.000000 0.000000 1.000000
0.036730 0.000000 1.000000
0.167577 0.000000 1.000000
0.298424 0.000000 1.000000
0.429270 0.000000 1.000000
0.560117 0.000000 1.000000
0.690963 0.000000 1.000000
0.821809 0.000000 1.000000
0.952656 0.000000 1.000000
0.000000 0.113833 1.000000
0.056398 0.114710 1.000000
0.187245 0.115587 1.000000
0.318091 0.116464 1.000000
0.448938 0.117341 1.000000
0.579785 0.118218 1.000000
0.710631 0.119095 1.000000
0.841477 0.119972 1.000000
0.972324 0.120849 1.000000
0.000000 0.241783 1.000000
0.076066 0.242660 1.000000
0.206913 0.243537 1.000000
0.337759 0.244414 1.000000
0.468606 0.245291 1.000000
0.599453 0.246168 1.000000
0.730299 0.247045 1.000000
0.861146 0.247922 1.000000
0.991992 0.248799 1.000000
0.000000 0.369733 1.000000
0.095735 0.370610 1.000000
0.226581 0.371487 1.000000
0.357428 0.372364 1.000000
0.488274 0.373241 1.000000
0.619120 0.374118 1.000000
0.749967 0.374995 1.000000
0.880814 0.375872 0.994186
1.000000 0.376749 0.988340
0.000000 0.497683 1.000000
0.115402 0.498560 1.000000
0.246249 0.499437 1.000000
0.377096 0.500314 0.997904
0.507942 0.501191 0.992058
0.638788 0.502068 0.986212
0.769635 0.502945 0.980365
0.900482 0.503822 0.974518
1.000000 0.504699 0.968672
0.004224 0.625634 0.995776
0.135071 0.626511 0.989930
0.265917 0.627388 0.984083
0.396763 0.628265 0.978236
0.527610 0.629142 0.972390
0.658457 0.630018 0.966543
0.789303 0.630895 0.960697
0.920149 0.631772 0.954851
1.000000 0.632649 0.949004
0.023892 0.753584 0.976108
0.154739 0.754461 0.970261
0.285585 0.755338 0.964415
0.416432 0.756215 0.958568
0.547278 0.757092 0.952722
0.678125 0.757969 0.946875
0.808971 0.758846 0.941029
0.939817 0.759723 0.935183
1.000000 0.760600 0.929336
0.043560 0.881534 0.956440
0.174406 0.882411 0.950593
0.305253 0.883288 0.944747
0.436099 0.884165 0.938901
0.566946 0.885042 0.933054
0.697793 0.885919 0.927207
0.828639 0.886796 0.921361
0.959485 0.887673 0.915515
1.000000 0.888550 0.909668
0.063228 1.000000 0.936772
0.194074 1.000000 0.930925
0.324921 1.000000 0.925079
0.455767 1.000000 0.919233
0.586614 1.000000 0.913386
0.717460 1.000000 0.907540
0.848307 1.000000 0.901693
0.979154 1.000000 0.895846
1.000000 1.000000 0.890000
