public/luts/warm.cube
TITLE "Warm"
LUT_3D_SIZE 5
0.015000 0.004000 0.000000
0.277500 0.004000 0.000000
0.540000 0.004000 0.000000
0.802500 0.004000 0.000000
1.000000 0.004000 0.000000
0.015000 0.254000 0.000000
0.277500 0.254000 0.000000
0.540000 0.254000 0.000000
0.802500 0.254000 0.000000
1.000000 0.254000 0.000000
0.015000 0.504000 0.000000
0.277500 0.504000 0.000000
0.540000 0.504000 0.000000
0.802500 0.504000 0.000000
1.000000 0.504000 0.000000
0.015000 0.754000 0.000000
0.277500 0.754000 0.000000
0.540000 0.754000 0.000000
0.802500 0.754000 0.000000
1.000000 0.754000 0.000000
0.015000 1.000000 0.000000
0.277500 1.000000 0.000000
0.540000 1.000000 0.000000
0.802500 1.000000 0.000000
1.000000 1.000000 0.000000
0.015000 0.004000 0.232500
0.277500 0.004000 0.232500
0.540000 0.004000 0.232500
0.802500 0.004000 0.232500
1.000000 0.004000 0.232500
0.015000 0.254000 0.232500
0.277500 0.254000 0.232500
0.540000 0.254000 0.232500
0.802500 0.254000 0.232500
1.000000 0.254000 0.232500
0.015000 0.504000 0.232500
0.277500 0.504000 0.232500
0.540000 0.504000 0.232500
0.802500 0.504000 0.232500
1.000000 0.504000 0.232500
0.015000 0.754000 0.232500
0.277500 0.754000 0.232500
0.540000 0.754000 0.232500
0.802500 0.754000 0.232500
1.000000 0.754000 0.232500
0.015000 1.000000 0.232500
0.277500 1.000000 0.232500
0.540000 1.000000 0.232500
0.802500 1.000000 0.232500
1.000000 1.000000 0.232500
0.015000 0.004000 0.465000
0.277500 0.004000 0.465000
0.540000 0.004000 0.465000
0.802500 0.004000 0.465000
1.000000 0.004000 0.465000
0.015000 0.254000 0.465000
0.277500 0.254000 0.465000
0.540000 0.254000 0.465000
0.802500 0.254000 0.465000
1.000000 0.254000 0.465000
0.015000 0.504000 0.465000
0.277500 0.504000 0.465000
0.540000 0.504000 0.465000
0.802500 0.504000 0.465000
1.000000 0.504000 0.465000
0.015000 0.754000 0.465000
0.277500 0.754000 0.465000
0.540000 0.754000 0.465000
0.802500 0.754000 0.465000
1.000000 0.754000 0.465000
0.015000 1.000000 0.465000
0.277500 1.000000 0.465000
0.540000 1.000000 0.465000
0.802500 1.000000 0.465000
1.000000 1.000000 0.465000
0.015000 0.004000 0.697500
0.277500 0.004000 0.697500
0.540000 0.004000 0.697500
0.802500 0.004000 0.697500
1.000000 0.004000 0.697500
0.015000 0.254000 0.697500
0.277500 0.254000 0.697500
0.540000 0.254000 0.697500
0.802500 0.254000 0.697500
1.000000 0.254000 0.697500
0.015000 0.504000 0.697500
0.277500 0.504000 0.697500
0.540000 0.504000 0.697500
0.802500 0.504000 0.697500
1.000000 0.504000 0.697500
0.015000 0.754000 0.697500
0.277500 0.754000 0.697500
0.540000 0.754000 0.697500
0.802500 0.754000 0.697500
1.000000 0.754000 0.697500
0.015000 1.000000 0.697500
0.277500 1.000000 0.697500
0.540000 1.000000 0.697500
0.802500 1.000000 0.697500
1.000000 1.000000 0.697500
0.015000 0.004000 0.930000
0.277500 0.004000 0.930000
0.540000 0.004000 0.930000
0.802500 0.004000 0.930000
1.000000 0.004000 0.930000
0.015000 0.254000 0.930000
0.277500 0.254000 0.930000
0.540000 0.254000 0.930000
0.802500 0.254000 0.930000
1.000000 0.254000 0.930000
0.015000 0.504000 0.930000
0.277500 0.504000 0.930000
0.540000 0.504000 0.930000
0.802500 0.504000 0.930000
1.000000 0.504000 0.930000
0.015000 0.754000 0.930000
0.277500 0.754000 0.930000
0.540000 0.754000 0.930000
0.802500 0.754000 0.930000
1.000000 0.754000 0.930000
0.015000 1.000000 0.930000
0.277500 1.000000 0.930000
0.540000 1.000000 0.930000
0.802500 1.000000 0.930000
1.000000 1.000000 0.930000
