public/luts/warm.cube
TITLE "Warm"
LUT_3D_SIZE 9
0.015000 0.004000 0.000000
0.146250 0.004000 0.000000
0.277500 0.004000 0.000000
0.408750 0.004000 0.000000
0.540000 0.004000 0.000000
0.671250 0.004000 0.000000
0.802500 0.004000 0.000000
0.933750 0.004000 0.000000
1.000000 0.004000 0.000000
0.015000 0.129000 0.000000
0.146250 0.129000 0.000000
0.277500 0.129000 0.000000
0.408750 0.129000 0.000000
0.540000 0.129000 0.000000
0.671250 0.129000 0.000000
0.802500 0.129000 0.000000
0.933750 0.129000 0.000000
1.000000 0.129000 0.000000
0.015000 0.254000 0.000000
0.146250 0.254000 0.000000
0.277500 0.254000 0.000000
0.408750 0.254000 0.000000
0.540000 0.254000 0.000000
0.671250 0.254000 0.000000
0.802500 0.254000 0.000000
0.933750 0.254000 0.000000
1.000000 0.254000 0.000000
0.015000 0.379000 0.000000
0.146250 0.379000 0.000000
0.277500 0.379000 0.000000
0.408750 0.379000 0.000000
0.540000 0.379000 0.000000
0.671250 0.379000 0.000000
0.802500 0.379000 0.000000
0.933750 0.379000 0.000000
1.000000 0.379000 0.000000
0.015000 0.504000 0.000000
0.146250 0.504000 0.000000
0.277500 0.504000 0.000000
0.408750 0.504000 0.000000
0.540000 0.504000 0.000000
0.671250 0.504000 0.000000
0.802500 0.504000 0.000000
0.933750 0.504000 0.000000
1.000000 0.504000 0.000000
0.015000 0.629000 0.000000
0.146250 0.629000 0.000000
0.277500 0.629000 0.000000
0.408750 0.629000 0.000000
0.540000 0.629000 0.000000
0.671250 0.629000 0.000000
0.802500 0.629000 0.000000
0.933750 0.629000 0.000000
1.000000 0.629000 0.000000
0.015000 0.754000 0.000000
0.146250 0.754000 0.000000
0.277500 0.754000 0.000000
0.408750 0.754000 0.000000
0.540000 0.754000 0.000000
0.671250 0.754000 0.000000
0.802500 0.754000 0.000000
0.933750 0.754000 0.000000
1.000000 0.754000 0.000000
0.015000 0.879000 0.000000
0.146250 0.879000 0.000000
0.277500 0.879000 0.000000
0.408750 0.879000 0.000000
0.540000 0.879000 0.000000
0.671250 0.879000 0.000000
0.802500 0.879000 0.000000
0.933750 0.879000 0.000000
1.000000 0.879000 0.000000
0.015000 1.000000 0.000000
0.146250 1.000000 0.000000
0.277500 1.000000 0.000000
0.408750 1.000000 0.000000
0.540000 1.000000 0.000000
0.671250 1.000000 0.000000
0.802500 1.000000 0.000000
0.933750 1.000000 0.000000
1.000000 1.000000 0.000000
0.015000 0.004000 0.116250
0.146250 0.004000 0.116250
0.277500 0.004000 0.116250
0.408750 0.004000 0.116250
0.540000 0.004000 0.116250
0.671250 0.004000 0.116250
0.802500 0.004000 0.116250
0.933750 0.004000 0.116250
1.000000 0.004000 0.116250
0.015000 0.129000 0.116250
0.146250 0.129000 0.116250
0.277500 0.129000 0.116250
0.408750 0.129000 0.116250
0.540000 0.129000 0.116250
0.671250 0.129000 0.116250
0.802500 0.129000 0.116250
0.933750 0.129000 0.116250
1.000000 0.129000 0.116250
0.015000 0.254000 0.116250
0.146250 0.254000 0.116250
0.277500 0.254000 0.116250
0.408750 0.254000 0.116250
0.540000 0.254000 0.116250
0.671250 0.254000 0.116250
0.802500 0.254000 0.116250
0.933750 0.254000 0.116250
1.000000 0.254000 0.116250
0.015000 0.379000 0.116250
0.146250 0.379000 0.116250
0.277500 0.379000 0.116250
0.408750 0.379000 0.116250
0.540000 0.379000 0.116250
0.671250 0.379000 0.116250
0.802500 0.379000 0.116250
0.933750 0.379000 0.116250
1.000000 0.379000 0.116250
0.015000 0.504000 0.116250
0.146250 0.504000 0.116250
0.277500 0.504000 0.116250
0.408750 0.504000 0.116250
0.540000 0.504000 0.116250
0.671250 0.504000 0.116250
0.802500 0.504000 0.116250
0.933750 0.504000 0.116250
1.000000 0.504000 0.116250
0.015000 0.629000 0.116250
0.146250 0.629000 0.116250
0.277500 0.629000 0.116250
0.408750 0.629000 0.116250
0.540000 0.629000 0.116250
0.671250 0.629000 0.116250
0.802500 0.629000 0.116250
0.933750 0.629000 0.116250
1.000000 0.629000 0.116250
0.015000 0.754000 0.116250
0.146250 0.754000 0.116250
0.277500 0.754000 0.116250
0.408750 0.754000 0.116250
0.540000 0.754000 0.116250
0.671250 0.754000 0.116250
0.802500 0.754000 0.116250
0.933750 0.754000 0.116250
1.000000 0.754000 0.116250
0.015000 0.879000 0.116250
0.146250 0.879000 0.116250
0.277500 0.879000 0.116250
0.408750 0.879000 0.116250
0.540000 0.879000 0.116250
0.671250 0.879000 0.116250
0.802500 0.879000 0.116250
0.933750 0.879000 0.116250
1.000000 0.879000 0.116250
0.015000 1.000000 0.116250
0.146250 1.000000 0.116250
0.277500 1.000000 0.116250
0.408750 1.000000 0.116250
0.540000 1.000000 0.116250
0.671250 1.000000 0.116250
0.802500 1.000000 0.116250
0.933750 1.000000 0.116250
1.000000 1.000000 0.116250
0.015000 0.004000 0.232500
0.146250 0.004000 0.232500
0.277500 0.004000 0.232500
0.408750 0.004000 0.232500
0.540000 0.004000 0.232500
0.671250 0.004000 0.232500
0.802500 0.004000 0.232500
0.933750 0.004000 0.232500
1.000000 0.004000 0.232500
0.015000 0.129000 0.232500
0.146250 0.129000 0.232500
0.277500 0.129000 0.232500
0.408750 0.129000 0.232500
0.540000 0.129000 0.232500
0.671250 0.129000 0.232500
0.802500 0.129000 0.232500
0.933750 0.129000 0.232500
1.000000 0.129000 0.232500
0.015000 0.254000 0.232500
0.146250 0.254000 0.232500
0.277500 0.254000 0.232500
0.408750 0.254000 0.232500
0.540000 0.254000 0.232500
0.671250 0.254000 0.232500
0.802500 0.254000 0.232500
0.933750 0.254000 0.232500
1.000000 0.254000 0.232500
0.015000 0.379000 0.232500
0.146250 0.379000 0.232500
0.277500 0.379000 0.232500
0.408750 0.379000 0.232500
0.540000 0.379000 0.232500
0.671250 0.379000 0.232500
0.802500 0.379000 0.232500
0.933750 0.379000 0.232500
1.000000 0.379000 0.232500
0.015000 0.504000 0.232500
0.146250 0.504000 0.232500
0.277500 0.504000 0.232500
0.408750 0.504000 0.232500
0.540000 0.504000 0.232500
0.671250 0.504000 0.232500
0.802500 0.504000 0.232500
0.933750 0.504000 0.232500
1.000000 0.504000 0.232500
0.015000 0.629000 0.232500
0.146250 0.629000 0.232500
0.277500 0.629000 0.232500
0.408750 0.629000 0.232500
0.540000 0.629000 0.232500
0.671250 0.629000 0.232500
0.802500 0.629000 0.232500
0.933750 0.629000 0.232500
1.000000 0.629000 0.232500
0.015000 0.754000 0.232500
0.146250 0.754000 0.232500
0.277500 0.754000 0.232500
0.408750 0.754000 0.232500
0.540000 0.754000 0.232500
0.671250 0.754000 0.232500
0.802500 0.754000 0.232500
0.933750 0.754000 0.232500
1.000000 0.754000 0.232500
0.015000 0.879000 0.232500
0.146250 0.879000 0.232500
0.277500 0.879000 0.232500
0.408750 0.879000 0.232500
0.540000 0.879000 0.232500
0.671250 0.879000 0.232500
0.802500 0.879000 0.232500
0.933750 0.879000 0.232500
1.000000 0.879000 0.232500
0.015000 1.000000 0.232500
0.146250 1.000000 0.232500
0.277500 1.000000 0.232500
0.408750 1.000000 0.232500
0.540000 1.000000 0.232500
0.671250 1.000000 0.232500
0.802500 1.000000 0.232500
0.933750 1.000000 0.232500
1.000000 1.000000 0.232500
0.015000 0.004000 0.348750
0.146250 0.004000 0.348750
0.277500 0.004000 0.348750
0.408750 0.004000 0.348750
0.540000 0.004000 0.348750
0.671250 0.004000 0.348750
0.802500 0.004000 0.348750
0.933750 0.004000 0.348750
1.000000 0.004000 0.348750
0.015000 0.129000 0.348750
0.146250 0.129000 0.348750
0.277500 0.129000 0.348750
0.408750 0.129000 0.348750
0.540000 0.129000 0.348750
0.671250 0.129000 0.348750
0.802500 0.129000 0.348750
0.933750 0.129000 0.348750
1.000000 0.129000 0.348750
0.015000 0.254000 0.348750
0.146250 0.254000 0.348750
0.277500 0.254000 0.348750
0.408750 0.254000 0.348750
0.540000 0.254000 0.348750
0.671250 0.254000 0.348750
0.802500 0.254000 0.348750
0.933750 0.254000 0.348750
1.000000 0.254000 0.348750
0.015000 0.379000 0.348750
0.146250 0.379000 0.348750
0.277500 0.379000 0.348750
0.408750 0.379000 0.348750
0.540000 0.379000 0.348750
0.671250 0.379000 0.348750
0.802500 0.379000 0.348750
0.933750 0.379000 0.348750
1.000000 0.379000 0.348750
0.015000 0.504000 0.348750
0.146250 0.504000 0.348750
0.277500 0.504000 0.348750
0.408750 0.504000 0.348750
0.540000 0.504000 0.348750
0.671250 0.504000 0.348750
0.802500 0.504000 0.348750
0.933750 0.504000 0.348750
1.000000 0.504000 0.348750
0.015000 0.629000 0.348750
0.146250 0.629000 0.348750
0.277500 0.629000 0.348750
0.408750 0.629000 0.348750
0.540000 0.629000 0.348750
0.671250 0.629000 0.348750
0.802500 0.629000 0.348750
0.933750 0.629000 0.348750
1.000000 0.629000 0.348750
0.015000 0.754000 0.348750
0.146250 0.754000 0.348750
0.277500 0.754000 0.348750
0.408750 0.754000 0.348750
0.540000 0.754000 0.348750
0.671250 0.754000 0.348750
0.802500 0.754000 0.348750
0.933750 0.754000 0.348750
1.000000 0.754000 0.348750
0.015000 0.879000 0.348750
0.146250 0.879000 0.348750
0.277500 0.879000 0.348750
0.408750 0.879000 0.348750
0.540000 0.879000 0.348750
0.671250 0.879000 0.348750
0.802500 0.879000 0.348750
0.933750 0.879000 0.348750
1.000000 0.879000 0.348750
0.015000 1.000000 0.348750
0.146250 1.000000 0.348750
0.277500 1.000000 0.348750
0.408750 1.000000 0.348750
0.540000 1.000000 0.348750
0.671250 1.000000 0.348750
0.802500 1.000000 0.348750
0.933750 1.000000 0.348750
1.000000 1.000000 0.348750
0.015000 0.004000 0.465000
0.146250 0.004000 0.465000
0.277500 0.004000 0.465000
0.408750 0.004000 0.465000
0.540000 0.004000 0.465000
0.671250 0.004000 0.465000
0.802500 0.004000 0.465000
0.933750 0.004000 0.465000
1.000000 0.004000 0.465000
0.015000 0.129000 0.465000
0.146250 0.129000 0.465000
0.277500 0.129000 0.465000
0.408750 0.129000 0.465000
0.540000 0.129000 0.465000
0.671250 0.129000 0.465000
0.802500 0.129000 0.465000
0.933750 0.129000 0.465000
1.000000 0.129000 0.465000
0.015000 0.254000 0.465000
0.146250 0.254000 0.465000
0.277500 0.254000 0.465000
0.408750 0.254000 0.465000
0.540000 0.254000 0.465000
0.671250 0.254000 0.465000
0.802500 0.254000 0.465000
0.933750 0.254000 0.465000
1.000000 0.254000 0.465000
0.015000 0.379000 0.465000
0.146250 0.379000 0.465000
0.277500 0.379000 0.465000
0.408750 0.379000 0.465000
0.540000 0.379000 0.465000
0.671250 0.379000 0.465000
0.802500 0.379000 0.465000
0.933750 0.379000 0.465000
1.000000 0.379000 0.465000
0.015000 0.504000 0.465000
0.146250 0.504000 0.465000
0.277500 0.504000 0.465000
0.408750 0.504000 0.465000
0.540000 0.504000 0.465000
0.671250 0.504000 0.465000
0.802500 0.504000 0.465000
0.933750 0.504000 0.465000
1.000000 0.504000 0.465000
0.015000 0.629000 0.465000
0.146250 0.629000 0.465000
0.277500 0.629000 0.465000
0.408750 0.629000 0.465000
0.540000 0.629000 0.465000
0.671250 0.629000 0.465000
0.802500 0.629000 0.465000
0.933750 0.629000 0.465000
1.000000 0.629000 0.465000
0.015000 0.754000 0.465000
0.146250 0.754000 0.465000
0.277500 0.754000 0.465000
0.408750 0.754000 0.465000
0.540000 0.754000 0.465000
0.671250 0.754000 0.465000
0.802500 0.754000 0.465000
0.933750 0.754000 0.465000
1.000000 0.754000 0.465000
0.015000 0.879000 0.465000
0.146250 0.879000 0.465000
0.277500 0.879000 0.465000
0.408750 0.879000 0.465000
0.540000 0.879000 0.465000
0.671250 0.879000 0.465000
0.802500 0.879000 0.465000
0.933750 0.879000 0.465000
1.000000 0.879000 0.465000
0.015000 1.000000 0.465000
0.146250 1.000000 0.465000
0.277500 1.000000 0.465000
0.408750 1.000000 0.465000
0.540000 1.000000 0.465000
0.671250 1.000000 0.465000
0.802500 1.000000 0.465000
0.933750 1.000000 0.465000
1.000000 1.000000 0.465000
0.015000 0.004000 0.581250
0.146250 0.004000 0.581250
0.277500 0.004000 0.581250
0.408750 0.004000 0.581250
0.540000 0.004000 0.581250
0.671250 0.004000 0.581250
0.802500 0.004000 0.581250
0.933750 0.004000 0.581250
1.000000 0.004000 0.581250
0.015000 0.129000 0.581250
0.146250 0.129000 0.581250
0.277500 0.129000 0.581250
0.408750 0.129000 0.581250
0.540000 0.129000 0.581250
0.671250 0.129000 0.581250
0.802500 0.129000 0.581250
0.933750 0.129000 0.581250
1.000000 0.129000 0.581250
0.015000 0.254000 0.581250
0.146250 0.254000 0.581250
0.277500 0.254000 0.581250
0.408750 0.254000 0.581250
0.540000 0.254000 0.581250
0.671250 0.254000 0.581250
0.802500 0.254000 0.581250
0.933750 0.254000 0.581250
1.000000 0.254000 0.581250
0.015000 0.379000 0.581250
0.146250 0.379000 0.581250
0.277500 0.379000 0.581250
0.408750 0.379000 0.581250
0.540000 0.379000 0.581250
0.671250 0.379000 0.581250
0.802500 0.379000 0.581250
0.933750 0.379000 0.581250
1.000000 0.379000 0.581250
0.015000 0.504000 0.581250
0.146250 0.504000 0.581250
0.277500 0.504000 0.581250
0.408750 0.504000 0.581250
0.540000 0.504000 0.581250
0.671250 0.504000 0.581250
0.802500 0.504000 0.581250
0.933750 0.504000 0.581250
1.000000 0.504000 0.581250
0.015000 0.629000 0.581250
0.146250 0.629000 0.581250
0.277500 0.629000 0.581250
0.408750 0.629000 0.581250
0.540000 0.629000 0.581250
0.671250 0.629000 0.581250
0.802500 0.629000 0.581250
0.933750 0.629000 0.581250
1.000000 0.629000 0.581250
0.015000 0.754000 0.581250
0.146250 0.754000 0.581250
0.277500 0.754000 0.581250
0.408750 0.754000 0.581250
0.540000 0.754000 0.581250
0.671250 0.754000 0.581250
0.802500 0.754000 0.581250
0.933750 0.754000 0.581250
1.000000 0.754000 0.581250
0.015000 0.879000 0.581250
0.146250 0.879000 0.581250
0.277500 0.879000 0.581250
0.408750 0.879000 0.581250
0.540000 0.879000 0.581250
0.671250 0.879000 0.581250
0.802500 0.879000 0.581250
0.933750 0.879000 0.581250
1.000000 0.879000 0.581250
0.015000 1.000000 0.581250
0.146250 1.000000 0.581250
0.277500 1.000000 0.581250
0.408750 1.000000 0.581250
0.540000 1.000000 0.581250
0.671250 1.000000 0.581250
0.802500 1.000000 0.581250
0.933750 1.000000 0.581250
1.000000 1.000000 0.581250
0.015000 0.004000 0.697500
0.146250 0.004000 0.697500
0.277500 0.004000 0.697500
0.408750 0.004000 0.697500
0.540000 0.004000 0.697500
0.671250 0.004000 0.697500
0.802500 0.004000 0.697500
0.933750 0.004000 0.697500
1.000000 0.004000 0.697500
0.015000 0.129000 0.697500
0.146250 0.129000 0.697500
0.277500 0.129000 0.697500
0.408750 0.129000 0.697500
0.540000 0.129000 0.697500
0.671250 0.129000 0.697500
0.802500 0.129000 0.697500
0.933750 0.129000 0.697500
1.000000 0.129000 0.697500
0.015000 0.254000 0.697500
0.146250 0.254000 0.697500
0.277500 0.254000 0.697500
0.408750 0.254000 0.697500
0.540000 0.254000 0.697500
0.671250 0.254000 0.697500
0.802500 0.254000 0.697500
0.933750 0.254000 0.697500
1.000000 0.254000 0.697500
0.015000 0.379000 0.697500
0.146250 0.379000 0.697500
0.277500 0.379000 0.697500
0.408750 0.379000 0.697500
0.540000 0.379000 0.697500
0.671250 0.379000 0.697500
0.802500 0.379000 0.697500
0.933750 0.379000 0.697500
1.000000 0.379000 0.697500
0.015000 0.504000 0.697500
0.146250 0.504000 0.697500
0.277500 0.504000 0.697500
0.408750 0.504000 0.697500
0.540000 0.504000 0.697500
0.671250 0.504000 0.697500
0.802500 0.504000 0.697500
0.933750 0.504000 0.697500
1.000000 0.504000 0.697500
0.015000 0.629000 0.697500
0.146250 0.629000 0.697500
0.277500 0.629000 0.697500
0.408750 0.629000 0.697500
0.540000 0.629000 0.697500
0.671250 0.629000 0.697500
0.802500 0.629000 0.697500
0.933750 0.629000 0.697500
1.000000 0.629000 0.697500
0.015000 0.754000 0.697500
0.146250 0.754000 0.697500
0.277500 0.754000 0.697500
0.408750 0.754000 0.697500
0.540000 0.754000 0.697500
0.671250 0.754000 0.697500
0.802500 0.754000 0.697500
0.933750 0.754000 0.697500
1.000000 0.754000 0.697500
0.015000 0.879000 0.697500
0.146250 0.879000 0.697500
0.277500 0.879000 0.697500
0.408750 0.879000 0.697500
0.540000 0.879000 0.697500
0.671250 0.879000 0.697500
0.802500 0.879000 0.697500
0.933750 0.879000 0.697500
1.000000 0.879000 0.697500
0.015000 1.000000 0.697500
0.146250 1.000000 0.697500
0.277500 1.000000 0.697500
0.408750 1.000000 0.697500
0.540000 1.000000 0.697500
0.671250 1.000000 0.697500
0.802500 1.000000 0.697500
0.933750 1.000000 0.697500
1.000000 1.000000 0.697500
0.015000 0.004000 0.813750
0.146250 0.004000 0.813750
0.277500 0.004000 0.813750
0.408750 0.004000 0.813750
0.540000 0.004000 0.813750
0.671250 0.004000 0.813750
0.802500 0.004000 0.813750
0.933750 0.004000 0.813750
1.000000 0.004000 0.813750
0.015000 0.129000 0.813750
0.146250 0.129000 0.813750
0.277500 0.129000 0.813750
0.408750 0.129000 0.813750
0.540000 0.129000 0.813750
0.671250 0.129000 0.813750
0.802500 0.129000 0.813750
0.933750 0.129000 0.813750
1.000000 0.129000 0.813750
0.015000 0.254000 0.813750
0.146250 0.254000 0.813750
0.277500 0.254000 0.813750
0.408750 0.254000 0.813750
0.540000 0.254000 0.813750
0.671250 0.254000 0.813750
0.802500 0.254000 0.813750
0.933750 0.254000 0.813750
1.000000 0.254000 0.813750
0.015000 0.379000 0.813750
0.146250 0.379000 0.813750
0.277500 0.379000 0.813750
0.408750 0.379000 0.813750
0.540000 0.379000 0.813750
0.671250 0.379000 0.813750
0.802500 0.379000 0.813750
0.933750 0.379000 0.813750
1.000000 0.379000 0.813750
0.015000 0.504000 0.813750
0.146250 0.504000 0.813750
0.277500 0.504000 0.813750
0.408750 0.504000 0.813750
0.540000 0.504000 0.813750
0.671250 0.504000 0.813750
0.802500 0.504000 0.813750
0.933750 0.504000 0.813750
1.000000 0.504000 0.813750
0.015000 0.629000 0.813750
0.146250 0.629000 0.813750
0.277500 0.629000 0.813750
0.408750 0.629000 0.813750
0.540000 0.629000 0.813750
0.671250 0.629000 0.813750
0.802500 0.629000 0.813750
0.933750 0.629000 0.813750
1.000000 0.629000 0.813750
0.015000 0.754000 0.813750
0.146250 0.754000 0.813750
0.277500 0.754000 0.813750
0.408750 0.754000 0.813750
0.540000 0.754000 0.813750
0.671250 0.754000 0.813750
0.802500 0.754000 0.813750
0.933750 0.754000 0.813750
1.000000 0.754000 0.813750
0.015000 0.879000 0.813750
0.146250 0.879000 0.813750
0.277500 0.879000 0.813750
0.408750 0.879000 0.813750
0.540000 0.879000 0.813750
0.671250 0.879000 0.813750
0.802500 0.879000 0.813750
0.933750 0.879000 0.813750
1.000000 0.879000 0.813750
0.015000 1.000000 0.813750
0.146250 1.000000 0.813750
0.277500 1.000000 0.813750
0.408750 1.000000 0.813750
0.540000 1.000000 0.813750
0.671250 1.000000 0.813750
0.802500 1.000000 0.813750
0.933750 1.000000 0.813750
1.000000 1.000000 0.813750
0.015000 0.004000 0.930000
0.146250 0.004000 0.930000
0.277500 0.004000 0.930000
0.408750 0.004000 0.930000
0.540000 0.004000 0.930000
0.671250 0.004000 0.930000
0.802500 0.004000 0.930000
0.933750 0.004000 0.930000
1.000000 0.004000 0.930000
0.015000 0.129000 0.930000
0.146250 0.129000 0.930000
0.277500 0.129000 0.930000
0.408750 0.129000 0.930000
0.540000 0.129000 0.930000
0.671250 0.129000 0.930000
0.802500 0.129000 0.930000
0.933750 0.129000 0.930000
1.000000 0.129000 0.930000
0.015000 0.254000 0.930000
0.146250 0.254000 0.930000
0.277500 0.254000 0.930000
0.408750 0.254000 0.930000
0.540000 0.254000 0.930000
0.671250 0.254000 0.930000
0.802500 0.254000 0.930000
0.933750 0.254000 0.930000
1.000000 0.254000 0.930000
0.015000 0.379000 0.930000
0.146250 0.379000 0.930000
0.277500 0.379000 0.930000
0.408750 0.379000 0.930000
0.540000 0.379000 0.930000
0.671250 0.379000 0.930000
0.802500 0.379000 0.930000
0.933750 0.379000 0.930000
1.000000 0.379000 0.930000
0.015000 0.504000 0.930000
0.146250 0.504000 0.930000
0.277500 0.504000 0.930000
0.408750 0.504000 0.930000
0.540000 0.504000 0.930000
0.671250 0.504000 0.930000
0.802500 0.504000 0.930000
0.933750 0.504000 0.930000
1.000000 0.504000 0.930000
0.015000 0.629000 0.930000
0.146250 0.629000 0.930000
0.277500 0.629000 0.930000
0.408750 0.629000 0.930000
0.540000 0.629000 0.930000
0.671250 0.629000 0.930000
0.802500 0.629000 0.930000
0.933750 0.629000 0.930000
1.000000 0.629000 0.930000
0.015000 0.754000 0.930000
0.146250 0.754000 0.930000
0.277500 0.754000 0.930000
0.408750 0.754000 0.930000
0.540000 0.754000 0.930000
0.671250 0.754000 0.930000
0.802500 0.754000 0.930000
0.933750 0.754000 0.930000
1.000000 0.754000 0.930000
0.015000 0.879000 0.930000
0.146250 0.879000 0.930000
0.277500 0.879000 0.930000
0.408750 0.879000 0.930000
0.540000 0.879000 0.930000
0.671250 0.879000 0.930000
0.802500 0.879000 0.930000
0.933750 0.879000 0.930000
1.000000 0.879000 0.930000
0.015000 1.000000 0.930000
0.146250 1.000000 0.930000
0.277500 1.000000 0.930000
0.408750 1.000000 0.930000
0.540000 1.000000 0.930000
0.671250 1.000000 0.930000
0.802500 1.000000 0.930000
0.933750 1.000000 0.930000
1.000000 1.000000 0.930000
