public/luts/warm.cube
TITLE "Warm"
LUT_3D_SIZE 17
0.015000 0.004000 0.000000
0.080625 0.004000 0.000000
0.146250 0.004000 0.000000
0.211875 0.004000 0.000000
0.277500 0.004000 0.000000
0.343125 0.004000 0.000000
0.408750 0.004000 0.000000
0.474375 0.004000 0.000000
0.540000 0.004000 0.000000
0.605625 0.004000 0.000000
0.671250 0.004000 0.000000
0.736875 0.004000 0.000000
0.802500 0.004000 0.000000
0.868125 0.004000 0.000000
0.933750 0.004000 0.000000
0.999375 0.004000 0.000000
1.000000 0.004000 0.000000
0.015000 0.066500 0.000000
0.080625 0.066500 0.000000
0.146250 0.066500 0.000000
0.211875 0.066500 0.000000
0.277500 0.066500 0.000000
0.343125 0.066500 0.000000
0.408750 0.066500 0.000000
0.474375 0.066500 0.000000
0.540000 0.066500 0.000000
0.605625 0.066500 0.000000
0.671250 0.066500 0.000000
0.736875 0.066500 0.000000
0.802500 0.066500 0.000000
0.868125 0.066500 0.000000
0.933750 0.066500 0.000000
0.999375 0.066500 0.000000
1.000000 0.066500 0.000000
0.015000 0.129000 0.000000
0.080625 0.129000 0.000000
0.146250 0.129000 0.000000
0.211875 0.129000 0.000000
0.277500 0.129000 0.000000
0.343125 0.129000 0.000000
0.408750 0.129000 0.000000
0.474375 0.129000 0.000000
0.540000 0.129000 0.000000
0.605625 0.129000 0.000000
0.671250 0.129000 0.000000
0.736875 0.129000 0.000000
0.802500 0.129000 0.000000
0.868125 0.129000 0.000000
0.933750 0.129000 0.000000
0.999375 0.129000 0.000000
1.000000 0.129000 0.000000
0.015000 0.191500 0.000000
0.080625 0.191500 0.000000
0.146250 0.191500 0.000000
0.211875 0.191500 0.000000
0.277500 0.191500 0.000000
0.343125 0.191500 0.000000
0.408750 0.191500 0.000000
0.474375 0.191500 0.000000
0.540000 0.191500 0.000000
0.605625 0.191500 0.000000
0.671250 0.191500 0.000000
0.736875 0.191500 0.000000
0.802500 0.191500 0.000000
0.868125 0.191500 0.000000
0.933750 0.191500 0.000000
0.999375 0.191500 0.000000
1.000000 0.191500 0.000000
0.015000 0.254000 0.000000
0.080625 0.254000 0.000000
0.146250 0.254000 0.000000
0.211875 0.254000 0.000000
0.277500 0.254000 0.000000
0.343125 0.254000 0.000000
0.408750 0.254000 0.000000
0.474375 0.254000 0.000000
0.540000 0.254000 0.000000
0.605625 0.254000 0.000000
0.671250 0.254000 0.000000
0.736875 0.254000 0.000000
0.802500 0.254000 0.000000
0.868125 0.254000 0.000000
0.933750 0.254000 0.000000
0.999375 0.254000 0.000000
1.000000 0.254000 0.000000
0.015000 0.316500 0.000000
0.080625 0.316500 0.000000
0.146250 0.316500 0.000000
0.211875 0.316500 0.000000
0.277500 0.316500 0.000000
0.343125 0.316500 0.000000
0.408750 0.316500 0.000000
0.474375 0.316500 0.000000
0.540000 0.316500 0.000000
0.605625 0.316500 0.000000
0.671250 0.316500 0.000000
0.736875 0.316500 0.000000
0.802500 0.316500 0.000000
0.868125 0.316500 0.000000
0.933750 0.316500 0.000000
0.999375 0.316500 0.000000
1.000000 0.316500 0.000000
0.015000 0.379000 0.000000
0.080625 0.379000 0.000000
0.146250 0.379000 0.000000
0.211875 0.379000 0.000000
0.277500 0.379000 0.000000
0.343125 0.379000 0.000000
0.408750 0.379000 0.000000
0.474375 0.379000 0.000000
0.540000 0.379000 0.000000
0.605625 0.379000 0.000000
0.671250 0.379000 0.000000
0.736875 0.379000 0.000000
0.802500 0.379000 0.000000
0.868125 0.379000 0.000000
0.933750 0.379000 0.000000
0.999375 0.379000 0.000000
1.000000 0.379000 0.000000
0.015000 0.441500 0.000000
0.080625 0.441500 0.000000
0.146250 0.441500 0.000000
0.211875 0.441500 0.000000
0.277500 0.441500 0.000000
0.343125 0.441500 0.000000
0.408750 0.441500 0.000000
0.474375 0.441500 0.000000
0.540000 0.441500 0.000000
0.605625 0.441500 0.000000
0.671250 0.441500 0.000000
0.736875 0.441500 0.000000
0.802500 0.441500 0.000000
0.868125 0.441500 0.000000
0.933750 0.441500 0.000000
0.999375 0.441500 0.000000
1.000000 0.441500 0.000000
0.015000 0.504000 0.000000
0.080625 0.504000 0.000000
0.146250 0.504000 0.000000
0.211875 0.504000 0.000000
0.277500 0.504000 0.000000
0.343125 0.504000 0.000000
0.408750 0.504000 0.000000
0.474375 0.504000 0.000000
0.540000 0.504000 0.000000
0.605625 0.504000 0.000000
0.671250 0.504000 0.000000
0.736875 0.504000 0.000000
0.802500 0.504000 0.000000
0.868125 0.504000 0.000000
0.933750 0.504000 0.000000
0.999375 0.504000 0.000000
1.000000 0.504000 0.000000
0.015000 0.566500 0.000000
0.080625 0.566500 0.000000
0.146250 0.566500 0.000000
0.211875 0.566500 0.000000
0.277500 0.566500 0.000000
0.343125 0.566500 0.000000
0.408750 0.566500 0.000000
0.474375 0.566500 0.000000
0.540000 0.566500 0.000000
0.605625 0.566500 0.000000
0.671250 0.566500 0.000000
0.736875 0.566500 0.000000
0.802500 0.566500 0.000000
0.868125 0.566500 0.000000
0.933750 0.566500 0.000000
0.999375 0.566500 0.000000
1.000000 0.566500 0.000000
0.015000 0.629000 0.000000
0.080625 0.629000 0.000000
0.146250 0.629000 0.000000
0.211875 0.629000 0.000000
0.277500 0.629000 0.000000
0.343125 0.629000 0.000000
0.408750 0.629000 0.000000
0.474375 0.629000 0.000000
0.540000 0.629000 0.000000
0.605625 0.629000 0.000000
0.671250 0.629000 0.000000
0.736875 0.629000 0.000000
0.802500 0.629000 0.000000
0.868125 0.629000 0.000000
0.933750 0.629000 0.000000
0.999375 0.629000 0.000000
1.000000 0.629000 0.000000
0.015000 0.691500 0.000000
0.080625 0.691500 0.000000
0.146250 0.691500 0.000000
0.211875 0.691500 0.000000
0.277500 0.691500 0.000000
0.343125 0.691500 0.000000
0.408750 0.691500 0.000000
0.474375 0.691500 0.000000
0.540000 0.691500 0.000000
0.605625 0.691500 0.000000
0.671250 0.691500 0.000000
0.736875 0.691500 0.000000
0.802500 0.691500 0.000000
0.868125 0.691500 0.000000
0.933750 0.691500 0.000000
0.999375 0.691500 0.000000
1.000000 0.691500 0.000000
0.015000 0.754000 0.000000
0.080625 0.754000 0.000000
0.146250 0.754000 0.000000
0.211875 0.754000 0.000000
0.277500 0.754000 0.000000
0.343125 0.754000 0.000000
0.408750 0.754000 0.000000
0.474375 0.754000 0.000000
0.540000 0.754000 0.000000
0.605625 0.754000 0.000000
0.671250 0.754000 0.000000
0.736875 0.754000 0.000000
0.802500 0.754000 0.000000
0.868125 0.754000 0.000000
0.933750 0.754000 0.000000
0.999375 0.754000 0.000000
1.000000 0.754000 0.000000
0.015000 0.816500 0.000000
0.080625 0.816500 0.000000
0.146250 0.816500 0.000000
0.211875 0.816500 0.000000
0.277500 0.816500 0.000000
0.343125 0.816500 0.000000
0.408750 0.816500 0.000000
0.474375 0.816500 0.000000
0.540000 0.816500 0.000000
0.605625 0.816500 0.000000
0.671250 0.816500 0.000000
0.736875 0.816500 0.000000
0.802500 0.816500 0.000000
0.868125 0.816500 0.000000
0.933750 0.816500 0.000000
0.999375 0.816500 0.000000
1.000000 0.816500 0.000000
0.015000 0.879000 0.000000
0.080625 0.879000 0.000000
0.146250 0.879000 0.000000
0.211875 0.879000 0.000000
0.277500 0.879000 0.000000
0.343125 0.879000 0.000000
0.408750 0.879000 0.000000
0.474375 0.879000 0.000000
0.540000 0.879000 0.000000
0.605625 0.879000 0.000000
0.671250 0.879000 0.000000
0.736875 0.879000 0.000000
0.802500 0.879000 0.000000
0.868125 0.879000 0.000000
0.933750 0.879000 0.000000
0.999375 0.879000 0.000000
1.000000 0.879000 0.000000
0.015000 0.941500 0.000000
0.080625 0.941500 0.000000
0.146250 0.941500 0.000000
0.211875 0.941500 0.000000
0.277500 0.941500 0.000000
0.343125 0.941500 0.000000
0.408750 0.941500 0.000000
0.474375 0.941500 0.000000
0.540000 0.941500 0.000000
0.605625 0.941500 0.000000
0.671250 0.941500 0.000000
0.736875 0.941500 0.000000
0.802500 0.941500 0.000000
0.868125 0.941500 0.000000
0.933750 0.941500 0.000000
0.999375 0.941500 0.000000
1.000000 0.941500 0.000000
0.015000 1.000000 0.000000
0.080625 1.000000 0.000000
0.146250 1.000000 0.000000
0.211875 1.000000 0.000000
0.277500 1.000000 0.000000
0.343125 1.000000 0.000000
0.408750 1.000000 0.000000
0.474375 1.000000 0.000000
0.540000 1.000000 0.000000
0.605625 1.000000 0.000000
0.671250 1.000000 0.000000
0.736875 1.000000 0.000000
0.802500 1.000000 0.000000
0.868125 1.000000 0.000000
0.933750 1.000000 0.000000
0.999375 1.000000 0.000000
1.000000 1.000000 0.000000
0.015000 0.004000 0.058125
0.080625 0.004000 0.058125
0.146250 0.004000 0.058125
0.211875 0.004000 0.058125
0.277500 0.004000 0.058125
0.343125 0.004000 0.058125
0.408750 0.004000 0.058125
0.474375 0.004000 0.058125
0.540000 0.004000 0.058125
0.605625 0.004000 0.058125
0.671250 0.004000 0.058125
0.736875 0.004000 0.058125
0.802500 0.004000 0.058125
0.868125 0.004000 0.058125
0.933750 0.004000 0.058125
0.999375 0.004000 0.058125
1.000000 0.004000 0.058125
0.015000 0.066500 0.058125
0.080625 0.066500 0.058125
0.146250 0.066500 0.058125
0.211875 0.066500 0.058125
0.277500 0.066500 0.058125
0.343125 0.066500 0.058125
0.408750 0.066500 0.058125
0.474375 0.066500 0.058125
0.540000 0.066500 0.058125
0.605625 0.066500 0.058125
0.671250 0.066500 0.058125
0.736875 0.066500 0.058125
0.802500 0.066500 0.058125
0.868125 0.066500 0.058125
0.933750 0.066500 0.058125
0.999375 0.066500 0.058125
1.000000 0.066500 0.058125
0.015000 0.129000 0.058125
0.080625 0.129000 0.058125
0.146250 0.129000 0.058125
0.211875 0.129000 0.058125
0.277500 0.129000 0.058125
0.343125 0.129000 0.058125
0.408750 0.129000 0.058125
0.474375 0.129000 0.058125
0.540000 0.129000 0.058125
0.605625 0.129000 0.058125
0.671250 0.129000 0.058125
0.736875 0.129000 0.058125
0.802500 0.129000 0.058125
0.868125 0.129000 0.058125
0.933750 0.129000 0.058125
0.999375 0.129000 0.058125
1.000000 0.129000 0.058125
0.015000 0.191500 0.058125
0.080625 0.191500 0.058125
0.146250 0.191500 0.058125
0.211875 0.191500 0.058125
0.277500 0.191500 0.058125
0.343125 0.191500 0.058125
0.408750 0.191500 0.058125
0.474375 0.191500 0.058125
0.540000 0.191500 0.058125
0.605625 0.191500 0.058125
0.671250 0.191500 0.058125
0.736875 0.191500 0.058125
0.802500 0.191500 0.058125
0.868125 0.191500 0.058125
0.933750 0.191500 0.058125
0.999375 0.191500 0.058125
1.000000 0.191500 0.058125
0.015000 0.254000 0.058125
0.080625 0.254000 0.058125
0.146250 0.254000 0.058125
0.211875 0.254000 0.058125
0.277500 0.254000 0.058125
0.343125 0.254000 0.058125
0.408750 0.254000 0.058125
0.474375 0.254000 0.058125
0.540000 0.254000 0.058125
0.605625 0.254000 0.058125
0.671250 0.254000 0.058125
0.736875 0.254000 0.058125
0.802500 0.254000 0.058125
0.868125 0.254000 0.058125
0.933750 0.254000 0.058125
0.999375 0.254000 0.058125
1.000000 0.254000 0.058125
0.015000 0.316500 0.058125
0.080625 0.316500 0.058125
0.146250 0.316500 0.058125
0.211875 0.316500 0.058125
0.277500 0.316500 0.058125
0.343125 0.316500 0.058125
0.408750 0.316500 0.058125
0.474375 0.316500 0.058125
0.540000 0.316500 0.058125
0.605625 0.316500 0.058125
0.671250 0.316500 0.058125
0.736875 0.316500 0.058125
0.802500 0.316500 0.058125
0.868125 0.316500 0.058125
0.933750 0.316500 0.058125
0.999375 0.316500 0.058125
1.000000 0.316500 0.058125
0.015000 0.379000 0.058125
0.080625 0.379000 0.058125
0.146250 0.379000 0.058125
0.211875 0.379000 0.058125
0.277500 0.379000 0.058125
0.343125 0.379000 0.058125
0.408750 0.379000 0.058125
0.474375 0.379000 0.058125
0.540000 0.379000 0.058125
0.605625 0.379000 0.058125
0.671250 0.379000 0.058125
0.736875 0.379000 0.058125
0.802500 0.379000 0.058125
0.868125 0.379000 0.058125
0.933750 0.379000 0.058125
0.999375 0.379000 0.058125
1.000000 0.379000 0.058125
0.015000 0.441500 0.058125
0.080625 0.441500 0.058125
0.146250 0.441500 0.058125
0.211875 0.441500 0.058125
0.277500 0.441500 0.058125
0.343125 0.441500 0.058125
0.408750 0.441500 0.058125
0.474375 0.441500 0.058125
0.540000 0.441500 0.058125
0.605625 0.441500 0.058125
0.671250 0.441500 0.058125
0.736875 0.441500 0.058125
0.802500 0.441500 0.058125
0.868125 0.441500 0.058125
0.933750 0.441500 0.058125
0.999375 0.441500 0.058125
1.000000 0.441500 0.058125
0.015000 0.504000 0.058125
0.080625 0.504000 0.058125
0.146250 0.504000 0.058125
0.211875 0.504000 0.058125
0.277500 0.504000 0.058125
0.343125 0.504000 0.058125
0.408750 0.504000 0.058125
0.474375 0.504000 0.058125
0.540000 0.504000 0.058125
0.605625 0.504000 0.058125
0.671250 0.504000 0.058125
0.736875 0.504000 0.058125
0.802500 0.504000 0.058125
0.868125 0.504000 0.058125
0.933750 0.504000 0.058125
0.999375 0.504000 0.058125
1.000000 0.504000 0.058125
0.015000 0.566500 0.058125
0.080625 0.566500 0.058125
0.146250 0.566500 0.058125
0.211875 0.566500 0.058125
0.277500 0.566500 0.058125
0.343125 0.566500 0.058125
0.408750 0.566500 0.058125
0.474375 0.566500 0.058125
0.540000 0.566500 0.058125
0.605625 0.566500 0.058125
0.671250 0.566500 0.058125
0.736875 0.566500 0.058125
0.802500 0.566500 0.058125
0.868125 0.566500 0.058125
0.933750 0.566500 0.058125
0.999375 0.566500 0.058125
1.000000 0.566500 0.058125
0.015000 0.629000 0.058125
0.080625 0.629000 0.058125
0.146250 0.629000 0.058125
0.211875 0.629000 0.058125
0.277500 0.629000 0.058125
0.343125 0.629000 0.058125
0.408750 0.629000 0.058125
0.474375 0.629000 0.058125
0.540000 0.629000 0.058125
0.605625 0.629000 0.058125
0.671250 0.629000 0.058125
0.736875 0.629000 0.058125
0.802500 0.629000 0.058125
0.868125 0.629000 0.058125
0.933750 0.629000 0.058125
0.999375 0.629000 0.058125
1.000000 0.629000 0.058125
0.015000 0.691500 0.058125
0.080625 0.691500 0.058125
0.146250 0.691500 0.058125
0.211875 0.691500 0.058125
0.277500 0.691500 0.058125
0.343125 0.691500 0.058125
0.408750 0.691500 0.058125
0.474375 0.691500 0.058125
0.540000 0.691500 0.058125
0.605625 0.691500 0.058125
0.671250 0.691500 0.058125
0.736875 0.691500 0.058125
0.802500 0.691500 0.058125
0.868125 0.691500 0.058125
0.933750 0.691500 0.058125
0.999375 0.691500 0.058125
1.000000 0.691500 0.058125
0.015000 0.754000 0.058125
0.080625 0.754000 0.058125
0.146250 0.754000 0.058125
0.211875 0.754000 0.058125
0.277500 0.754000 0.058125
0.343125 0.754000 0.058125
0.408750 0.754000 0.058125
0.474375 0.754000 0.058125
0.540000 0.754000 0.058125
0.605625 0.754000 0.058125
0.671250 0.754000 0.058125
0.736875 0.754000 0.058125
0.802500 0.754000 0.058125
0.868125 0.754000 0.058125
0.933750 0.754000 0.058125
0.999375 0.754000 0.058125
1.000000 0.754000 0.058125
0.015000 0.816500 0.058125
0.080625 0.816500 0.058125
0.146250 0.816500 0.058125
0.211875 0.816500 0.058125
0.277500 0.816500 0.058125
0.343125 0.816500 0.058125
0.408750 0.816500 0.058125
0.474375 0.816500 0.058125
0.540000 0.816500 0.058125
0.605625 0.816500 0.058125
0.671250 0.816500 0.058125
0.736875 0.816500 0.058125
0.802500 0.816500 0.058125
0.868125 0.816500 0.058125
0.933750 0.816500 0.058125
0.999375 0.816500 0.058125
1.000000 0.816500 0.058125
0.015000 0.879000 0.058125
0.080625 0.879000 0.058125
0.146250 0.879000 0.058125
0.211875 0.879000 0.058125
0.277500 0.879000 0.058125
0.343125 0.879000 0.058125
0.408750 0.879000 0.058125
0.474375 0.879000 0.058125
0.540000 0.879000 0.058125
0.605625 0.879000 0.058125
0.671250 0.879000 0.058125
0.736875 0.879000 0.058125
0.802500 0.879000 0.058125
0.868125 0.879000 0.058125
0.933750 0.879000 0.058125
0.999375 0.879000 0.058125
1.000000 0.879000 0.058125
0.015000 0.941500 0.058125
0.080625 0.941500 0.058125
0.146250 0.941500 0.058125
0.211875 0.941500 0.058125
0.277500 0.941500 0.058125
0.343125 0.941500 0.058125
0.408750 0.941500 0.058125
0.474375 0.941500 0.058125
0.540000 0.941500 0.058125
0.605625 0.941500 0.058125
0.671250 0.941500 0.058125
0.736875 0.941500 0.058125
0.802500 0.941500 0.058125
0.868125 0.941500 0.058125
0.933750 0.941500 0.058125
0.999375 0.941500 0.058125
1.000000 0.941500 0.058125
0.015000 1.000000 0.058125
0.080625 1.000000 0.058125
0.146250 1.000000 0.058125
0.211875 1.000000 0.058125
0.277500 1.000000 0.058125
0.343125 1.000000 0.058125
0.408750 1.000000 0.058125
0.474375 1.000000 0.058125
0.540000 1.000000 0.058125
0.605625 1.000000 0.058125
0.671250 1.000000 0.058125
0.736875 1.000000 0.058125
0.802500 1.000000 0.058125
0.868125 1.000000 0.058125
0.933750 1.000000 0.058125
0.999375 1.000000 0.058125
1.000000 1.000000 0.058125
0.015000 0.004000 0.116250
0.080625 0.004000 0.116250
0.146250 0.004000 0.116250
0.211875 0.004000 0.116250
0.277500 0.004000 0.116250
0.343125 0.004000 0.116250
0.408750 0.004000 0.116250
0.474375 0.004000 0.116250
0.540000 0.004000 0.116250
0.605625 0.004000 0.116250
0.671250 0.004000 0.116250
0.736875 0.004000 0.116250
0.802500 0.004000 0.116250
0.868125 0.004000 0.116250
0.933750 0.004000 0.116250
0.999375 0.004000 0.116250
1.000000 0.004000 0.116250
0.015000 0.066500 0.116250
0.080625 0.066500 0.116250
0.146250 0.066500 0.116250
0.211875 0.066500 0.116250
0.277500 0.066500 0.116250
0.343125 0.066500 0.116250
0.408750 0.066500 0.116250
0.474375 0.066500 0.116250
0.540000 0.066500 0.116250
0.605625 0.066500 0.116250
0.671250 0.066500 0.116250
0.736875 0.066500 0.116250
0.802500 0.066500 0.116250
0.868125 0.066500 0.116250
0.933750 0.066500 0.116250
0.999375 0.066500 0.116250
1.000000 0.066500 0.116250
0.015000 0.129000 0.116250
0.080625 0.129000 0.116250
0.146250 0.129000 0.116250
0.211875 0.129000 0.116250
0.277500 0.129000 0.116250
0.343125 0.129000 0.116250
0.408750 0.129000 0.116250
0.474375 0.129000 0.116250
0.540000 0.129000 0.116250
0.605625 0.129000 0.116250
0.671250 0.129000 0.116250
0.736875 0.129000 0.116250
0.802500 0.129000 0.116250
0.868125 0.129000 0.116250
0.933750 0.129000 0.116250
0.999375 0.129000 0.116250
1.000000 0.129000 0.116250
0.015000 0.191500 0.116250
0.080625 0.191500 0.116250
0.146250 0.191500 0.116250
0.211875 0.191500 0.116250
0.277500 0.191500 0.116250
0.343125 0.191500 0.116250
0.408750 0.191500 0.116250
0.474375 0.191500 0.116250
0.540000 0.191500 0.116250
0.605625 0.191500 0.116250
0.671250 0.191500 0.116250
0.736875 0.191500 0.116250
0.802500 0.191500 0.116250
0.868125 0.191500 0.116250
0.933750 0.191500 0.116250
0.999375 0.191500 0.116250
1.000000 0.191500 0.116250
0.015000 0.254000 0.116250
0.080625 0.254000 0.116250
0.146250 0.254000 0.116250
0.211875 0.254000 0.116250
0.277500 0.254000 0.116250
0.343125 0.254000 0.116250
0.408750 0.254000 0.116250
0.474375 0.254000 0.116250
0.540000 0.254000 0.116250
0.605625 0.254000 0.116250
0.671250 0.254000 0.116250
0.736875 0.254000 0.116250
0.802500 0.254000 0.116250
0.868125 0.254000 0.116250
0.933750 0.254000 0.116250
0.999375 0.254000 0.116250
1.000000 0.254000 0.116250
0.015000 0.316500 0.116250
0.080625 0.316500 0.116250
0.146250 0.316500 0.116250
0.211875 0.316500 0.116250
0.277500 0.316500 0.116250
0.343125 0.316500 0.116250
0.408750 0.316500 0.116250
0.474375 0.316500 0.116250
0.540000 0.316500 0.116250
0.605625 0.316500 0.116250
0.671250 0.316500 0.116250
0.736875 0.316500 0.116250
0.802500 0.316500 0.116250
0.868125 0.316500 0.116250
0.933750 0.316500 0.116250
0.999375 0.316500 0.116250
1.000000 0.316500 0.116250
0.015000 0.379000 0.116250
0.080625 0.379000 0.116250
0.146250 0.379000 0.116250
0.211875 0.379000 0.116250
0.277500 0.379000 0.116250
0.343125 0.379000 0.116250
0.408750 0.379000 0.116250
0.474375 0.379000 0.116250
0.540000 0.379000 0.116250
0.605625 0.379000 0.116250
0.671250 0.379000 0.116250
0.736875 0.379000 0.116250
0.802500 0.379000 0.116250
0.868125 0.379000 0.116250
0.933750 0.379000 0.116250
0.999375 0.379000 0.116250
1.000000 0.379000 0.116250
0.015000 0.441500 0.116250
0.080625 0.441500 0.116250
0.146250 0.441500 0.116250
0.211875 0.441500 0.116250
0.277500 0.441500 0.116250
0.343125 0.441500 0.116250
0.408750 0.441500 0.116250
0.474375 0.441500 0.116250
0.540000 0.441500 0.116250
0.605625 0.441500 0.116250
0.671250 0.441500 0.116250
0.736875 0.441500 0.116250
0.802500 0.441500 0.116250
0.868125 0.441500 0.116250
0.933750 0.441500 0.116250
0.999375 0.441500 0.116250
1.000000 0.441500 0.116250
0.015000 0.504000 0.116250
0.080625 0.504000 0.116250
0.146250 0.504000 0.116250
0.211875 0.504000 0.116250
0.277500 0.504000 0.116250
0.343125 0.504000 0.116250
0.408750 0.504000 0.116250
0.474375 0.504000 0.116250
0.540000 0.504000 0.116250
0.605625 0.504000 0.116250
0.671250 0.504000 0.116250
0.736875 0.504000 0.116250
0.802500 0.504000 0.116250
0.868125 0.504000 0.116250
0.933750 0.504000 0.116250
0.999375 0.504000 0.116250
1.000000 0.504000 0.116250
0.015000 0.566500 0.116250
0.080625 0.566500 0.116250
0.146250 0.566500 0.116250
0.211875 0.566500 0.116250
0.277500 0.566500 0.116250
0.343125 0.566500 0.116250
0.408750 0.566500 0.116250
0.474375 0.566500 0.116250
0.540000 0.566500 0.116250
0.605625 0.566500 0.116250
0.671250 0.566500 0.116250
0.736875 0.566500 0.116250
0.802500 0.566500 0.116250
0.868125 0.566500 0.116250
0.933750 0.566500 0.116250
0.999375 0.566500 0.116250
1.000000 0.566500 0.116250
0.015000 0.629000 0.116250
0.080625 0.629000 0.116250
0.146250 0.629000 0.116250
0.211875 0.629000 0.116250
0.277500 0.629000 0.116250
0.343125 0.629000 0.116250
0.408750 0.629000 0.116250
0.474375 0.629000 0.116250
0.540000 0.629000 0.116250
0.605625 0.629000 0.116250
0.671250 0.629000 0.116250
0.736875 0.629000 0.116250
0.802500 0.629000 0.116250
0.868125 0.629000 0.116250
0.933750 0.629000 0.116250
0.999375 0.629000 0.116250
1.000000 0.629000 0.116250
0.015000 0.691500 0.116250
0.080625 0.691500 0.116250
0.146250 0.691500 0.116250
0.211875 0.691500 0.116250
0.277500 0.691500 0.116250
0.343125 0.691500 0.116250
0.408750 0.691500 0.116250
0.474375 0.691500 0.116250
0.540000 0.691500 0.116250
0.605625 0.691500 0.116250
0.671250 0.691500 0.116250
0.736875 0.691500 0.116250
0.802500 0.691500 0.116250
0.868125 0.691500 0.116250
0.933750 0.691500 0.116250
0.999375 0.691500 0.116250
1.000000 0.691500 0.116250
0.015000 0.754000 0.116250
0.080625 0.754000 0.116250
0.146250 0.754000 0.116250
0.211875 0.754000 0.116250
0.277500 0.754000 0.116250
0.343125 0.754000 0.116250
0.408750 0.754000 0.116250
0.474375 0.754000 0.116250
0.540000 0.754000 0.116250
0.605625 0.754000 0.116250
0.671250 0.754000 0.116250
0.736875 0.754000 0.116250
0.802500 0.754000 0.116250
0.868125 0.754000 0.116250
0.933750 0.754000 0.116250
0.999375 0.754000 0.116250
1.000000 0.754000 0.116250
0.015000 0.816500 0.116250
0.080625 0.816500 0.116250
0.146250 0.816500 0.116250
0.211875 0.816500 0.116250
0.277500 0.816500 0.116250
0.343125 0.816500 0.116250
0.408750 0.816500 0.116250
0.474375 0.816500 0.116250
0.540000 0.816500 0.116250
0.605625 0.816500 0.116250
0.671250 0.816500 0.116250
0.736875 0.816500 0.116250
0.802500 0.816500 0.116250
0.868125 0.816500 0.116250
0.933750 0.816500 0.116250
0.999375 0.816500 0.116250
1.000000 0.816500 0.116250
0.015000 0.879000 0.116250
0.080625 0.879000 0.116250
0.146250 0.879000 0.116250
0.211875 0.879000 0.116250
0.277500 0.879000 0.116250
0.343125 0.879000 0.116250
0.408750 0.879000 0.116250
0.474375 0.879000 0.116250
0.540000 0.879000 0.116250
0.605625 0.879000 0.116250
0.671250 0.879000 0.116250
0.736875 0.879000 0.116250
0.802500 0.879000 0.116250
0.868125 0.879000 0.116250
0.933750 0.879000 0.116250
0.999375 0.879000 0.116250
1.000000 0.879000 0.116250
0.015000 0.941500 0.116250
0.080625 0.941500 0.116250
0.146250 0.941500 0.116250
0.211875 0.941500 0.116250
0.277500 0.941500 0.116250
0.343125 0.941500 0.116250
0.408750 0.941500 0.116250
0.474375 0.941500 0.116250
0.540000 0.941500 0.116250
0.605625 0.941500 0.116250
0.671250 0.941500 0.116250
0.736875 0.941500 0.116250
0.802500 0.941500 0.116250
0.868125 0.941500 0.116250
0.933750 0.941500 0.116250
0.999375 0.941500 0.116250
1.000000 0.941500 0.116250
0.015000 1.000000 0.116250
0.080625 1.000000 0.116250
0.146250 1.000000 0.116250
0.211875 1.000000 0.116250
0.277500 1.000000 0.116250
0.343125 1.000000 0.116250
0.408750 1.000000 0.116250
0.474375 1.000000 0.116250
0.540000 1.000000 0.116250
0.605625 1.000000 0.116250
0.671250 1.000000 0.116250
0.736875 1.000000 0.116250
0.802500 1.000000 0.116250
0.868125 1.000000 0.116250
0.933750 1.000000 0.116250
0.999375 1.000000 0.116250
1.000000 1.000000 0.116250
0.015000 0.004000 0.174375
0.080625 0.004000 0.174375
0.146250 0.004000 0.174375
0.211875 0.004000 0.174375
0.277500 0.004000 0.174375
0.343125 0.004000 0.174375
0.408750 0.004000 0.174375
0.474375 0.004000 0.174375
0.540000 0.004000 0.174375
0.605625 0.004000 0.174375
0.671250 0.004000 0.174375
0.736875 0.004000 0.174375
0.802500 0.004000 0.174375
0.868125 0.004000 0.174375
0.933750 0.004000 0.174375
0.999375 0.004000 0.174375
1.000000 0.004000 0.174375
0.015000 0.066500 0.174375
0.080625 0.066500 0.174375
0.146250 0.066500 0.174375
